P3
200 100
255
212 230 255
212 230 255
212 230 255
212 230 255
212 230 255
212 230 255
212 230 255
211 230 255
211 230 255
211 230 255
211 230 255
211 230 255
211 230 255
211 230 255
211 230 255
211 230 255
211 230 255
211 230 255
211 230 255
211 230 255
210 230 255
210 230 255
210 229 255
210 229 255
210 229 255
210 229 255
210 229 255
210 229 255
210 229 255
210 229 255
210 229 255
210 229 255
209 229 255
209 229 255
209 229 255
209 229 255
209 229 255
209 229 255
209 229 255
209 229 255
209 229 255
209 229 255
209 229 255
209 228 255
208 228 255
208 228 255
208 228 255
208 228 255
208 228 255
208 228 255
208 228 255
208 228 255
208 228 255
208 228 255
208 228 255
207 228 255
207 228 255
207 228 255
207 228 255
207 228 255
207 228 255
207 228 255
207 228 255
207 227 255
207 227 255
207 227 255
206 227 255
206 227 255
206 227 255
206 227 255
206 227 255
206 227 255
206 227 255
206 227 255
206 227 255
206 227 255
206 227 255
206 227 255
206 227 255
206 227 255
205 227 255
205 227 255
205 227 255
205 227 255
205 227 255
205 227 255
205 227 255
205 227 255
205 227 255
205 227 255
205 227 255
205 227 255
205 227 255
205 227 255
205 226 255
205 226 255
205 226 255
205 226 255
205 226 255
205 226 255
205 226 255
205 226 255
205 226 255
205 226 255
205 226 255
205 226 255
205 226 255
205 227 255
205 227 255
205 226 255
200 224 255
194 221 255
191 219 255
189 218 255
187 217 255
186 217 255
185 216 255
184 216 255
184 215 255
183 215 255
182 214 255
181 213 253
182 214 254
179 210 250
178 209 249
179 211 251
177 207 246
177 208 247
178 209 248
180 210 249
178 208 246
182 212 251
180 210 249
186 216 255
186 216 255
188 217 255
189 218 255
190 218 255
191 219 255
192 220 255
194 221 255
195 221 255
198 223 255
201 224 255
205 227 255
208 228 255
208 228 255
208 228 255
208 228 255
208 228 255
208 228 255
208 228 255
208 228 255
208 228 255
208 228 255
208 228 255
209 228 255
209 229 255
209 229 255
209 229 255
209 229 255
209 229 255
209 229 255
209 229 255
209 229 255
209 229 255
209 229 255
210 229 255
210 229 255
210 229 255
210 229 255
210 229 255
210 229 255
210 229 255
210 229 255
210 229 255
210 229 255
210 229 255
210 230 255
210 230 255
211 230 255
211 230 255
211 230 255
211 230 255
211 230 255
211 230 255
211 230 255
211 230 255
211 230 255
211 230 255
211 230 255
211 230 255
211 230 255
212 230 255
212 230 255
212 230 255
212 230 255
212 230 255
212 230 255
212 230 255
212 230 255
212 230 255
212 230 255
212 230 255
212 230 255
212 230 255
212 230 255
212 230 255
212 230 255
212 230 255
211 230 255
211 230 255
211 230 255
211 230 255
211 230 255
211 230 255
211 230 255
211 230 255
211 230 255
211 230 255
211 230 255
211 230 255
211 230 255
211 230 255
210 230 255
210 229 255
210 229 255
210 229 255
210 229 255
210 229 255
210 229 255
210 229 255
210 229 255
210 229 255
210 229 255
210 229 255
209 229 255
209 229 255
209 229 255
209 229 255
209 229 255
209 229 255
209 229 255
209 229 255
209 229 255
209 229 255
209 229 255
209 228 255
208 228 255
208 228 255
208 228 255
208 228 255
208 228 255
208 228 255
208 228 255
208 228 255
208 228 255
208 228 255
208 228 255
207 228 255
207 228 255
207 228 255
207 228 255
207 228 255
207 228 255
207 228 255
207 228 255
207 228 255
207 227 255
207 227 255
207 227 255
206 227 255
206 227 255
206 227 255
206 227 255
206 227 255
206 227 255
206 227 255
206 227 255
206 227 255
206 227 255
206 227 255
206 227 255
206 227 255
206 227 255
206 227 255
206 227 255
205 227 255
205 227 255
205 227 255
205 227 255
205 227 255
205 227 255
205 227 255
205 227 255
205 227 255
205 227 255
205 227 255
205 227 255
205 227 255
205 227 255
205 227 255
205 227 255
205 227 255
205 227 255
205 227 255
205 227 255
205 227 255
203 225 255
197 222 255
192 220 255
190 218 255
188 217 255
186 217 255
185 216 255
184 215 255
183 214 254
180 212 252
178 210 249
172 202 240
172 202 241
172 202 241
167 195 232
165 194 231
168 197 235
165 194 230
170 199 237
171 201 239
171 200 238
168 197 234
168 196 233
172 201 237
170 199 235
179 209 247
172 201 237
180 210 247
184 213 250
187 216 253
190 218 255
191 219 255
192 220 255
194 221 255
195 221 255
198 223 255
200 224 255
205 227 255
208 228 255
208 228 255
208 228 255
208 228 255
208 228 255
208 228 255
209 228 255
209 229 255
209 229 255
209 229 255
209 229 255
209 229 255
209 229 255
209 229 255
209 229 255
209 229 255
209 229 255
209 229 255
210 229 255
210 229 255
210 229 255
210 229 255
210 229 255
210 229 255
210 229 255
210 229 255
210 229 255
210 229 255
210 230 255
210 230 255
211 230 255
211 230 255
211 230 255
211 230 255
211 230 255
211 230 255
211 230 255
211 230 255
211 230 255
211 230 255
211 230 255
211 230 255
211 230 255
212 230 255
212 230 255
212 230 255
212 230 255
212 230 255
212 230 255
212 230 255
212 230 255
212 230 255
212 230 255
212 230 255
212 231 255
212 231 255
212 231 255
212 231 255
212 230 255
212 230 255
212 230 255
212 230 255
212 230 255
212 230 255
212 230 255
212 230 255
212 230 255
212 230 255
212 230 255
211 230 255
211 230 255
211 230 255
211 230 255
211 230 255
211 230 255
211 230 255
211 230 255
211 230 255
211 230 255
211 230 255
211 230 255
211 230 255
211 230 255
210 229 255
210 229 255
210 229 255
210 229 255
210 229 255
210 229 255
210 229 255
210 229 255
210 229 255
210 229 255
210 229 255
209 229 255
209 229 255
209 229 255
209 229 255
209 229 255
209 229 255
209 229 255
209 229 255
209 229 255
209 229 255
209 229 255
208 228 255
208 228 255
208 228 255
208 228 255
208 228 255
208 228 255
208 228 255
208 228 255
208 228 255
208 228 255
208 228 255
208 228 255
207 228 255
207 228 255
207 228 255
207 228 255
207 228 255
207 228 255
207 228 255
207 228 255
207 228 255
207 227 255
207 227 255
207 227 255
207 227 255
206 227 255
206 227 255
206 227 255
206 227 255
206 227 255
206 227 255
206 227 255
206 227 255
206 227 255
206 227 255
206 227 255
206 227 255
206 227 255
206 227 255
206 227 255
206 227 255
206 227 255
206 227 255
206 227 255
206 227 255
206 227 255
206 227 255
206 227 255
206 227 255
206 227 255
206 227 255
206 227 255
206 227 255
206 227 255
206 227 255
205 227 255
201 224 255
195 221 255
191 219 255
189 218 255
187 217 255
186 216 255
184 215 255
183 214 254
176 207 246
172 202 240
172 202 241
166 194 231
163 191 228
164 194 231
160 189 225
157 184 219
163 191 227
160 188 223
160 188 223
163 191 227
166 194 230
162 190 225
161 188 223
164 191 226
165 192 226
168 196 231
164 191 226
172 200 236
166 193 228
166 194 230
178 207 244
183 211 248
190 218 255
191 218 255
193 220 255
194 221 255
196 222 255
198 223 255
200 224 255
205 226 255
208 228 255
209 228 255
209 229 255
209 229 255
209 229 255
209 229 255
209 229 255
209 229 255
209 229 255
209 229 255
209 229 255
209 229 255
209 229 255
210 229 255
210 229 255
210 229 255
210 229 255
210 229 255
210 229 255
210 229 255
210 229 255
210 229 255
210 229 255
210 229 255
210 230 255
211 230 255
211 230 255
211 230 255
211 230 255
211 230 255
211 230 255
211 230 255
211 230 255
211 230 255
211 230 255
211 230 255
211 230 255
211 230 255
212 230 255
212 230 255
212 230 255
212 230 255
212 230 255
212 230 255
212 230 255
212 230 255
212 230 255
212 230 255
212 230 255
212 231 255
212 231 255
212 231 255
212 231 255
213 231 255
213 231 255
213 231 255
213 231 255
212 231 255
212 231 255
212 231 255
212 231 255
212 231 255
212 230 255
212 230 255
212 230 255
212 230 255
212 230 255
212 230 255
212 230 255
212 230 255
212 230 255
212 230 255
211 230 255
211 230 255
211 230 255
211 230 255
211 230 255
211 230 255
211 230 255
211 230 255
211 230 255
211 230 255
211 230 255
211 230 255
211 230 255
210 230 255
210 229 255
210 229 255
210 229 255
210 229 255
210 229 255
210 229 255
210 229 255
210 229 255
210 229 255
210 229 255
210 229 255
209 229 255
209 229 255
209 229 255
209 229 255
209 229 255
209 229 255
209 229 255
209 229 255
209 229 255
209 229 255
209 228 255
209 228 255
208 228 255
208 228 255
208 228 255
208 228 255
208 228 255
208 228 255
208 228 255
208 228 255
208 228 255
208 228 255
208 228 255
207 228 255
207 228 255
207 228 255
207 228 255
207 228 255
207 228 255
207 228 255
207 228 255
207 228 255
207 228 255
207 228 255
207 227 255
207 227 255
207 227 255
207 227 255
206 227 255
206 227 255
206 227 255
206 227 255
206 227 255
206 227 255
206 227 255
206 227 255
206 227 255
206 227 255
206 227 255
206 227 255
206 227 255
206 227 255
206 227 255
206 227 255
206 227 255
206 227 255
206 227 255
206 227 255
206 227 255
206 227 255
206 227 255
205 227 255
198 223 255
194 221 255
191 219 255
188 218 255
187 217 255
185 215 254
181 211 250
175 204 242
171 201 238
162 190 226
155 182 216
155 182 217
155 182 218
160 188 224
157 184 219
155 182 216
156 184 218
154 181 214
155 182 215
156 183 217
155 181 215
157 184 218
151 176 208
153 178 211
155 180 212
158 184 217
156 182 212
159 185 218
165 191 226
160 185 218
165 190 224
170 198 233
166 193 227
183 211 247
179 207 242
185 212 247
193 220 255
195 221 255
196 222 255
198 223 255
201 224 255
206 227 255
209 229 255
209 229 255
209 229 255
209 229 255
209 229 255
209 229 255
209 229 255
209 229 255
210 229 255
210 229 255
210 229 255
210 229 255
210 229 255
210 229 255
210 229 255
210 229 255
210 229 255
210 229 255
210 230 255
210 230 255
211 230 255
211 230 255
211 230 255
211 230 255
211 230 255
211 230 255
211 230 255
211 230 255
211 230 255
211 230 255
211 230 255
211 230 255
211 230 255
212 230 255
212 230 255
212 230 255
212 230 255
212 230 255
212 230 255
212 230 255
212 230 255
212 230 255
212 230 255
212 230 255
212 231 255
212 231 255
212 231 255
212 231 255
213 231 255
213 231 255
213 231 255
213 231 255
213 231 255
213 231 255
213 231 255
213 231 255
213 231 255
213 231 255
213 231 255
213 231 255
213 231 255
212 231 255
212 231 255
212 231 255
212 231 255
212 230 255
212 230 255
212 230 255
212 230 255
212 230 255
212 230 255
212 230 255
212 230 255
212 230 255
212 230 255
211 230 255
211 230 255
211 230 255
211 230 255
211 230 255
211 230 255
211 230 255
211 230 255
211 230 255
211 230 255
211 230 255
211 230 255
211 230 255
210 230 255
210 229 255
210 229 255
210 229 255
210 229 255
210 229 255
210 229 255
210 229 255
210 229 255
210 229 255
210 229 255
210 229 255
209 229 255
209 229 255
209 229 255
209 229 255
209 229 255
209 229 255
209 229 255
209 229 255
209 229 255
209 229 255
209 229 255
209 228 255
208 228 255
208 228 255
208 228 255
208 228 255
208 228 255
208 228 255
208 228 255
208 228 255
208 228 255
208 228 255
208 228 255
208 228 255
207 228 255
207 228 255
207 228 255
207 228 255
207 228 255
207 228 255
207 228 255
207 228 255
207 228 255
207 228 255
207 228 255
207 228 255
207 227 255
207 227 255
207 227 255
207 227 255
207 227 255
207 227 255
207 227 255
206 227 255
206 227 255
206 227 255
206 227 255
206 227 255
206 227 255
206 227 255
206 227 255
206 227 255
206 227 255
206 227 255
206 227 255
206 227 255
205 227 255
198 223 255
193 220 255
190 219 255
188 218 255
185 215 253
181 211 250
171 199 235
165 193 229
151 178 214
140 166 203
136 162 201
135 160 198
157 184 219
154 180 213
151 176 209
154 180 213
154 181 214
153 178 211
152 178 211
150 175 208
150 175 207
155 181 214
149 174 205
149 174 204
153 179 212
149 174 205
151 176 206
157 183 216
153 177 208
160 186 218
161 187 219
160 185 218
157 181 212
157 179 210
159 183 216
171 197 232
175 201 236
180 207 241
191 218 252
195 221 255
197 222 255
199 223 255
202 225 255
207 228 255
209 229 255
209 229 255
209 229 255
210 229 255
210 229 255
210 229 255
210 229 255
210 229 255
210 229 255
210 229 255
210 229 255
210 229 255
210 229 255
210 230 255
210 230 255
211 230 255
211 230 255
211 230 255
211 230 255
211 230 255
211 230 255
211 230 255
211 230 255
211 230 255
211 230 255
211 230 255
211 230 255
211 230 255
212 230 255
212 230 255
212 230 255
212 230 255
212 230 255
212 230 255
212 230 255
212 230 255
212 230 255
212 230 255
212 231 255
212 231 255
212 231 255
212 231 255
213 231 255
213 231 255
213 231 255
213 231 255
213 231 255
213 231 255
213 231 255
213 231 255
213 231 255
213 231 255
213 231 255
213 231 255
213 231 255
213 231 255
213 231 255
213 231 255
213 231 255
213 231 255
213 231 255
213 231 255
213 231 255
213 231 255
212 231 255
212 231 255
212 231 255
212 231 255
212 231 255
212 230 255
212 230 255
212 230 255
212 230 255
212 230 255
212 230 255
212 230 255
212 230 255
212 230 255
212 230 255
211 230 255
211 230 255
211 230 255
211 230 255
211 230 255
211 230 255
211 230 255
211 230 255
211 230 255
211 230 255
211 230 255
211 230 255
211 230 255
210 230 255
210 229 255
210 229 255
210 229 255
210 229 255
210 229 255
210 229 255
210 229 255
210 229 255
210 229 255
210 229 255
210 229 255
209 229 255
209 229 255
209 229 255
209 229 255
209 229 255
209 229 255
209 229 255
209 229 255
209 229 255
209 229 255
209 228 255
209 228 255
208 228 255
208 228 255
208 228 255
208 228 255
208 228 255
208 228 255
208 228 255
208 228 255
208 228 255
208 228 255
208 228 255
208 228 255
208 228 255
207 228 255
207 228 255
207 228 255
207 228 255
207 228 255
207 228 255
207 228 255
207 228 255
207 228 255
207 228 255
207 228 255
207 228 255
207 228 255
207 228 255
207 228 255
207 228 255
207 228 255
207 228 255
207 228 255
207 228 255
207 228 255
207 228 255
207 228 255
207 228 255
207 228 255
205 227 255
198 223 255
193 220 255
191 219 255
188 217 255
183 212 249
177 206 243
165 192 227
155 182 217
142 168 206
122 147 191
114 138 187
121 145 191
139 164 201
153 178 212
150 175 208
146 171 202
147 171 202
146 170 200
149 174 205
147 171 203
146 171 201
140 164 191
146 171 200
143 168 196
141 165 193
136 160 184
145 171 198
144 168 194
148 173 201
148 172 201
152 177 206
151 175 205
151 174 205
158 182 213
155 179 209
155 177 207
154 176 206
161 185 216
173 198 231
179 205 237
192 218 252
195 221 254
198 223 255
200 224 255
203 226 255
208 228 255
210 229 255
210 229 255
210 229 255
210 229 255
210 229 255
210 229 255
210 229 255
210 229 255
210 230 255
210 230 255
211 230 255
211 230 255
211 230 255
211 230 255
211 230 255
211 230 255
211 230 255
211 230 255
211 230 255
211 230 255
211 230 255
211 230 255
212 230 255
212 230 255
212 230 255
212 230 255
212 230 255
212 230 255
212 230 255
212 230 255
212 230 255
212 230 255
212 231 255
212 231 255
212 231 255
212 231 255
212 231 255
213 231 255
213 231 255
213 231 255
213 231 255
213 231 255
213 231 255
213 231 255
213 231 255
213 231 255
213 231 255
213 231 255
213 231 255
213 231 255
214 231 255
213 231 255
213 231 255
213 231 255
213 231 255
213 231 255
213 231 255
213 231 255
213 231 255
213 231 255
213 231 255
213 231 255
213 231 255
213 231 255
213 231 255
213 231 255
213 231 255
213 231 255
212 231 255
212 231 255
212 231 255
212 231 255
212 230 255
212 230 255
212 230 255
212 230 255
212 230 255
212 230 255
212 230 255
212 230 255
212 230 255
212 230 255
211 230 255
211 230 255
211 230 255
211 230 255
211 230 255
211 230 255
211 230 255
211 230 255
211 230 255
211 230 255
211 230 255
211 230 255
211 230 255
210 230 255
210 229 255
210 229 255
210 229 255
210 229 255
210 229 255
210 229 255
210 229 255
210 229 255
210 229 255
210 229 255
210 229 255
209 229 255
209 229 255
209 229 255
209 229 255
209 229 255
209 229 255
209 229 255
209 229 255
209 229 255
209 229 255
209 229 255
209 228 255
208 228 255
208 228 255
208 228 255
208 228 255
208 228 255
208 228 255
208 228 255
208 228 255
208 228 255
208 228 255
208 228 255
208 228 255
208 228 255
208 228 255
208 228 255
208 228 255
207 228 255
207 228 255
207 228 255
207 228 255
207 228 255
207 228 255
207 228 255
207 228 255
207 228 255
207 228 255
207 228 255
207 228 255
207 228 255
207 228 255
207 228 255
207 228 255
207 228 255
206 227 255
198 223 255
194 221 255
191 219 255
189 218 255
180 208 244
165 191 225
151 177 211
135 160 199
135 160 202
136 162 208
115 140 189
115 139 188
140 165 204
150 175 208
146 168 200
145 170 201
147 172 203
147 170 201
146 170 201
146 171 202
142 165 194
141 165 193
143 166 195
141 164 192
139 162 188
137 161 184
132 156 178
129 152 172
120 142 156
109 130 142
124 145 164
123 144 164
145 169 196
147 171 199
152 176 206
152 175 205
157 180 211
150 167 198
147 164 193
155 174 204
169 192 224
181 206 239
187 211 244
197 222 255
199 224 255
202 225 255
205 227 255
210 229 255
210 229 255
210 229 255
210 229 255
210 230 255
211 230 255
211 230 255
211 230 255
211 230 255
211 230 255
211 230 255
211 230 255
211 230 255
211 230 255
211 230 255
211 230 255
211 230 255
211 230 255
212 230 255
212 230 255
212 230 255
212 230 255
212 230 255
212 230 255
212 230 255
212 230 255
212 230 255
212 230 255
212 231 255
212 231 255
212 231 255
212 231 255
213 231 255
213 231 255
213 231 255
213 231 255
213 231 255
213 231 255
213 231 255
213 231 255
213 231 255
213 231 255
213 231 255
213 231 255
213 231 255
213 231 255
213 231 255
213 231 255
213 231 255
214 231 255
214 231 255
214 231 255
214 231 255
214 231 255
214 231 255
214 231 255
213 231 255
213 231 255
213 231 255
213 231 255
213 231 255
213 231 255
213 231 255
213 231 255
213 231 255
213 231 255
213 231 255
213 231 255
213 231 255
213 231 255
213 231 255
213 231 255
213 231 255
212 231 255
212 231 255
212 231 255
212 231 255
212 230 255
212 230 255
212 230 255
212 230 255
212 230 255
212 230 255
212 230 255
212 230 255
212 230 255
212 230 255
211 230 255
211 230 255
211 230 255
211 230 255
211 230 255
211 230 255
211 230 255
211 230 255
211 230 255
211 230 255
211 230 255
211 230 255
211 230 255
210 230 255
210 229 255
210 229 255
210 229 255
210 229 255
210 229 255
210 229 255
210 229 255
210 229 255
210 229 255
210 229 255
210 229 255
209 229 255
209 229 255
209 229 255
209 229 255
209 229 255
209 229 255
209 229 255
209 229 255
209 229 255
209 229 255
209 229 255
209 229 255
209 228 255
208 228 255
208 228 255
208 228 255
208 228 255
208 228 255
208 228 255
208 228 255
208 228 255
208 228 255
208 228 255
208 228 255
208 228 255
208 228 255
208 228 255
208 228 255
208 228 255
208 228 255
208 228 255
208 228 255
208 228 255
208 228 255
208 228 255
208 228 255
208 228 255
208 228 255
208 228 255
206 227 255
199 223 255
195 221 255
192 220 255
184 212 248
178 206 242
168 195 229
145 169 205
120 143 184
122 146 191
107 130 180
114 138 188
132 155 196
144 166 198
147 171 202
150 175 207
147 171 202
147 170 201
146 170 201
140 163 193
142 166 195
144 167 197
142 165 195
144 168 197
147 171 201
141 164 193
139 162 191
143 167 193
143 166 195
135 160 176
125 155 147
116 145 130
108 136 115
113 138 133
117 140 147
130 153 170
139 161 185
151 174 204
154 177 207
148 163 194
145 158 188
150 162 193
171 192 224
172 195 226
177 200 232
192 217 249
196 221 253
201 224 255
203 225 255
207 228 255
211 230 255
211 230 255
211 230 255
211 230 255
211 230 255
211 230 255
211 230 255
211 230 255
211 230 255
211 230 255
211 230 255
211 230 255
212 230 255
212 230 255
212 230 255
212 230 255
212 230 255
212 230 255
212 230 255
212 230 255
212 230 255
212 230 255
212 231 255
212 231 255
212 231 255
212 231 255
213 231 255
213 231 255
213 231 255
213 231 255
213 231 255
213 231 255
213 231 255
213 231 255
213 231 255
213 231 255
213 231 255
213 231 255
213 231 255
213 231 255
213 231 255
213 231 255
213 231 255
214 231 255
214 231 255
214 231 255
214 231 255
214 231 255
214 231 255
214 232 255
214 232 255
214 231 255
214 231 255
214 231 255
214 231 255
214 231 255
214 231 255
214 231 255
214 231 255
214 231 255
214 231 255
213 231 255
213 231 255
213 231 255
213 231 255
213 231 255
213 231 255
213 231 255
213 231 255
213 231 255
213 231 255
213 231 255
213 231 255
213 231 255
213 231 255
213 231 255
212 231 255
212 231 255
212 231 255
212 231 255
212 231 255
212 230 255
212 230 255
212 230 255
212 230 255
212 230 255
212 230 255
212 230 255
212 230 255
212 230 255
211 230 255
211 230 255
211 230 255
211 230 255
211 230 255
211 230 255
211 230 255
211 230 255
211 230 255
211 230 255
211 230 255
211 230 255
211 230 255
210 230 255
210 229 255
210 229 255
210 229 255
210 229 255
210 229 255
210 229 255
210 229 255
210 229 255
210 229 255
210 229 255
210 229 255
210 229 255
209 229 255
209 229 255
209 229 255
209 229 255
209 229 255
209 229 255
209 229 255
209 229 255
209 229 255
209 229 255
209 229 255
209 229 255
209 229 255
209 229 255
209 228 255
208 228 255
208 228 255
208 228 255
208 228 255
208 228 255
208 228 255
208 228 255
208 228 255
208 228 255
208 228 255
208 228 255
208 228 255
208 228 255
208 228 255
208 228 255
208 228 255
208 228 255
208 228 255
207 228 255
200 224 255
196 221 255
192 218 254
184 211 246
166 190 222
160 185 217
150 175 211
132 156 198
134 158 203
96 119 175
114 135 186
135 154 192
142 164 193
142 165 194
144 168 198
148 172 203
141 164 193
140 163 192
137 160 188
129 150 177
134 157 184
125 147 173
127 148 173
134 157 185
136 159 188
137 159 188
135 157 184
139 160 188
137 160 182
132 158 168
115 147 106
111 143 100
117 148 115
119 150 120
118 147 122
112 139 127
134 157 175
143 166 191
148 171 198
147 166 195
149 155 187
147 154 186
156 167 198
151 167 195
164 185 215
178 200 230
191 215 247
200 223 255
202 225 255
205 227 255
210 229 255
211 230 255
211 230 255
211 230 255
211 230 255
211 230 255
211 230 255
211 230 255
212 230 255
212 230 255
212 230 255
212 230 255
212 230 255
212 230 255
212 230 255
212 230 255
212 230 255
212 231 255
212 231 255
212 231 255
212 231 255
212 231 255
213 231 255
213 231 255
213 231 255
213 231 255
213 231 255
213 231 255
213 231 255
213 231 255
213 231 255
213 231 255
213 231 255
213 231 255
213 231 255
213 231 255
213 231 255
214 231 255
214 231 255
214 231 255
214 231 255
214 231 255
214 231 255
214 231 255
214 231 255
214 231 255
214 231 255
214 232 255
214 232 255
214 232 255
214 232 255
214 232 255
214 232 255
214 232 255
214 232 255
214 232 255
214 232 255
214 231 255
214 231 255
214 231 255
214 231 255
214 231 255
214 231 255
214 231 255
214 231 255
214 231 255
213 231 255
213 231 255
213 231 255
213 231 255
213 231 255
213 231 255
213 231 255
213 231 255
213 231 255
213 231 255
213 231 255
213 231 255
213 231 255
213 231 255
213 231 255
213 231 255
212 231 255
212 231 255
212 231 255
212 230 255
212 230 255
212 230 255
212 230 255
212 230 255
212 230 255
212 230 255
212 230 255
212 230 255
212 230 255
211 230 255
211 230 255
211 230 255
211 230 255
211 230 255
211 230 255
211 230 255
211 230 255
211 230 255
211 230 255
211 230 255
211 230 255
211 230 255
210 230 255
210 229 255
210 229 255
210 229 255
210 229 255
210 229 255
210 229 255
210 229 255
210 229 255
210 229 255
210 229 255
210 229 255
210 229 255
210 229 255
209 229 255
209 229 255
209 229 255
209 229 255
209 229 255
209 229 255
209 229 255
209 229 255
209 229 255
209 229 255
209 229 255
209 229 255
209 229 255
209 229 255
209 229 255
209 229 255
209 229 255
209 229 255
209 229 255
209 228 255
209 228 255
209 228 255
208 228 255
208 228 255
208 228 255
208 228 255
208 228 255
203 225 255
197 222 255
193 219 254
184 210 244
173 199 232
158 182 213
138 160 193
117 139 183
119 142 189
102 122 177
131 150 195
138 153 187
142 159 195
146 169 200
140 163 192
145 169 199
134 156 184
125 146 172
111 130 153
90 108 125
79 96 112
75 91 106
84 101 116
99 118 139
115 134 157
129 149 175
128 149 176
132 153 179
133 153 178
135 156 182
136 157 184
129 156 151
115 150 81
124 158 121
116 149 106
112 145 89
119 148 122
130 159 149
136 159 178
142 164 191
155 178 206
148 163 192
151 155 188
159 169 201
159 169 201
160 179 208
171 193 223
176 197 227
193 217 248
202 225 255
204 226 255
208 228 255
211 230 255
211 230 255
212 230 255
212 230 255
212 230 255
212 230 255
212 230 255
212 230 255
212 230 255
212 230 255
212 230 255
212 230 255
212 231 255
212 231 255
212 231 255
212 231 255
213 231 255
213 231 255
213 231 255
213 231 255
213 231 255
213 231 255
213 231 255
213 231 255
213 231 255
213 231 255
213 231 255
213 231 255
213 231 255
213 231 255
213 231 255
214 231 255
214 231 255
214 231 255
214 231 255
214 231 255
214 231 255
214 231 255
214 231 255
214 231 255
214 232 255
214 232 255
214 232 255
214 232 255
214 232 255
214 232 255
214 232 255
214 232 255
215 232 255
215 232 255
215 232 255
215 232 255
214 232 255
214 232 255
214 232 255
214 232 255
214 232 255
214 232 255
214 232 255
214 232 255
214 232 255
214 231 255
214 231 255
214 231 255
214 231 255
214 231 255
214 231 255
214 231 255
214 231 255
214 231 255
213 231 255
213 231 255
213 231 255
213 231 255
213 231 255
213 231 255
213 231 255
213 231 255
213 231 255
213 231 255
213 231 255
213 231 255
213 231 255
213 231 255
213 231 255
213 231 255
212 231 255
212 231 255
212 231 255
212 231 255
212 230 255
212 230 255
212 230 255
212 230 255
212 230 255
212 230 255
212 230 255
212 230 255
212 230 255
211 230 255
211 230 255
211 230 255
211 230 255
211 230 255
211 230 255
211 230 255
211 230 255
211 230 255
211 230 255
211 230 255
211 230 255
211 230 255
211 230 255
210 230 255
210 229 255
210 229 255
210 229 255
210 229 255
210 229 255
210 229 255
210 229 255
210 229 255
210 229 255
210 229 255
210 229 255
210 229 255
210 229 255
210 229 255
209 229 255
209 229 255
209 229 255
209 229 255
209 229 255
209 229 255
209 229 255
209 229 255
209 229 255
209 229 255
209 229 255
209 229 255
209 229 255
209 229 255
209 229 255
209 229 255
209 229 255
209 229 255
209 229 255
204 226 255
198 223 255
195 221 255
177 202 233
164 188 218
156 179 209
147 170 201
116 137 178
116 138 185
122 140 184
151 165 203
172 179 218
156 170 193
132 152 179
140 162 190
136 158 186
123 143 167
129 150 176
111 133 155
86 108 123
66 88 95
63 85 92
83 105 119
84 107 120
81 105 117
79 101 113
110 129 151
135 155 183
138 159 188
128 145 172
128 146 170
121 135 158
118 132 153
115 137 130
123 160 98
127 165 108
129 165 115
124 158 107
125 159 116
128 156 144
130 150 176
144 166 196
148 170 199
154 163 195
156 158 193
157 162 194
161 173 204
169 190 220
147 162 187
182 204 234
196 218 248
204 226 255
206 227 255
211 230 255
212 230 255
212 230 255
212 230 255
212 230 255
212 230 255
212 231 255
212 231 255
212 231 255
212 231 255
213 231 255
213 231 255
213 231 255
213 231 255
213 231 255
213 231 255
213 231 255
213 231 255
213 231 255
213 231 255
213 231 255
213 231 255
213 231 255
213 231 255
213 231 255
213 231 255
214 231 255
214 231 255
214 231 255
214 231 255
214 231 255
214 231 255
214 231 255
214 231 255
214 231 255
214 232 255
214 232 255
214 232 255
214 232 255
214 232 255
214 232 255
214 232 255
214 232 255
214 232 255
215 232 255
215 232 255
215 232 255
215 232 255
215 232 255
215 232 255
215 232 255
215 232 255
215 232 255
215 232 255
215 232 255
215 232 255
215 232 255
215 232 255
214 232 255
214 232 255
214 232 255
214 232 255
214 232 255
214 232 255
214 232 255
214 232 255
214 232 255
214 231 255
214 231 255
214 231 255
214 231 255
214 231 255
214 231 255
214 231 255
214 231 255
214 231 255
213 231 255
213 231 255
213 231 255
213 231 255
213 231 255
213 231 255
213 231 255
213 231 255
213 231 255
213 231 255
213 231 255
213 231 255
213 231 255
213 231 255
213 231 255
212 231 255
212 231 255
212 231 255
212 231 255
212 230 255
212 230 255
212 230 255
212 230 255
212 230 255
212 230 255
212 230 255
212 230 255
212 230 255
212 230 255
211 230 255
211 230 255
211 230 255
211 230 255
211 230 255
211 230 255
211 230 255
211 230 255
211 230 255
211 230 255
211 230 255
211 230 255
211 230 255
211 230 255
210 230 255
210 229 255
210 229 255
210 229 255
210 229 255
210 229 255
210 229 255
210 229 255
210 229 255
210 229 255
210 229 255
210 229 255
210 229 255
210 229 255
210 229 255
210 229 255
210 229 255
210 229 255
210 229 255
210 229 255
209 229 255
209 229 255
209 229 255
209 229 255
209 229 255
209 229 255
209 229 255
208 228 255
201 224 255
196 221 255
180 204 235
169 192 223
164 187 217
157 180 211
145 167 198
131 150 188
146 161 198
156 166 209
195 205 251
193 203 246
143 162 191
135 156 184
137 158 186
136 158 186
135 156 183
95 117 134
70 92 101
75 98 108
74 99 107
80 104 114
76 102 110
72 98 106
70 96 102
72 98 106
86 110 123
135 157 183
141 164 191
135 156 182
133 153 179
135 154 180
116 115 141
94 86 111
98 104 107
118 152 91
127 166 107
127 167 103
122 159 92
129 165 123
129 151 170
116 133 160
119 136 162
142 162 190
155 157 191
150 147 183
161 167 200
162 179 208
153 163 189
168 185 211
187 208 237
198 220 250
206 227 255
210 229 255
212 231 255
212 231 255
212 231 255
212 231 255
213 231 255
213 231 255
213 231 255
213 231 255
213 231 255
213 231 255
213 231 255
213 231 255
213 231 255
213 231 255
213 231 255
213 231 255
213 231 255
213 231 255
213 231 255
214 231 255
214 231 255
214 231 255
214 231 255
214 231 255
214 231 255
214 231 255
214 231 255
214 231 255
214 232 255
214 232 255
214 232 255
214 232 255
214 232 255
214 232 255
214 232 255
214 232 255
214 232 255
215 232 255
215 232 255
215 232 255
215 232 255
215 232 255
215 232 255
215 232 255
215 232 255
215 232 255
215 232 255
215 232 255
215 232 255
215 232 255
215 232 255
215 232 255
215 232 255
215 232 255
215 232 255
215 232 255
215 232 255
215 232 255
215 232 255
215 232 255
215 232 255
215 232 255
215 232 255
214 232 255
214 232 255
214 232 255
214 232 255
214 232 255
214 232 255
214 232 255
214 232 255
214 232 255
214 231 255
214 231 255
214 231 255
214 231 255
214 231 255
214 231 255
214 231 255
214 231 255
213 231 255
213 231 255
213 231 255
213 231 255
213 231 255
213 231 255
213 231 255
213 231 255
213 231 255
213 231 255
213 231 255
213 231 255
213 231 255
213 231 255
213 231 255
212 231 255
212 231 255
212 231 255
212 231 255
212 231 255
212 230 255
212 230 255
212 230 255
212 230 255
212 230 255
212 230 255
212 230 255
212 230 255
212 230 255
211 230 255
211 230 255
211 230 255
211 230 255
211 230 255
211 230 255
211 230 255
211 230 255
211 230 255
211 230 255
211 230 255
211 230 255
211 230 255
211 230 255
211 230 255
211 230 255
210 230 255
210 230 255
210 229 255
210 229 255
210 229 255
210 229 255
210 229 255
210 229 255
210 229 255
210 229 255
210 229 255
210 229 255
210 229 255
210 229 255
210 229 255
210 229 255
210 229 255
210 229 255
210 229 255
209 229 255
203 226 255
199 223 255
185 209 240
172 195 225
157 179 207
147 168 196
148 169 198
144 164 194
132 143 171
186 198 244
188 202 255
178 190 232
142 163 191
136 158 185
139 161 189
138 160 188
138 159 187
119 140 162
61 86 90
69 95 101
68 94 100
77 105 113
81 109 118
76 105 112
82 109 119
68 98 101
70 99 104
95 119 132
127 149 170
133 156 180
136 159 184
133 155 181
126 135 162
105 74 109
108 83 116
112 86 121
101 74 109
120 139 115
125 167 92
127 168 104
127 166 101
131 162 137
134 153 182
100 113 142
112 127 152
139 155 185
150 149 187
156 158 193
155 164 195
159 173 200
155 165 193
169 186 213
193 214 243
205 226 255
208 228 255
212 231 255
213 231 255
213 231 255
213 231 255
213 231 255
213 231 255
213 231 255
213 231 255
213 231 255
213 231 255
213 231 255
213 231 255
213 231 255
213 231 255
214 231 255
214 231 255
214 231 255
214 231 255
214 231 255
214 231 255
214 231 255
214 231 255
214 232 255
214 232 255
214 232 255
214 232 255
214 232 255
214 232 255
214 232 255
214 232 255
214 232 255
215 232 255
215 232 255
215 232 255
215 232 255
215 232 255
215 232 255
215 232 255
215 232 255
215 232 255
215 232 255
215 232 255
215 232 255
215 232 255
215 232 255
215 232 255
215 232 255
216 232 255
215 232 255
215 232 255
215 232 255
215 232 255
215 232 255
215 232 255
215 232 255
215 232 255
215 232 255
215 232 255
215 232 255
215 232 255
215 232 255
215 232 255
215 232 255
215 232 255
215 232 255
215 232 255
215 232 255
215 232 255
215 232 255
214 232 255
214 232 255
214 232 255
214 232 255
214 232 255
214 232 255
214 232 255
214 232 255
214 231 255
214 231 255
214 231 255
214 231 255
214 231 255
214 231 255
214 231 255
214 231 255
214 231 255
213 231 255
213 231 255
213 231 255
213 231 255
213 231 255
213 231 255
213 231 255
213 231 255
213 231 255
213 231 255
213 231 255
213 231 255
213 231 255
213 231 255
213 231 255
213 231 255
212 231 255
212 231 255
212 231 255
212 230 255
212 230 255
212 230 255
212 230 255
212 230 255
212 230 255
212 230 255
212 230 255
212 230 255
212 230 255
212 230 255
211 230 255
211 230 255
211 230 255
211 230 255
211 230 255
211 230 255
211 230 255
211 230 255
211 230 255
211 230 255
211 230 255
211 230 255
211 230 255
211 230 255
211 230 255
211 230 255
211 230 255
211 230 255
211 230 255
211 230 255
211 230 255
210 230 255
210 230 255
210 230 255
210 229 255
210 229 255
210 229 255
210 229 255
207 227 255
200 223 254
187 211 241
167 188 216
149 170 197
153 175 204
148 170 199
144 165 194
145 155 180
171 183 224
183 199 251
169 185 225
136 157 185
138 159 186
135 156 183
133 153 180
133 153 180
128 147 174
119 138 163
96 120 135
85 111 122
70 99 105
75 104 112
73 105 107
75 107 107
77 111 102
75 116 83
83 126 78
107 140 126
125 143 167
130 150 177
122 140 164
131 152 178
128 147 172
115 67 112
117 71 115
122 81 122
112 63 108
113 81 119
125 132 145
129 164 135
129 167 121
134 160 168
131 150 179
89 101 137
77 87 123
103 118 145
137 151 183
157 156 192
156 159 195
145 157 183
143 145 168
167 177 203
177 197 223
193 215 243
208 228 255
212 230 255
213 231 255
213 231 255
213 231 255
213 231 255
213 231 255
213 231 255
213 231 255
214 231 255
214 231 255
214 231 255
214 231 255
214 231 255
214 231 255
214 231 255
214 231 255
214 232 255
214 232 255
214 232 255
214 232 255
214 232 255
214 232 255
214 232 255
214 232 255
214 232 255
215 232 255
215 232 255
215 232 255
215 232 255
215 232 255
215 232 255
215 232 255
215 232 255
215 232 255
215 232 255
215 232 255
215 232 255
215 232 255
215 232 255
215 232 255
215 232 255
215 232 255
215 232 255
215 232 255
215 232 255
215 232 255
216 232 255
216 232 255
216 232 255
216 232 255
216 232 255
216 232 255
216 232 255
216 232 255
216 232 255
215 232 255
215 232 255
215 232 255
215 232 255
215 232 255
215 232 255
215 232 255
215 232 255
215 232 255
215 232 255
215 232 255
215 232 255
215 232 255
215 232 255
215 232 255
215 232 255
215 232 255
215 232 255
215 232 255
215 232 255
214 232 255
214 232 255
214 232 255
214 232 255
214 232 255
214 232 255
214 232 255
214 232 255
214 232 255
214 231 255
214 231 255
214 231 255
214 231 255
214 231 255
214 231 255
214 231 255
214 231 255
213 231 255
213 231 255
213 231 255
213 231 255
213 231 255
213 231 255
213 231 255
213 231 255
213 231 255
213 231 255
213 231 255
213 231 255
213 231 255
213 231 255
213 231 255
213 231 255
212 231 255
212 231 255
212 231 255
212 231 255
212 230 255
212 230 255
212 230 255
212 230 255
212 230 255
212 230 255
212 230 255
212 230 255
212 230 255
212 230 255
212 230 255
212 230 255
211 230 255
211 230 255
211 230 255
211 230 255
211 230 255
211 230 255
211 230 255
211 230 255
211 230 255
211 230 255
211 230 255
211 230 255
211 230 255
211 230 255
211 230 255
211 230 255
211 230 255
211 230 255
211 230 255
210 229 255
203 226 255
189 211 241
179 201 231
154 174 199
149 170 198
154 175 203
146 168 196
163 176 210
186 198 244
180 193 242
150 166 198
139 161 187
137 158 185
134 155 183
120 137 164
100 112 139
112 126 155
123 140 168
128 148 175
136 158 185
124 153 159
102 154 88
102 156 77
106 159 88
106 158 87
110 166 92
105 157 82
104 158 79
109 156 99
126 151 163
129 148 174
112 127 148
86 95 110
85 93 107
109 100 126
139 88 139
130 74 125
130 68 121
121 78 123
109 58 107
133 144 174
141 162 191
140 160 187
134 153 183
86 96 141
71 80 124
78 88 134
134 153 185
141 156 188
166 179 210
155 173 200
139 132 154
161 167 192
173 192 218
189 209 235
203 225 252
211 230 255
213 231 255
214 231 255
214 231 255
214 231 255
214 231 255
214 231 255
214 231 255
214 231 255
214 231 255
214 232 255
214 232 255
214 232 255
214 232 255
214 232 255
214 232 255
214 232 255
214 232 255
215 232 255
215 232 255
215 232 255
215 232 255
215 232 255
215 232 255
215 232 255
215 232 255
215 232 255
215 232 255
215 232 255
215 232 255
215 232 255
215 232 255
215 232 255
215 232 255
215 232 255
215 232 255
215 232 255
215 232 255
215 232 255
216 232 255
216 232 255
216 232 255
216 232 255
216 232 255
216 232 255
216 232 255
216 232 255
216 233 255
216 233 255
216 233 255
216 233 255
216 233 255
216 233 255
216 233 255
216 233 255
216 232 255
216 232 255
216 232 255
216 232 255
216 232 255
216 232 255
216 232 255
215 232 255
215 232 255
215 232 255
215 232 255
215 232 255
215 232 255
215 232 255
215 232 255
215 232 255
215 232 255
215 232 255
215 232 255
215 232 255
215 232 255
215 232 255
215 232 255
215 232 255
215 232 255
215 232 255
215 232 255
214 232 255
214 232 255
214 232 255
214 232 255
214 232 255
214 232 255
214 232 255
214 232 255
214 231 255
214 231 255
214 231 255
214 231 255
214 231 255
214 231 255
214 231 255
214 231 255
214 231 255
213 231 255
213 231 255
213 231 255
213 231 255
213 231 255
213 231 255
213 231 255
213 231 255
213 231 255
213 231 255
213 231 255
213 231 255
213 231 255
213 231 255
213 231 255
213 231 255
212 231 255
212 231 255
212 231 255
212 231 255
212 230 255
212 230 255
212 230 255
212 230 255
212 230 255
212 230 255
212 230 255
212 230 255
212 230 255
212 230 255
212 230 255
212 230 255
212 230 255
212 230 255
212 230 255
212 230 255
212 230 255
211 230 255
211 230 255
211 230 255
211 230 255
211 230 255
211 230 255
211 230 255
207 228 255
198 220 250
170 190 216
157 176 202
151 172 201
148 170 196
141 163 190
139 160 186
173 182 219
171 181 217
127 145 169
129 150 175
134 156 182
123 140 168
98 107 138
86 83 132
84 72 131
91 84 137
131 150 178
136 157 185
135 156 182
119 155 140
108 166 80
111 171 85
106 169 65
118 178 102
117 176 97
113 175 86
114 179 78
113 174 81
131 158 168
127 146 171
84 84 92
79 77 84
84 85 95
88 89 101
127 110 143
143 92 144
137 63 125
133 74 129
132 73 127
130 118 154
141 161 189
141 161 190
137 158 188
103 115 160
83 93 139
80 90 144
103 119 159
144 164 193
139 158 185
150 172 198
149 155 178
155 157 180
167 181 206
181 199 221
195 218 245
210 229 255
214 231 255
214 231 255
214 231 255
214 232 255
214 232 255
214 232 255
214 232 255
214 232 255
214 232 255
214 232 255
214 232 255
215 232 255
215 232 255
215 232 255
215 232 255
215 232 255
215 232 255
215 232 255
215 232 255
215 232 255
215 232 255
215 232 255
215 232 255
215 232 255
215 232 255
215 232 255
215 232 255
215 232 255
215 232 255
215 232 255
215 232 255
216 232 255
216 232 255
216 232 255
216 232 255
216 232 255
216 232 255
216 232 255
216 233 255
216 233 255
216 233 255
216 233 255
216 233 255
216 233 255
216 233 255
216 233 255
216 233 255
216 233 255
216 233 255
216 233 255
216 233 255
216 233 255
216 233 255
216 233 255
216 233 255
216 233 255
216 233 255
216 233 255
216 233 255
216 233 255
216 233 255
216 232 255
216 232 255
216 232 255
216 232 255
216 232 255
216 232 255
216 232 255
215 232 255
215 232 255
215 232 255
215 232 255
215 232 255
215 232 255
215 232 255
215 232 255
215 232 255
215 232 255
215 232 255
215 232 255
215 232 255
215 232 255
215 232 255
215 232 255
215 232 255
215 232 255
215 232 255
215 232 255
214 232 255
214 232 255
214 232 255
214 232 255
214 232 255
214 232 255
214 232 255
214 232 255
214 231 255
214 231 255
214 231 255
214 231 255
214 231 255
214 231 255
214 231 255
214 231 255
214 231 255
213 231 255
213 231 255
213 231 255
213 231 255
213 231 255
213 231 255
213 231 255
213 231 255
213 231 255
213 231 255
213 231 255
213 231 255
213 231 255
213 231 255
213 231 255
213 231 255
213 231 255
212 231 255
212 231 255
212 231 255
212 231 255
212 231 255
212 231 255
212 230 255
212 230 255
212 230 255
212 230 255
212 230 255
212 230 255
212 230 255
212 230 255
212 230 255
212 230 255
212 230 255
212 230 255
212 230 255
211 230 255
204 226 255
177 197 224
161 180 206
149 170 198
147 168 195
133 153 178
128 146 172
136 155 183
115 131 152
112 128 147
136 157 183
130 149 176
124 143 169
117 125 166
90 78 144
79 47 132
98 74 156
89 64 140
128 144 165
125 142 164
136 156 181
132 151 176
124 160 144
120 173 116
117 181 96
114 182 77
115 184 78
116 181 89
114 165 99
125 152 156
128 145 170
122 137 160
85 79 82
84 78 81
85 77 79
84 77 83
89 85 94
136 123 157
142 87 142
146 86 145
144 84 141
131 99 143
129 147 175
134 154 182
139 159 187
127 145 181
72 81 140
67 75 135
81 90 143
140 160 188
110 126 156
116 133 160
138 153 178
144 139 160
148 156 177
180 196 214
195 215 239
210 230 255
214 231 255
214 232 255
214 232 255
214 232 255
215 232 255
215 232 255
215 232 255
215 232 255
215 232 255
215 232 255
215 232 255
215 232 255
215 232 255
215 232 255
215 232 255
215 232 255
215 232 255
215 232 255
215 232 255
215 232 255
215 232 255
215 232 255
215 232 255
216 232 255
216 232 255
216 232 255
216 232 255
216 232 255
216 232 255
216 232 255
216 232 255
216 233 255
216 233 255
216 233 255
216 233 255
216 233 255
216 233 255
216 233 255
216 233 255
216 233 255
216 233 255
216 233 255
216 233 255
216 233 255
216 233 255
216 233 255
217 233 255
217 233 255
217 233 255
217 233 255
217 233 255
217 233 255
216 233 255
216 233 255
216 233 255
216 233 255
216 233 255
216 233 255
216 233 255
216 233 255
216 233 255
216 233 255
216 233 255
216 233 255
216 233 255
216 233 255
216 233 255
216 233 255
216 233 255
216 232 255
216 232 255
216 232 255
216 232 255
216 232 255
216 232 255
216 232 255
215 232 255
215 232 255
215 232 255
215 232 255
215 232 255
215 232 255
215 232 255
215 232 255
215 232 255
215 232 255
215 232 255
215 232 255
215 232 255
215 232 255
215 232 255
215 232 255
215 232 255
215 232 255
215 232 255
214 232 255
214 232 255
214 232 255
214 232 255
214 232 255
214 232 255
214 232 255
214 232 255
214 231 255
214 231 255
214 231 255
214 231 255
214 231 255
214 231 255
214 231 255
214 231 255
214 231 255
214 231 255
213 231 255
213 231 255
213 231 255
213 231 255
213 231 255
213 231 255
213 231 255
213 231 255
213 231 255
213 231 255
213 231 255
213 231 255
213 231 255
213 231 255
213 231 255
213 231 255
213 231 255
213 231 255
213 231 255
213 231 255
213 231 255
212 231 255
213 231 255
213 231 255
212 231 255
212 231 255
212 231 255
212 231 255
209 229 255
188 208 236
156 173 196
142 161 186
143 164 193
129 148 172
113 128 153
135 155 180
112 125 144
92 92 94
115 126 143
132 154 179
130 151 176
124 135 175
96 74 154
101 69 163
103 78 162
105 75 169
109 101 153
133 148 172
129 146 172
136 155 183
132 151 177
135 155 182
134 154 180
116 112 128
99 75 75
98 74 70
102 78 84
105 70 76
116 118 137
117 130 154
123 138 163
99 92 100
100 96 102
94 84 86
94 85 90
93 82 87
105 108 122
133 143 171
138 106 152
136 68 132
131 138 170
112 126 157
97 108 133
113 129 157
144 165 193
94 106 161
84 94 154
74 83 145
139 159 185
104 125 162
127 145 178
143 164 191
141 139 162
152 157 181
175 191 208
179 196 216
204 223 249
214 231 255
215 232 255
215 232 255
215 232 255
215 232 255
215 232 255
215 232 255
215 232 255
215 232 255
215 232 255
215 232 255
215 232 255
215 232 255
215 232 255
215 232 255
215 232 255
216 232 255
216 232 255
216 232 255
216 232 255
216 232 255
216 232 255
216 232 255
216 233 255
216 233 255
216 233 255
216 233 255
216 233 255
216 233 255
216 233 255
216 233 255
216 233 255
216 233 255
216 233 255
216 233 255
216 233 255
216 233 255
216 233 255
216 233 255
216 233 255
217 233 255
217 233 255
217 233 255
217 233 255
217 233 255
217 233 255
217 233 255
217 233 255
217 233 255
217 233 255
217 233 255
217 233 255
217 233 255
217 233 255
217 233 255
217 233 255
217 233 255
217 233 255
217 233 255
217 233 255
217 233 255
216 233 255
216 233 255
216 233 255
216 233 255
216 233 255
216 233 255
216 233 255
216 233 255
216 233 255
216 233 255
216 233 255
216 233 255
216 233 255
216 233 255
216 233 255
216 233 255
216 232 255
216 232 255
216 232 255
216 232 255
216 232 255
216 232 255
216 232 255
215 232 255
215 232 255
215 232 255
215 232 255
215 232 255
215 232 255
215 232 255
215 232 255
215 232 255
215 232 255
215 232 255
215 232 255
215 232 255
215 232 255
215 232 255
215 232 255
215 232 255
215 232 255
215 232 255
214 232 255
214 232 255
214 232 255
214 232 255
214 232 255
214 232 255
214 232 255
214 232 255
214 232 255
214 231 255
214 231 255
214 231 255
214 231 255
214 231 255
214 231 255
214 231 255
214 231 255
214 231 255
214 231 255
213 231 255
213 231 255
213 231 255
213 231 255
213 231 255
213 231 255
213 231 255
213 231 255
213 231 255
213 231 255
213 231 255
213 231 255
213 231 255
213 231 255
213 231 255
213 231 255
213 231 255
213 231 255
212 231 255
202 221 248
170 188 212
151 166 186
122 142 172
147 167 195
105 116 144
121 133 166
127 144 164
103 98 98
105 98 91
129 147 169
135 157 181
126 144 167
101 67 167
105 72 170
107 71 177
115 84 186
116 109 156
125 141 134
120 136 138
134 154 180
133 153 180
133 154 181
131 151 178
129 138 160
117 85 92
120 81 86
117 65 65
120 73 76
120 77 82
116 77 83
117 117 139
104 103 127
112 122 144
109 106 115
101 93 98
103 95 101
97 85 91
103 98 107
127 144 166
124 139 163
125 137 162
124 138 163
96 95 137
77 64 115
98 105 140
133 152 180
128 147 179
87 98 157
86 97 156
108 107 146
103 122 174
95 115 169
147 168 195
123 139 165
135 150 174
171 189 208
178 194 208
203 222 248
214 232 255
215 232 255
215 232 255
215 232 255
215 232 255
215 232 255
215 232 255
215 232 255
216 232 255
216 232 255
216 232 255
216 232 255
216 232 255
216 232 255
216 232 255
216 233 255
216 233 255
216 233 255
216 233 255
216 233 255
216 233 255
216 233 255
216 233 255
216 233 255
216 233 255
216 233 255
216 233 255
216 233 255
216 233 255
216 233 255
216 233 255
217 233 255
217 233 255
217 233 255
217 233 255
217 233 255
217 233 255
217 233 255
217 233 255
217 233 255
217 233 255
217 233 255
217 233 255
217 233 255
217 233 255
217 233 255
217 233 255
217 233 255
217 233 255
217 233 255
217 233 255
217 233 255
217 233 255
217 233 255
217 233 255
217 233 255
217 233 255
217 233 255
217 233 255
217 233 255
217 233 255
217 233 255
217 233 255
217 233 255
217 233 255
217 233 255
217 233 255
217 233 255
217 233 255
216 233 255
216 233 255
216 233 255
216 233 255
216 233 255
216 233 255
216 233 255
216 233 255
216 233 255
216 233 255
216 233 255
216 233 255
216 233 255
216 233 255
216 233 255
216 233 255
216 233 255
216 232 255
216 232 255
216 232 255
216 232 255
216 232 255
216 232 255
215 232 255
215 232 255
215 232 255
215 232 255
215 232 255
215 232 255
215 232 255
215 232 255
215 232 255
215 232 255
215 232 255
215 232 255
215 232 255
215 232 255
215 232 255
215 232 255
215 232 255
215 232 255
215 232 255
215 232 255
214 232 255
214 232 255
214 232 255
214 232 255
214 232 255
214 232 255
214 232 255
214 232 255
214 232 255
214 232 255
214 231 255
214 231 255
214 231 255
214 231 255
214 231 255
214 231 255
214 231 255
214 231 255
214 231 255
214 231 255
214 231 255
214 231 255
214 231 255
214 231 255
214 231 255
213 231 255
213 231 255
213 231 255
212 230 255
192 212 237
156 170 190
141 156 177
148 173 209
127 141 169
123 132 168
138 154 183
103 101 107
106 95 87
118 120 118
129 149 169
130 149 172
119 126 163
108 70 183
107 66 183
103 62 168
110 109 132
157 175 157
166 175 156
130 128 134
135 155 181
134 155 182
137 157 184
134 154 180
137 153 179
136 79 80
134 91 97
129 74 75
133 83 87
132 85 90
127 71 72
107 53 83
91 59 87
98 67 96
114 119 143
117 121 138
108 100 107
109 100 107
109 107 120
130 146 170
122 135 157
129 147 172
126 136 158
88 70 117
79 50 119
96 88 137
137 156 183
138 159 186
125 143 177
106 89 161
128 94 174
115 132 183
86 109 173
140 161 195
123 144 170
145 165 191
166 185 197
185 200 214
201 220 245
214 232 255
216 232 255
216 232 255
216 232 255
216 232 255
216 232 255
216 233 255
216 233 255
216 233 255
216 233 255
216 233 255
216 233 255
216 233 255
216 233 255
216 233 255
216 233 255
216 233 255
216 233 255
216 233 255
216 233 255
216 233 255
216 233 255
217 233 255
217 233 255
217 233 255
217 233 255
217 233 255
217 233 255
217 233 255
217 233 255
217 233 255
217 233 255
217 233 255
217 233 255
217 233 255
217 233 255
217 233 255
217 233 255
217 233 255
217 233 255
217 233 255
217 233 255
217 233 255
217 233 255
217 233 255
217 233 255
218 233 255
218 233 255
218 233 255
218 233 255
217 233 255
217 233 255
217 233 255
217 233 255
217 233 255
217 233 255
217 233 255
217 233 255
217 233 255
217 233 255
217 233 255
217 233 255
217 233 255
217 233 255
217 233 255
217 233 255
217 233 255
217 233 255
217 233 255
217 233 255
217 233 255
217 233 255
217 233 255
217 233 255
217 233 255
217 233 255
217 233 255
217 233 255
217 233 255
216 233 255
216 233 255
216 233 255
216 233 255
216 233 255
216 233 255
216 233 255
216 233 255
216 233 255
216 233 255
216 233 255
216 233 255
216 233 255
216 233 255
216 233 255
216 232 255
216 232 255
216 232 255
216 232 255
216 232 255
216 232 255
216 232 255
215 232 255
215 232 255
215 232 255
215 232 255
215 232 255
215 232 255
215 232 255
215 232 255
215 232 255
215 232 255
215 232 255
215 232 255
215 232 255
215 232 255
215 232 255
215 232 255
215 232 255
215 232 255
215 232 255
215 232 255
215 232 255
215 232 255
214 232 255
214 232 255
214 232 255
214 232 255
214 232 255
214 232 255
214 232 255
214 232 255
214 232 255
214 232 255
214 232 255
214 232 255
214 232 255
214 232 255
214 232 255
214 232 255
214 232 255
207 225 251
172 188 210
154 168 187
134 150 174
140 155 187
111 118 149
124 132 173
128 141 160
112 97 87
118 107 96
122 143 150
136 157 183
122 138 159
109 102 115
118 94 162
122 100 142
148 149 135
184 201 180
191 215 197
194 214 196
146 166 182
135 155 181
134 154 180
135 156 183
137 158 184
138 158 185
140 140 161
139 101 112
135 84 89
135 89 95
141 100 108
129 79 95
105 51 87
111 57 94
107 54 91
105 67 98
134 152 179
133 151 175
127 141 166
129 146 169
128 139 161
129 143 166
130 149 174
134 110 125
108 67 107
99 73 143
96 74 137
117 124 161
131 153 175
138 159 184
136 94 177
131 82 175
114 125 184
95 122 203
107 130 180
131 155 177
133 153 179
160 178 197
178 190 200
190 209 233
214 231 255
216 233 255
216 233 255
216 233 255
216 233 255
216 233 255
216 233 255
216 233 255
216 233 255
216 233 255
216 233 255
216 233 255
216 233 255
217 233 255
217 233 255
217 233 255
217 233 255
217 233 255
217 233 255
217 233 255
217 233 255
217 233 255
217 233 255
217 233 255
217 233 255
217 233 255
217 233 255
217 233 255
217 233 255
217 233 255
217 233 255
217 233 255
217 233 255
217 233 255
217 233 255
217 233 255
217 233 255
217 233 255
217 233 255
217 233 255
217 233 255
217 233 255
217 233 255
218 233 255
218 233 255
218 233 255
218 234 255
218 234 255
218 234 255
218 234 255
218 234 255
218 234 255
218 234 255
218 234 255
218 234 255
218 234 255
218 234 255
218 233 255
218 233 255
218 233 255
217 233 255
217 233 255
217 233 255
217 233 255
217 233 255
217 233 255
217 233 255
217 233 255
217 233 255
217 233 255
217 233 255
217 233 255
217 233 255
217 233 255
217 233 255
217 233 255
217 233 255
217 233 255
217 233 255
217 233 255
217 233 255
217 233 255
217 233 255
217 233 255
217 233 255
217 233 255
217 233 255
217 233 255
217 233 255
216 233 255
216 233 255
216 233 255
216 233 255
216 233 255
216 233 255
216 233 255
216 233 255
216 233 255
216 233 255
216 233 255
216 233 255
216 233 255
216 233 255
216 233 255
216 232 255
216 232 255
216 232 255
216 232 255
216 232 255
216 232 255
216 232 255
215 232 255
215 232 255
215 232 255
215 232 255
215 232 255
215 232 255
215 232 255
215 232 255
215 232 255
215 232 255
215 232 255
215 232 255
215 232 255
215 232 255
215 232 255
215 232 255
215 232 255
215 232 255
215 232 255
215 232 255
215 232 255
215 232 255
215 232 255
215 232 255
215 232 255
215 232 255
215 232 255
215 232 255
214 232 255
189 206 229
167 182 203
139 151 167
146 164 189
132 132 167
127 135 174
130 145 174
127 130 142
125 114 108
122 141 127
119 144 148
127 148 174
128 132 143
125 114 113
133 122 123
156 158 148
187 213 197
179 209 194
185 200 197
145 161 180
138 159 185
135 156 182
135 155 182
136 156 183
134 154 181
132 152 179
136 156 182
169 175 209
174 180 219
165 166 204
163 162 199
152 136 172
122 59 103
124 68 110
126 78 116
119 61 103
131 144 170
134 155 181
133 153 179
149 163 191
197 213 239
174 182 206
140 125 144
145 99 111
134 78 105
106 78 155
95 57 143
114 115 160
138 160 184
134 158 179
150 117 195
157 98 204
140 138 193
100 128 205
96 123 171
150 192 202
157 198 208
158 177 200
168 184 205
186 204 228
215 232 255
216 233 255
216 233 255
217 233 255
217 233 255
217 233 255
217 233 255
217 233 255
217 233 255
217 233 255
217 233 255
217 233 255
217 233 255
217 233 255
217 233 255
217 233 255
217 233 255
217 233 255
217 233 255
217 233 255
217 233 255
217 233 255
217 233 255
217 233 255
217 233 255
217 233 255
217 233 255
217 233 255
217 233 255
217 233 255
217 233 255
218 233 255
218 233 255
218 233 255
218 233 255
218 234 255
218 234 255
218 234 255
218 234 255
218 234 255
218 234 255
218 234 255
218 234 255
218 234 255
218 234 255
218 234 255
218 234 255
218 234 255
218 234 255
218 234 255
218 234 255
218 234 255
218 234 255
218 234 255
218 234 255
218 234 255
218 234 255
218 234 255
218 234 255
218 234 255
218 234 255
218 234 255
218 234 255
218 234 255
218 234 255
218 234 255
218 234 255
218 234 255
218 234 255
218 233 255
218 233 255
218 233 255
217 233 255
217 233 255
217 233 255
217 233 255
217 233 255
217 233 255
217 233 255
217 233 255
217 233 255
217 233 255
217 233 255
217 233 255
217 233 255
217 233 255
217 233 255
217 233 255
217 233 255
217 233 255
217 233 255
217 233 255
217 233 255
217 233 255
217 233 255
217 233 255
217 233 255
217 233 255
217 233 255
216 233 255
216 233 255
216 233 255
216 233 255
216 233 255
216 233 255
216 233 255
216 233 255
216 233 255
216 233 255
216 233 255
216 233 255
216 233 255
216 233 255
216 233 255
216 233 255
216 233 255
216 232 255
216 232 255
216 232 255
216 232 255
216 232 255
216 232 255
216 232 255
216 232 255
215 232 255
215 232 255
215 232 255
215 232 255
215 232 255
215 232 255
215 232 255
215 232 255
215 232 255
215 232 255
215 232 255
215 232 255
215 232 255
215 232 255
215 232 255
214 232 255
177 192 213
153 167 184
138 151 169
133 144 168
120 102 151
129 138 167
134 147 164
167 181 206
125 139 123
165 195 175
138 160 173
137 157 184
131 125 130
129 118 116
111 135 103
181 168 192
181 188 199
179 177 198
153 159 190
137 158 184
134 155 182
137 158 185
137 158 184
137 157 184
133 153 179
136 156 183
137 157 184
149 164 194
162 174 215
163 178 224
163 177 222
160 168 203
129 114 146
126 69 113
127 71 115
129 102 137
137 158 185
135 155 181
134 154 180
112 101 156
186 208 244
190 218 255
198 215 242
149 117 133
157 71 70
116 52 121
106 72 157
104 108 142
126 145 167
136 153 179
148 149 195
161 95 213
144 142 191
106 130 181
107 127 142
159 194 211
158 199 213
146 171 197
143 161 191
184 201 224
214 231 254
217 233 255
217 233 255
217 233 255
217 233 255
217 233 255
217 233 255
217 233 255
217 233 255
217 233 255
217 233 255
217 233 255
217 233 255
217 233 255
217 233 255
217 233 255
217 233 255
217 233 255
217 233 255
217 233 255
218 233 255
218 233 255
218 233 255
218 234 255
218 234 255
218 234 255
218 234 255
218 234 255
218 234 255
218 234 255
218 234 255
218 234 255
218 234 255
218 234 255
218 234 255
218 234 255
218 234 255
218 234 255
218 234 255
218 234 255
218 234 255
218 234 255
218 234 255
218 234 255
218 234 255
218 234 255
218 234 255
218 234 255
218 234 255
218 234 255
218 234 255
218 234 255
218 234 255
218 234 255
218 234 255
218 234 255
218 234 255
218 234 255
218 234 255
218 234 255
218 234 255
218 234 255
218 234 255
218 234 255
218 234 255
218 234 255
218 234 255
218 234 255
218 234 255
218 234 255
218 234 255
218 234 255
218 234 255
218 234 255
218 234 255
218 234 255
218 234 255
218 234 255
218 234 255
218 233 255
218 234 255
218 233 255
218 233 255
218 233 255
217 233 255
217 233 255
217 233 255
217 233 255
217 233 255
217 233 255
217 233 255
217 233 255
217 233 255
217 233 255
217 233 255
217 233 255
217 233 255
217 233 255
217 233 255
217 233 255
217 233 255
217 233 255
217 233 255
217 233 255
217 233 255
217 233 255
217 233 255
217 233 255
217 233 255
217 233 255
217 233 255
216 233 255
216 233 255
216 233 255
216 233 255
216 233 255
216 233 255
216 233 255
216 233 255
216 233 255
216 233 255
216 233 255
216 233 255
216 233 255
216 233 255
216 233 255
216 233 255
216 233 255
216 233 255
216 233 255
216 233 255
216 233 255
216 233 255
216 233 255
216 232 255
216 232 255
216 232 255
216 232 255
216 232 255
207 224 247
157 169 187
146 159 175
119 129 148
121 115 149
134 93 155
120 127 81
176 197 215
178 205 229
172 209 182
156 194 183
110 136 172
133 154 180
127 144 153
103 159 97
96 173 102
133 162 158
154 160 192
138 156 183
134 154 181
138 159 185
134 155 181
137 157 184
136 156 183
136 156 182
134 153 179
135 156 182
135 155 181
138 159 185
136 157 183
139 157 186
146 162 191
138 159 185
138 159 185
136 155 181
137 151 178
136 153 180
139 159 186
137 156 182
137 158 184
124 107 171
127 98 175
181 202 240
170 191 222
137 133 152
171 70 66
169 79 83
124 127 166
103 119 132
122 142 162
137 155 181
106 134 160
137 101 211
123 144 188
107 126 136
119 147 155
152 178 203
146 182 197
113 156 187
144 164 196
184 202 223
215 232 255
217 233 255
217 233 255
217 233 255
217 233 255
217 233 255
217 233 255
217 233 255
218 233 255
218 233 255
218 233 255
218 234 255
218 234 255
218 234 255
218 234 255
218 234 255
218 234 255
218 234 255
218 234 255
218 234 255
218 234 255
218 234 255
218 234 255
218 234 255
218 234 255
218 234 255
218 234 255
218 234 255
218 234 255
218 234 255
218 234 255
218 234 255
218 234 255
218 234 255
218 234 255
218 234 255
218 234 255
218 234 255
218 234 255
218 234 255
218 234 255
218 234 255
218 234 255
218 234 255
218 234 255
218 234 255
219 234 255
219 234 255
219 234 255
219 234 255
219 234 255
219 234 255
219 234 255
219 234 255
219 234 255
219 234 255
219 234 255
219 234 255
219 234 255
219 234 255
218 234 255
218 234 255
218 234 255
218 234 255
218 234 255
218 234 255
218 234 255
218 234 255
218 234 255
218 234 255
218 234 255
218 234 255
218 234 255
218 234 255
218 234 255
218 234 255
218 234 255
218 234 255
218 234 255
218 234 255
218 234 255
218 234 255
218 234 255
218 234 255
218 234 255
218 234 255
218 234 255
218 234 255
218 234 255
218 234 255
218 234 255
218 234 255
218 234 255
218 234 255
218 233 255
218 233 255
218 233 255
217 233 255
217 233 255
217 233 255
217 233 255
217 233 255
217 233 255
217 233 255
217 233 255
217 233 255
217 233 255
217 233 255
217 233 255
217 233 255
217 233 255
217 233 255
217 233 255
217 233 255
217 233 255
217 233 255
217 233 255
217 233 255
217 233 255
217 233 255
217 233 255
217 233 255
217 233 255
217 233 255
217 233 255
217 233 255
217 233 255
217 233 255
216 233 255
216 233 255
216 233 255
216 233 255
216 233 255
216 233 255
216 233 255
216 233 255
216 233 255
216 233 255
216 233 255
198 215 237
154 167 183
130 141 158
122 132 150
123 103 155
131 125 141
141 152 100
167 189 217
151 175 191
163 205 188
91 142 188
132 153 180
132 152 178
124 168 156
92 179 88
119 180 143
133 155 179
135 155 181
136 157 182
136 156 182
137 158 184
134 154 180
139 159 185
137 158 184
132 153 179
133 153 179
135 155 181
135 155 181
136 156 183
137 157 183
138 158 185
140 160 187
138 158 185
137 156 181
137 157 183
136 155 182
137 157 184
139 158 184
136 157 183
137 157 184
133 141 180
119 53 173
117 53 170
137 155 183
104 104 118
113 66 65
179 170 187
194 215 245
117 131 134
116 135 147
131 143 170
99 132 110
91 134 205
122 150 193
121 126 146
146 174 188
159 177 202
143 161 188
130 187 223
147 167 198
179 197 218
211 227 249
218 234 255
218 234 255
218 234 255
218 234 255
218 234 255
218 234 255
218 234 255
218 234 255
218 234 255
218 234 255
218 234 255
218 234 255
218 234 255
218 234 255
218 234 255
218 234 255
218 234 255
218 234 255
218 234 255
218 234 255
218 234 255
218 234 255
218 234 255
218 234 255
218 234 255
218 234 255
218 234 255
218 234 255
218 234 255
218 234 255
219 234 255
219 234 255
219 234 255
219 234 255
219 234 255
219 234 255
219 234 255
219 234 255
219 234 255
219 234 255
219 234 255
219 234 255
219 234 255
219 234 255
219 234 255
219 234 255
219 234 255
219 234 255
219 234 255
219 234 255
219 234 255
219 234 255
219 234 255
219 234 255
219 234 255
219 234 255
219 234 255
219 234 255
219 234 255
219 234 255
219 234 255
219 234 255
219 234 255
219 234 255
219 234 255
219 234 255
219 234 255
219 234 255
219 234 255
219 234 255
219 234 255
219 234 255
219 234 255
219 234 255
219 234 255
219 234 255
218 234 255
218 234 255
218 234 255
218 234 255
218 234 255
218 234 255
218 234 255
218 234 255
218 234 255
218 234 255
218 234 255
218 234 255
218 234 255
218 234 255
218 234 255
218 234 255
218 234 255
218 234 255
218 234 255
218 234 255
218 234 255
218 234 255
218 234 255
218 234 255
218 234 255
218 234 255
218 234 255
218 234 255
218 234 255
218 234 255
218 234 255
218 234 255
218 233 255
218 233 255
218 233 255
218 233 255
217 233 255
217 233 255
217 233 255
217 233 255
217 233 255
217 233 255
217 233 255
217 233 255
217 233 255
217 233 255
217 233 255
217 233 255
217 233 255
217 233 255
217 233 255
217 233 255
217 233 255
217 233 255
217 233 255
217 233 255
217 233 255
217 233 255
217 233 255
217 233 255
217 233 255
217 233 255
184 198 219
150 161 177
118 129 145
129 136 157
102 103 166
139 157 144
155 174 160
140 160 187
139 159 185
83 137 197
97 144 200
133 152 179
139 158 185
134 157 179
125 161 163
138 158 184
134 154 181
134 154 180
133 154 179
141 161 187
139 159 185
134 154 180
137 158 184
134 154 180
136 156 182
134 154 181
136 157 183
138 159 185
138 159 185
134 154 180
132 153 179
138 158 184
137 157 184
135 156 183
133 152 178
134 153 180
139 159 186
139 159 186
134 155 181
137 157 183
135 155 181
130 129 183
132 131 185
138 158 184
110 105 118
92 59 53
139 144 149
181 206 236
92 128 106
109 135 137
109 83 132
124 140 123
133 193 208
144 168 196
126 106 139
160 169 199
140 153 172
157 176 205
127 181 222
146 168 190
181 198 221
214 229 251
218 234 255
218 234 255
218 234 255
218 234 255
218 234 255
218 234 255
218 234 255
218 234 255
218 234 255
218 234 255
218 234 255
218 234 255
218 234 255
218 234 255
219 234 255
219 234 255
219 234 255
219 234 255
219 234 255
219 234 255
219 234 255
219 234 255
219 234 255
219 234 255
219 234 255
219 234 255
219 234 255
219 234 255
219 234 255
219 234 255
219 234 255
219 234 255
219 234 255
219 234 255
219 234 255
219 234 255
219 234 255
219 234 255
219 234 255
219 234 255
219 234 255
219 234 255
219 234 255
219 234 255
219 234 255
219 235 255
219 234 255
219 234 255
219 234 255
219 234 255
219 234 255
219 234 255
219 234 255
219 234 255
219 234 255
219 234 255
219 234 255
219 234 255
219 234 255
219 234 255
219 234 255
219 234 255
219 234 255
219 234 255
219 234 255
219 234 255
219 234 255
219 234 255
219 234 255
219 234 255
219 234 255
219 234 255
219 234 255
219 234 255
219 234 255
219 234 255
219 234 255
219 234 255
219 234 255
219 234 255
219 234 255
219 234 255
219 234 255
219 234 255
219 234 255
219 234 255
219 234 255
219 234 255
219 234 255
219 234 255
219 234 255
219 234 255
219 234 255
219 234 255
218 234 255
218 234 255
218 234 255
218 234 255
218 234 255
218 234 255
218 234 255
218 234 255
218 234 255
218 234 255
218 234 255
218 234 255
218 234 255
218 234 255
218 234 255
218 234 255
218 234 255
218 234 255
218 234 255
218 234 255
218 234 255
218 234 255
218 234 255
218 234 255
218 234 255
218 234 255
218 234 255
218 234 255
218 234 255
218 234 255
218 234 255
218 234 255
218 234 255
218 234 255
218 234 255
218 233 255
218 234 255
218 233 255
218 233 255
218 233 255
218 233 255
218 233 255
218 233 255
215 231 253
179 193 212
147 152 170
136 147 160
116 125 135
94 134 156
142 176 174
150 176 195
134 154 180
137 156 183
122 151 193
132 153 182
137 154 180
132 151 177
136 155 182
133 152 180
140 159 185
136 156 182
138 158 184
137 157 183
145 165 190
156 175 199
174 191 213
180 196 218
189 204 226
192 207 228
195 210 231
187 203 224
201 216 236
198 213 233
181 197 218
190 205 226
192 207 228
186 202 223
173 190 212
171 187 209
164 181 204
152 170 195
145 164 189
135 155 181
136 156 182
134 153 179
137 157 184
135 155 181
136 156 182
127 138 158
108 97 106
141 157 176
100 135 122
83 132 100
125 150 165
87 89 141
168 93 152
134 184 184
165 189 213
104 107 155
123 134 169
140 127 134
149 176 200
129 149 191
166 179 207
171 189 212
216 232 253
219 234 255
219 234 255
219 234 255
219 234 255
219 234 255
219 234 255
219 234 255
219 234 255
219 234 255
219 234 255
219 234 255
219 234 255
219 234 255
219 234 255
219 234 255
219 234 255
219 234 255
219 234 255
219 234 255
219 234 255
219 234 255
219 234 255
219 234 255
219 234 255
219 234 255
219 234 255
219 234 255
219 234 255
219 234 255
219 234 255
219 234 255
219 234 255
219 234 255
219 234 255
219 234 255
219 234 255
219 234 255
219 234 255
219 234 255
219 234 255
219 234 255
219 234 255
219 234 255
219 234 255
219 235 255
220 235 255
220 235 255
220 235 255
220 235 255
220 235 255
220 235 255
220 235 255
220 235 255
220 235 255
220 235 255
220 235 255
220 235 255
220 235 255
220 235 255
220 235 255
220 235 255
220 235 255
219 235 255
219 235 255
219 235 255
219 235 255
219 235 255
219 235 255
219 234 255
219 234 255
219 234 255
219 234 255
219 234 255
219 234 255
219 234 255
219 234 255
219 234 255
219 234 255
219 234 255
219 234 255
219 234 255
219 234 255
219 234 255
219 234 255
219 234 255
219 234 255
219 234 255
219 234 255
219 234 255
219 234 255
219 234 255
219 234 255
219 234 255
219 234 255
219 234 255
219 234 255
219 234 255
219 234 255
219 234 255
219 234 255
219 234 255
219 234 255
219 234 255
219 234 255
219 234 255
219 234 255
219 234 255
219 234 255
219 234 255
219 234 255
219 234 255
219 234 255
219 234 255
219 234 255
219 234 255
219 234 255
218 234 255
218 234 255
218 234 255
218 234 255
218 234 255
218 234 255
218 234 255
218 234 255
218 234 255
218 234 255
218 234 255
218 234 255
218 234 255
218 234 255
218 234 255
218 234 255
218 234 255
218 234 255
218 234 255
218 234 255
218 234 255
202 218 238
157 168 185
136 142 155
126 135 146
121 135 144
113 178 168
127 172 143
137 157 184
134 153 180
140 158 186
137 154 183
138 157 184
138 157 183
138 157 183
151 169 195
172 188 210
194 209 229
198 213 233
213 226 245
221 235 254
220 234 254
222 236 255
221 235 255
222 236 255
222 236 255
221 235 254
222 236 255
222 236 255
222 236 255
222 236 255
221 235 255
220 234 255
221 235 254
222 235 254
221 235 254
220 233 252
221 235 254
220 234 253
222 236 255
215 229 248
205 220 239
201 216 236
185 201 223
184 199 220
162 179 202
152 170 194
141 160 185
138 158 183
113 148 150
117 147 152
138 156 181
92 113 147
119 138 132
108 135 152
117 135 147
60 88 130
131 142 153
133 122 122
140 162 177
147 145 167
173 177 209
195 210 233
218 234 255
219 234 255
219 234 255
219 234 255
219 234 255
219 234 255
219 234 255
219 234 255
219 234 255
219 234 255
219 234 255
219 234 255
219 234 255
219 234 255
219 234 255
219 234 255
219 234 255
219 234 255
219 234 255
219 234 255
219 234 255
219 234 255
219 235 255
219 235 255
219 235 255
219 235 255
219 235 255
220 235 255
219 235 255
219 235 255
220 235 255
220 235 255
220 235 255
220 235 255
220 235 255
220 235 255
220 235 255
220 235 255
220 235 255
220 235 255
220 235 255
220 235 255
220 235 255
220 235 255
220 235 255
220 235 255
220 235 255
220 235 255
220 235 255
220 235 255
220 235 255
220 235 255
220 235 255
220 235 255
220 235 255
220 235 255
220 235 255
220 235 255
220 235 255
220 235 255
220 235 255
220 235 255
220 235 255
220 235 255
220 235 255
220 235 255
220 235 255
220 235 255
220 235 255
220 235 255
220 235 255
220 235 255
220 235 255
220 235 255
220 235 255
220 235 255
220 235 255
220 235 255
220 235 255
220 235 255
220 235 255
220 235 255
220 235 255
220 235 255
220 235 255
220 235 255
220 235 255
220 235 255
220 235 255
219 235 255
219 235 255
219 235 255
219 235 255
219 235 255
219 234 255
219 235 255
219 234 255
219 234 255
219 234 255
219 234 255
219 234 255
219 234 255
219 234 255
219 234 255
219 234 255
219 234 255
219 234 255
219 234 255
219 234 255
219 234 255
219 234 255
219 234 255
219 234 255
219 234 255
219 234 255
219 234 255
219 234 255
219 234 255
219 234 255
219 234 255
219 234 255
219 234 255
219 234 255
219 234 255
219 234 255
219 234 255
219 234 255
219 234 255
219 234 255
219 234 255
219 234 255
219 234 255
219 234 255
219 234 255
219 234 255
219 234 255
219 234 255
219 234 255
206 221 241
148 159 172
135 145 157
115 117 132
121 135 155
138 158 187
138 158 184
133 152 182
138 156 184
162 177 204
177 193 216
190 205 227
206 220 240
220 234 254
219 233 251
219 232 251
217 230 248
217 230 248
218 231 249
218 231 250
220 234 254
221 235 254
221 235 255
222 236 255
222 236 255
222 236 255
222 236 255
221 235 254
221 235 254
220 235 254
222 236 255
222 236 255
220 234 253
222 235 254
220 234 253
221 235 254
221 235 254
219 232 252
219 233 252
219 233 252
221 235 254
219 233 252
219 234 252
221 234 254
219 232 252
222 236 255
222 235 255
207 221 241
201 216 237
188 203 224
185 200 221
161 179 189
149 171 170
122 158 172
130 144 148
109 138 148
141 159 181
123 124 131
144 150 186
151 164 186
167 171 190
191 198 221
219 235 255
219 235 255
219 235 255
220 235 255
220 235 255
220 235 255
220 235 255
220 235 255
220 235 255
220 235 255
220 235 255
220 235 255
220 235 255
220 235 255
220 235 255
220 235 255
220 235 255
220 235 255
220 235 255
220 235 255
220 235 255
220 235 255
220 235 255
220 235 255
220 235 255
220 235 255
220 235 255
220 235 255
220 235 255
220 235 255
220 235 255
220 235 255
220 235 255
220 235 255
220 235 255
220 235 255
220 235 255
220 235 255
220 235 255
220 235 255
220 235 255
220 235 255
220 235 255
220 235 255
220 235 255
220 235 255
220 235 255
220 235 255
220 235 255
220 235 255
220 235 255
220 235 255
220 235 255
220 235 255
220 235 255
220 235 255
220 235 255
220 235 255
220 235 255
220 235 255
220 235 255
220 235 255
220 235 255
220 235 255
220 235 255
220 235 255
220 235 255
220 235 255
220 235 255
220 235 255
220 235 255
220 235 255
220 235 255
220 235 255
220 235 255
220 235 255
220 235 255
220 235 255
220 235 255
220 235 255
220 235 255
220 235 255
220 235 255
220 235 255
220 235 255
220 235 255
220 235 255
220 235 255
220 235 255
220 235 255
220 235 255
220 235 255
220 235 255
220 235 255
220 235 255
220 235 255
220 235 255
220 235 255
220 235 255
220 235 255
220 235 255
220 235 255
220 235 255
220 235 255
220 235 255
220 235 255
220 235 255
220 235 255
220 235 255
220 235 255
220 235 255
220 235 255
220 235 255
220 235 255
220 235 255
220 235 255
220 235 255
220 235 255
220 235 255
220 235 255
220 235 255
220 235 255
219 235 255
220 235 255
219 235 255
219 235 255
219 235 255
219 235 255
219 235 255
219 235 255
219 235 255
219 235 255
219 235 255
219 234 255
219 234 255
219 234 255
219 234 255
219 234 255
203 216 236
150 164 176
126 142 145
112 120 142
128 138 155
166 182 207
183 198 224
209 223 243
218 232 252
221 234 254
218 232 253
218 232 252
219 233 251
219 233 252
215 228 246
216 228 247
220 233 252
218 231 249
220 233 252
219 232 251
220 233 252
220 234 254
221 235 255
222 236 255
222 236 255
222 236 255
221 235 254
221 235 254
222 236 255
222 236 255
222 236 255
222 236 255
221 235 254
222 236 255
222 236 255
220 234 253
221 235 254
219 233 252
220 233 253
220 234 253
217 230 249
221 235 254
219 234 252
215 228 247
221 235 254
220 234 254
220 234 254
218 231 251
221 235 254
216 229 248
219 233 252
216 229 248
217 229 247
219 233 253
211 226 245
199 212 232
188 202 223
178 191 212
162 179 205
170 182 206
166 189 203
194 205 227
220 235 255
220 235 255
220 235 255
220 235 255
220 235 255
220 235 255
220 235 255
220 235 255
220 235 255
220 235 255
220 235 255
220 235 255
220 235 255
220 235 255
220 235 255
220 235 255
220 235 255
220 235 255
220 235 255
220 235 255
220 235 255
220 235 255
220 235 255
220 235 255
220 235 255
220 235 255
220 235 255
220 235 255
220 235 255
220 235 255
220 235 255
220 235 255
220 235 255
220 235 255
220 235 255
220 235 255
220 235 255
220 235 255
220 235 255
220 235 255
220 235 255
220 235 255
220 235 255
220 235 255
220 235 255
220 235 255
221 235 255
221 235 255
221 235 255
221 235 255
221 235 255
221 235 255
221 235 255
221 235 255
221 235 255
221 235 255
221 235 255
221 235 255
221 235 255
221 235 255
221 235 255
221 235 255
221 235 255
221 235 255
221 235 255
221 235 255
221 235 255
221 235 255
221 235 255
221 235 255
221 235 255
221 235 255
220 235 255
220 235 255
220 235 255
220 235 255
220 235 255
220 235 255
220 235 255
220 235 255
220 235 255
220 235 255
220 235 255
220 235 255
220 235 255
220 235 255
220 235 255
220 235 255
220 235 255
220 235 255
220 235 255
220 235 255
220 235 255
220 235 255
220 235 255
220 235 255
220 235 255
220 235 255
220 235 255
220 235 255
220 235 255
220 235 255
220 235 255
220 235 255
220 235 255
220 235 255
220 235 255
220 235 255
220 235 255
220 235 255
220 235 255
220 235 255
220 235 255
220 235 255
220 235 255
220 235 255
220 235 255
220 235 255
220 235 255
220 235 255
220 235 255
220 235 255
220 235 255
220 235 255
220 235 255
220 235 255
220 235 255
220 235 255
220 235 255
220 235 255
220 235 255
220 235 255
220 235 255
220 235 255
220 235 255
220 235 255
220 235 255
220 235 255
198 211 230
158 170 183
112 122 133
123 137 153
172 178 193
220 234 254
218 232 252
217 231 250
221 235 254
221 235 255
221 235 255
222 236 255
220 234 254
218 231 251
220 234 253
217 230 248
218 232 252
219 232 251
217 231 249
217 230 248
219 232 251
220 233 254
222 236 255
220 234 253
221 236 255
220 235 254
221 235 254
221 235 254
221 235 255
218 233 254
220 234 254
219 232 252
222 236 255
221 235 254
221 235 254
220 234 253
221 235 254
220 234 253
220 233 253
218 231 251
217 230 249
221 235 254
219 234 253
219 234 254
219 233 253
220 235 255
219 233 252
219 233 253
221 235 255
219 233 253
222 236 255
217 230 249
221 234 254
219 233 253
220 235 254
220 234 254
221 235 254
222 236 255
222 236 255
221 235 255
215 229 249
213 228 249
220 235 255
220 235 255
220 235 255
220 235 255
220 235 255
220 235 255
220 235 255
220 235 255
220 235 255
220 235 255
220 235 255
220 235 255
220 235 255
220 235 255
220 235 255
220 235 255
220 235 255
221 235 255
220 235 255
220 235 255
221 235 255
221 235 255
221 235 255
221 235 255
221 235 255
221 235 255
221 235 255
221 235 255
221 235 255
221 235 255
221 235 255
221 235 255
221 235 255
221 235 255
221 235 255
221 235 255
221 235 255
221 235 255
221 235 255
221 235 255
221 235 255
221 235 255
221 235 255
221 235 255
221 235 255
221 235 255
221 235 255
221 235 255
221 235 255
221 235 255
221 235 255
221 235 255
221 235 255
221 235 255
221 235 255
221 235 255
221 235 255
221 235 255
221 235 255
221 235 255
221 235 255
221 235 255
221 235 255
221 235 255
221 235 255
221 235 255
221 235 255
221 235 255
221 235 255
221 235 255
221 235 255
221 235 255
221 235 255
221 235 255
221 235 255
221 235 255
221 235 255
221 235 255
221 235 255
221 235 255
221 235 255
221 235 255
221 235 255
221 235 255
221 235 255
221 235 255
221 235 255
221 235 255
221 235 255
221 235 255
221 235 255
221 235 255
221 235 255
221 235 255
221 235 255
221 235 255
221 235 255
221 235 255
221 235 255
221 235 255
221 235 255
221 235 255
221 235 255
221 235 255
221 235 255
221 235 255
221 235 255
221 235 255
221 235 255
221 235 255
221 235 255
221 235 255
221 235 255
221 235 255
221 235 255
221 235 255
221 235 255
221 235 255
221 235 255
221 235 255
221 235 255
221 235 255
221 235 255
221 235 255
221 235 255
221 235 255
221 235 255
221 235 255
221 235 255
221 235 255
221 235 255
221 235 255
221 235 255
221 235 255
221 235 255
221 235 255
221 235 255
221 235 255
202 216 235
146 153 159
135 145 155
152 150 158
198 205 217
222 236 255
221 235 255
221 236 255
221 235 255
222 236 255
220 234 254
220 234 254
220 235 254
216 229 248
220 234 253
218 232 251
216 229 248
217 230 248
219 233 252
219 232 252
218 232 251
218 231 251
221 235 255
220 235 254
221 236 255
221 236 255
221 236 255
221 236 255
221 236 255
221 236 255
221 236 255
221 235 254
220 234 253
219 233 252
220 234 253
219 232 252
219 232 252
221 235 254
220 233 253
220 235 254
220 234 254
218 232 252
221 236 255
221 236 255
221 236 255
221 236 255
221 236 255
221 236 255
221 236 255
221 236 255
221 236 255
221 236 255
222 236 255
222 236 255
222 236 255
222 236 255
222 236 255
221 236 255
222 236 255
221 236 255
221 236 255
220 234 254
221 235 255
221 235 255
221 235 255
221 235 255
221 235 255
221 235 255
221 235 255
221 235 255
221 235 255
221 235 255
221 235 255
221 235 255
221 235 255
221 235 255
221 235 255
221 235 255
221 235 255
221 235 255
221 235 255
221 235 255
221 235 255
221 235 255
221 235 255
221 235 255
221 235 255
221 235 255
221 235 255
221 235 255
221 235 255
221 235 255
221 235 255
221 235 255
221 235 255
221 235 255
221 235 255
221 235 255
221 235 255
221 235 255
221 235 255
221 235 255
221 235 255
221 235 255
221 235 255
221 235 255
221 235 255
221 235 255
221 236 255
221 236 255
221 236 255
221 236 255
221 236 255
221 236 255
221 236 255
221 236 255
221 236 255
221 236 255
221 236 255
221 236 255
221 236 255
221 236 255
221 236 255
221 236 255
221 236 255
221 236 255
221 236 255
221 236 255
221 236 255
221 236 255
221 236 255
221 236 255
221 236 255
221 236 255
221 236 255
221 236 255
221 236 255
221 236 255
221 236 255
221 236 255
221 236 255
221 236 255
221 236 255
221 236 255
221 236 255
221 236 255
221 236 255
221 236 255
221 236 255
221 236 255
221 236 255
221 236 255
221 236 255
221 236 255
221 236 255
221 236 255
221 236 255
221 236 255
221 236 255
221 236 255
221 236 255
221 236 255
221 236 255
221 236 255
221 236 255
221 236 255
221 236 255
221 236 255
221 236 255
221 236 255
221 236 255
221 236 255
221 236 255
221 236 255
221 236 255
221 236 255
221 236 255
221 236 255
221 236 255
221 236 255
221 236 255
221 236 255
221 236 255
221 236 255
221 236 255
221 236 255
221 236 255
221 236 255
221 236 255
221 236 255
221 236 255
221 236 255
221 236 255
221 236 255
221 236 255
221 236 255
221 236 255
221 236 255
221 236 255
221 236 255
212 223 238
165 165 169
191 192 195
191 192 195
202 208 217
221 235 255
221 235 255
221 235 255
221 235 255
221 235 255
221 235 255
221 235 255
219 233 253
216 229 248
216 229 248
219 233 253
217 230 250
216 229 248
214 227 246
216 229 247
219 233 253
219 232 252
221 235 255
221 235 255
221 236 255
221 235 255
221 236 255
221 235 255
221 235 255
221 235 255
220 234 254
220 234 253
219 233 253
220 235 254
220 235 254
219 233 253
218 232 252
221 235 255
220 235 254
217 231 251
218 231 251
219 233 253
221 235 255
221 235 255
221 235 255
221 235 255
221 235 255
221 235 255
221 235 255
221 235 255
221 235 255
221 235 255
221 235 255
221 235 255
221 235 255
221 235 255
221 235 255
221 235 255
221 235 255
221 236 255
219 233 253
221 236 255
221 236 255
221 236 255
221 236 255
221 236 255
221 236 255
221 236 255
221 236 255
221 236 255
221 236 255
221 236 255
221 236 255
221 236 255
221 236 255
221 236 255
221 236 255
221 236 255
221 236 255
221 236 255
221 236 255
221 236 255
221 236 255
221 236 255
221 236 255
221 236 255
221 236 255
221 236 255
221 236 255
221 236 255
221 236 255
221 236 255
221 236 255
221 236 255
221 236 255
221 236 255
221 236 255
221 236 255
221 236 255
221 236 255
221 236 255
221 236 255
221 236 255
221 236 255
221 236 255
221 236 255
221 236 255
221 236 255
222 236 255
222 236 255
222 236 255
222 236 255
222 236 255
222 236 255
222 236 255
222 236 255
222 236 255
222 236 255
222 236 255
222 236 255
222 236 255
222 236 255
222 236 255
222 236 255
222 236 255
222 236 255
222 236 255
222 236 255
222 236 255
222 236 255
222 236 255
222 236 255
222 236 255
222 236 255
222 236 255
222 236 255
222 236 255
222 236 255
222 236 255
222 236 255
222 236 255
222 236 255
222 236 255
222 236 255
222 236 255
222 236 255
222 236 255
222 236 255
222 236 255
222 236 255
222 236 255
222 236 255
222 236 255
222 236 255
222 236 255
222 236 255
222 236 255
222 236 255
222 236 255
222 236 255
222 236 255
222 236 255
222 236 255
222 236 255
222 236 255
222 236 255
222 236 255
222 236 255
222 236 255
222 236 255
222 236 255
222 236 255
222 236 255
222 236 255
222 236 255
222 236 255
222 236 255
222 236 255
222 236 255
222 236 255
222 236 255
222 236 255
222 236 255
222 236 255
222 236 255
222 236 255
222 236 255
222 236 255
222 236 255
222 236 255
222 236 255
222 236 255
222 236 255
222 236 255
222 236 255
222 236 255
222 236 255
222 236 255
222 236 255
222 236 255
213 224 240
164 166 173
182 183 188
184 183 185
198 204 216
218 232 253
218 232 253
217 231 252
220 234 254
219 233 254
220 234 255
218 232 253
219 234 254
218 232 252
217 231 251
214 228 247
217 230 249
217 230 250
217 231 251
218 232 252
218 231 251
217 231 251
220 234 255
220 234 255
215 228 249
219 233 254
217 231 251
220 234 255
218 233 253
220 234 254
212 226 247
220 234 254
218 232 253
217 231 251
219 233 254
216 230 250
219 233 253
216 230 250
217 232 252
216 229 249
215 229 249
220 234 254
219 234 254
218 233 253
216 231 252
221 235 255
219 234 254
218 233 253
218 233 253
219 234 254
219 234 254
217 232 251
218 233 253
219 234 254
218 233 253
219 234 254
221 235 255
220 235 255
221 235 255
221 235 255
220 235 254
222 236 255
222 236 255
222 236 255
222 236 255
222 236 255
222 236 255
222 236 255
222 236 255
222 236 255
222 236 255
222 236 255
222 236 255
222 236 255
222 236 255
222 236 255
222 236 255
222 236 255
222 236 255
222 236 255
222 236 255
222 236 255
222 236 255
222 236 255
222 236 255
222 236 255
222 236 255
222 236 255
222 236 255
222 236 255
222 236 255
222 236 255
222 236 255
222 236 255
222 236 255
222 236 255
222 236 255
222 236 255
222 236 255
222 236 255
222 236 255
222 236 255
222 236 255
222 236 255
222 236 255
222 236 255
222 236 255
222 236 255
222 236 255
222 236 255
222 236 255
222 236 255
222 236 255
222 236 255
222 236 255
222 236 255
222 236 255
222 236 255
222 236 255
222 236 255
222 236 255
222 236 255
222 236 255
222 236 255
222 236 255
222 236 255
222 236 255
222 236 255
222 236 255
222 236 255
222 236 255
222 236 255
222 236 255
222 236 255
222 236 255
222 236 255
222 236 255
222 236 255
222 236 255
222 236 255
222 236 255
222 236 255
222 236 255
222 236 255
222 236 255
222 236 255
222 236 255
222 236 255
222 236 255
222 236 255
222 236 255
222 236 255
222 236 255
222 236 255
222 236 255
222 236 255
222 236 255
222 236 255
222 236 255
222 236 255
222 236 255
222 236 255
222 236 255
222 236 255
222 236 255
222 236 255
222 236 255
222 236 255
222 236 255
222 236 255
222 236 255
222 236 255
222 236 255
222 236 255
222 236 255
222 236 255
222 236 255
222 236 255
222 236 255
222 236 255
222 236 255
222 236 255
222 236 255
219 233 252
218 232 252
215 229 248
217 231 250
214 228 248
214 229 248
211 225 245
212 227 246
215 229 249
207 222 242
212 226 246
208 222 242
211 225 245
203 215 236
204 205 229
203 218 238
186 201 229
185 196 218
162 167 179
176 178 184
178 179 181
189 192 198
217 232 253
218 232 253
216 230 249
214 231 250
216 231 252
217 232 253
216 230 251
216 231 251
219 233 253
217 232 252
212 226 245
216 230 250
217 231 251
218 233 253
217 231 251
220 235 255
217 232 252
218 232 252
219 233 253
215 229 249
218 232 252
217 231 252
214 229 248
215 230 250
217 232 252
215 229 249
213 227 246
219 233 253
215 229 248
216 231 249
213 227 246
219 233 253
215 229 249
216 230 249
212 226 246
216 230 250
217 231 252
219 233 254
213 230 250
216 232 252
215 231 248
217 231 251
215 230 249
217 232 252
216 230 248
211 225 244
218 233 253
216 231 252
213 231 250
213 228 248
214 228 249
207 222 244
203 222 242
206 221 242
209 224 245
222 236 255
222 236 255
222 236 255
222 236 255
222 236 255
222 236 255
222 236 255
222 236 255
222 236 255
222 236 255
222 236 255
222 236 255
222 236 255
222 236 255
222 236 255
222 236 255
222 236 255
222 236 255
222 236 255
222 236 255
222 236 255
222 236 255
222 236 255
222 236 255
222 236 255
222 236 255
222 236 255
222 236 255
222 236 255
222 236 255
222 236 255
222 236 255
222 236 255
222 236 255
222 236 255
222 236 255
222 236 255
222 236 255
222 236 255
222 236 255
222 236 255
222 236 255
222 236 255
222 236 255
222 236 255
222 236 255
222 236 255
222 236 255
222 236 255
222 236 255
222 236 255
222 236 255
222 236 255
222 236 255
222 236 255
222 236 255
222 236 255
222 236 255
222 236 255
222 236 255
222 236 255
222 236 255
222 236 255
222 236 255
222 236 255
222 236 255
222 236 255
222 236 255
222 236 255
222 236 255
222 236 255
222 236 255
222 236 255
222 236 255
222 236 255
222 236 255
222 236 255
222 236 255
222 236 255
222 236 255
222 236 255
222 236 255
223 236 255
223 236 255
223 236 255
223 236 255
223 236 255
223 236 255
223 236 255
220 234 253
218 231 251
215 229 249
216 230 250
208 222 242
205 219 240
209 223 243
198 213 234
204 219 239
195 210 231
194 209 230
188 203 224
183 199 221
186 202 223
178 194 216
188 203 224
175 192 214
171 188 210
168 185 207
167 185 207
167 184 207
162 180 203
159 177 201
158 176 199
141 161 186
150 168 193
143 162 186
145 167 189
145 164 188
137 157 183
138 158 184
152 120 146
140 102 133
120 114 145
130 147 173
129 112 131
144 91 128
156 133 186
131 149 178
123 126 182
120 122 153
91 142 94
128 110 86
145 100 125
135 152 181
140 148 192
123 118 129
122 109 141
139 111 198
126 141 160
103 154 69
112 116 156
162 171 180
171 174 179
173 176 180
189 195 204
213 228 249
214 229 250
216 231 252
216 232 252
217 232 253
215 229 249
215 230 251
218 233 254
211 225 245
214 228 248
215 229 249
218 233 253
214 228 248
218 232 252
220 235 255
215 229 251
217 232 253
216 231 251
217 233 253
214 228 248
215 229 249
218 233 254
216 231 252
217 232 252
217 232 252
218 233 254
215 230 251
216 231 251
219 234 254
213 228 247
216 231 251
214 227 247
212 225 245
211 224 242
214 228 247
218 233 254
216 229 251
214 228 252
215 230 250
217 232 253
218 233 254
211 227 247
212 227 247
214 229 250
214 229 250
219 234 255
214 229 250
214 230 251
211 228 247
212 228 250
211 226 248
212 226 249
206 219 239
195 209 228
192 209 231
200 214 235
200 215 235
209 223 243
205 219 240
205 219 239
205 220 240
219 233 252
212 226 246
218 232 252
222 236 255
223 236 255
223 236 255
223 236 255
223 236 255
223 236 255
222 236 255
222 236 255
222 236 255
222 236 255
222 236 255
222 236 255
222 236 255
222 236 255
222 236 255
222 236 255
222 236 255
222 236 255
222 236 255
222 236 255
222 236 255
222 236 255
222 236 255
222 236 255
222 236 255
222 236 255
222 236 255
222 236 255
222 236 255
222 236 255
222 236 255
222 236 255
222 236 255
222 236 255
222 236 255
222 236 255
222 236 255
222 236 255
222 236 255
222 236 255
223 236 255
223 236 255
223 236 255
223 236 255
223 236 255
223 236 255
223 236 255
223 236 255
223 236 255
223 236 255
223 236 255
223 236 255
223 236 255
222 236 255
218 232 252
217 231 251
213 227 247
211 226 246
212 227 246
204 219 239
205 220 240
200 215 236
195 210 231
191 207 228
183 198 220
185 201 223
184 200 221
180 196 218
183 199 220
174 190 212
165 182 204
159 176 200
162 179 203
153 172 196
157 174 198
148 167 191
145 164 188
138 157 182
137 156 181
134 154 180
132 153 180
132 149 176
124 124 150
126 134 160
131 146 173
132 152 178
133 154 180
134 154 181
133 154 180
134 154 181
132 153 179
136 165 183
140 183 189
142 169 187
145 147 198
134 148 190
94 146 179
102 143 174
129 153 179
126 148 177
114 138 173
117 151 166
74 166 116
86 149 150
121 143 187
123 128 181
158 171 227
190 213 245
127 147 162
133 153 180
144 162 194
137 96 122
108 35 82
76 74 73
33 124 36
68 114 66
153 88 152
141 148 159
114 161 151
119 136 177
146 187 230
130 146 169
112 34 82
94 28 98
124 142 168
134 144 168
191 218 253
175 185 215
162 153 202
145 144 175
96 130 98
105 96 118
164 175 191
161 165 173
174 178 184
179 183 187
214 230 252
214 230 250
214 229 250
210 225 246
218 233 254
218 233 254
219 234 255
214 229 250
216 231 252
217 232 253
218 234 255
217 231 252
213 228 248
215 229 248
217 232 253
216 231 253
217 232 253
215 230 250
216 231 251
216 230 251
217 231 252
216 231 252
218 233 254
218 233 254
218 233 254
215 231 252
213 228 249
214 229 250
216 230 251
216 231 251
215 229 249
216 230 251
215 231 249
215 231 250
217 232 253
217 232 254
216 228 253
215 228 253
217 232 253
217 232 254
213 228 249
214 230 251
215 231 252
215 230 251
215 230 251
215 230 251
218 233 254
217 233 255
215 231 252
208 223 243
211 225 247
205 220 244
202 217 239
195 208 229
147 162 188
132 152 177
129 152 171
123 147 163
128 149 174
145 166 188
155 181 206
146 169 192
131 151 177
132 152 178
132 153 180
134 155 181
133 157 180
120 151 171
124 152 173
148 168 192
148 167 191
165 182 205
158 175 199
168 184 207
168 183 207
172 188 211
171 187 210
181 197 219
183 198 220
189 205 226
190 205 226
194 209 230
193 208 229
197 212 232
204 219 239
206 221 241
198 213 233
215 229 249
215 229 248
213 227 247
220 233 253
223 236 255
223 236 255
223 236 255
223 236 255
223 236 255
223 236 255
223 236 255
223 236 255
223 236 255
223 236 255
223 236 255
222 236 255
197 212 232
190 205 226
191 206 227
184 200 222
175 191 213
178 194 216
169 186 208
160 177 201
158 176 199
152 170 195
145 164 189
135 155 182
141 159 186
137 147 183
130 136 180
130 141 178
132 149 180
132 152 179
133 153 180
132 152 179
132 153 179
134 154 180
134 154 180
132 152 178
133 153 179
132 153 179
96 109 123
111 85 117
113 87 120
129 115 149
134 145 173
133 154 180
133 154 180
134 154 180
133 153 178
133 153 180
133 154 180
141 146 171
159 122 144
161 127 149
136 132 163
114 132 174
104 85 133
102 11 60
105 11 60
105 47 79
128 142 168
133 154 180
132 153 180
133 153 180
133 154 180
133 154 180
149 201 188
144 204 192
116 129 176
101 55 172
97 75 170
83 103 156
73 115 145
107 138 164
63 100 152
39 89 151
77 114 163
127 167 197
131 158 230
65 99 204
77 81 185
101 74 170
112 110 168
115 133 156
154 166 202
173 186 227
171 182 220
132 128 155
114 118 130
120 145 172
163 178 253
158 173 230
97 159 133
83 153 114
105 136 150
101 134 159
98 124 152
51 22 112
81 60 110
91 71 107
109 110 138
122 139 162
108 128 148
103 101 135
119 130 159
123 141 165
74 105 96
149 162 170
165 172 181
168 174 181
172 176 180
215 230 252
215 231 253
212 227 249
214 225 246
214 229 251
214 230 251
216 232 253
216 232 253
216 231 252
216 231 253
216 232 253
217 232 253
217 232 252
218 233 253
217 232 253
212 226 247
215 230 251
216 232 253
216 231 252
212 227 247
217 233 254
218 232 254
217 231 254
217 232 254
215 230 251
217 233 254
213 228 250
216 230 251
217 232 252
216 230 251
216 231 252
216 231 252
214 230 250
216 231 252
215 229 252
218 233 254
218 233 255
218 232 255
217 233 254
217 233 254
218 233 254
214 230 251
217 233 254
214 229 251
216 232 253
216 232 254
215 231 253
215 231 253
212 227 249
212 229 251
203 221 247
208 223 245
189 206 220
176 192 206
137 157 174
111 129 136
107 135 138
57 87 89
53 79 84
105 122 134
116 125 154
110 115 148
104 114 145
133 153 180
134 142 181
134 122 187
115 98 174
107 103 166
60 114 129
100 131 151
137 158 186
150 174 214
159 190 240
154 182 230
146 161 194
129 140 166
133 153 178
133 153 178
133 154 180
132 153 179
132 152 178
135 155 181
155 177 207
147 170 199
145 166 192
132 153 179
132 152 179
134 154 180
133 153 180
115 132 175
102 114 170
97 107 168
111 123 178
139 157 186
142 162 187
153 171 194
152 169 191
156 174 196
158 176 199
164 181 204
174 190 212
179 195 217
183 199 221
127 140 171
132 151 178
132 153 179
133 154 180
133 154 181
132 153 179
132 153 180
132 152 178
113 135 163
89 113 144
86 109 140
92 119 146
121 164 174
132 185 190
135 192 196
135 185 191
135 167 183
119 126 160
120 143 159
118 142 157
120 143 160
129 150 173
131 152 179
134 154 180
131 151 178
121 140 162
125 67 117
143 80 134
146 95 141
138 101 154
131 106 164
134 131 171
134 150 177
133 154 180
132 152 179
132 152 173
131 155 147
142 136 99
146 121 96
133 98 118
42 50 148
15 44 147
15 43 146
43 42 140
77 26 67
74 59 37
108 119 123
126 146 165
134 154 180
133 153 179
133 154 181
134 154 180
118 146 159
97 141 133
84 71 136
72 49 124
64 26 117
63 25 115
63 49 116
121 143 168
59 92 137
28 65 112
157 168 204
167 156 133
168 151 111
159 151 148
47 67 146
72 53 127
94 96 142
130 150 176
120 135 166
132 149 179
140 144 178
182 178 220
179 177 220
183 177 221
144 149 208
133 142 196
93 122 137
65 120 111
76 150 181
66 145 177
88 134 161
74 79 114
80 96 91
77 85 86
66 55 78
16 47 36
10 43 30
69 87 96
132 153 180
132 152 179
95 126 144
141 165 178
160 168 176
167 175 185
170 176 183
204 217 236
213 230 252
216 233 255
216 230 252
217 233 255
217 233 255
217 232 254
217 233 254
218 234 255
214 230 252
216 232 253
213 228 249
216 231 252
214 228 249
216 231 252
216 231 252
216 231 253
217 232 254
217 232 254
216 231 253
213 227 250
215 229 252
216 230 253
218 234 255
218 233 254
216 232 253
217 232 254
217 232 253
215 231 252
216 231 253
218 233 255
213 229 250
215 228 252
216 229 253
216 230 253
218 233 255
215 230 252
218 234 255
215 230 252
216 232 254
216 232 254
214 230 252
215 231 253
215 231 253
216 231 254
214 230 252
210 229 250
210 227 249
214 230 252
207 228 252
205 225 249
206 222 243
186 202 221
134 147 160
125 145 170
70 88 95
80 98 108
131 152 175
132 153 175
114 120 154
50 40 83
34 49 51
26 54 30
44 66 57
99 71 133
128 76 174
137 83 187
138 82 187
127 80 151
142 113 156
155 131 176
158 167 210
153 174 216
144 162 193
122 134 151
89 91 93
106 119 129
130 150 176
132 152 178
133 154 181
166 186 212
194 218 249
191 219 255
188 218 255
192 218 252
168 187 214
111 132 167
89 112 163
74 97 156
72 95 157
69 89 159
58 65 149
46 37 141
72 84 129
74 94 95
40 63 40
37 61 33
37 62 33
61 82 74
111 131 148
132 152 179
133 153 180
133 153 180
97 35 96
98 48 108
105 80 134
124 134 166
133 153 179
136 156 181
135 155 181
132 152 178
109 129 156
76 95 122
73 92 118
112 150 150
145 201 195
144 202 196
146 204 197
141 198 191
128 178 168
83 115 94
80 112 90
78 109 88
78 109 88
78 109 88
97 119 121
129 150 174
134 154 180
132 153 180
123 99 135
137 97 141
104 112 184
87 119 197
74 110 196
72 109 194
80 113 191
114 137 176
132 153 178
127 149 92
127 151 45
130 156 48
120 148 76
120 150 88
76 100 119
27 49 128
13 37 123
30 49 120
77 94 44
79 98 27
82 99 27
81 98 27
105 123 115
131 151 176
142 168 184
154 186 198
147 178 192
119 147 155
100 119 137
68 51 109
76 59 113
69 48 108
56 22 100
108 120 153
119 139 166
75 93 122
133 119 97
155 133 83
160 136 84
155 133 82
129 122 117
96 109 138
116 133 161
130 152 179
131 167 204
102 141 193
118 152 198
175 178 211
159 154 185
135 133 161
108 115 161
93 100 147
118 138 162
82 137 166
56 134 161
56 134 158
59 135 161
98 147 117
85 151 75
83 148 73
71 123 67
8 36 24
9 39 27
50 67 71
131 152 177
126 152 179
112 164 207
123 168 203
163 174 187
162 172 183
168 175 182
200 214 230
212 229 252
213 229 252
214 230 252
212 228 250
216 232 254
213 229 252
215 231 253
215 231 253
213 229 251
216 231 253
217 233 255
215 231 252
216 232 254
217 233 254
215 230 252
216 231 253
212 227 249
214 230 251
216 231 253
214 229 251
214 229 251
216 231 253
217 233 254
215 231 252
216 231 253
215 230 252
216 232 253
216 231 253
218 233 255
211 227 249
218 233 255
210 224 247
213 227 250
216 232 254
211 225 247
216 231 253
217 233 254
213 229 251
213 229 252
213 229 251
214 230 252
213 229 251
214 229 252
215 230 252
213 229 252
212 229 251
210 227 250
213 230 253
210 228 251
205 222 246
201 216 238
166 179 197
125 141 161
119 114 142
115 86 124
154 139 179
169 178 219
186 216 255
195 221 255
140 156 170
24 48 27
24 49 28
23 46 26
37 46 48
96 57 132
121 66 148
156 65 139
158 63 133
162 64 136
166 66 142
167 67 141
115 80 111
61 56 15
66 62 17
63 60 16
66 63 17
75 76 59
129 149 173
126 144 169
134 154 181
149 162 191
153 171 193
131 146 178
82 101 140
129 147 176
66 97 128
66 99 125
68 99 134
67 97 135
67 88 140
65 86 137
48 45 89
86 65 108
102 71 134
107 70 140
113 73 149
103 69 136
80 64 103
70 90 90
133 153 179
132 153 179
132 152 179
94 45 65
93 44 65
115 89 108
168 181 215
187 214 248
189 218 255
186 217 255
186 214 250
189 214 247
155 173 198
86 101 123
66 84 101
85 113 117
92 128 127
94 135 133
90 131 130
78 112 100
70 97 78
73 102 82
70 97 78
73 101 82
67 93 76
64 88 72
89 106 113
132 153 179
132 152 178
133 151 171
147 162 180
148 174 190
144 172 190
147 172 189
142 164 185
108 132 171
55 83 123
114 133 157
116 136 63
122 146 62
115 148 116
113 147 118
114 148 120
115 149 120
105 136 115
72 96 108
53 65 83
73 88 24
66 80 21
68 83 22
75 90 24
71 86 23
147 177 175
171 214 215
165 210 215
167 211 215
176 217 215
155 166 192
159 155 207
157 155 212
160 157 212
147 138 185
126 140 169
129 149 176
130 149 175
129 133 140
108 89 60
92 72 52
94 73 52
123 122 125
131 151 178
132 153 180
110 133 166
24 48 135
17 42 129
17 43 132
54 76 141
112 106 134
118 121 148
125 142 170
126 144 172
130 149 177
103 136 157
135 145 104
143 150 96
99 129 117
79 139 69
78 135 65
76 134 66
75 135 67
49 63 68
6 28 20
84 99 114
127 148 173
146 134 193
155 127 201
154 130 200
167 180 202
155 168 181
164 173 184
192 203 218
214 231 254
212 229 252
212 229 252
214 231 253
209 225 247
213 229 251
216 232 255
214 230 253
216 231 254
214 230 252
214 230 252
216 232 254
216 232 254
214 230 252
215 231 253
215 231 253
216 231 253
217 233 255
216 231 252
217 232 254
216 231 253
216 231 253
215 231 253
217 232 254
215 231 253
216 232 254
215 231 253
216 232 254
211 228 250
213 228 250
216 231 253
217 232 255
215 230 252
210 226 247
216 231 253
213 228 250
214 230 252
214 231 253
216 232 254
214 230 253
215 232 254
215 231 253
210 225 248
213 230 253
208 224 247
210 227 249
211 228 251
209 226 249
212 230 254
204 218 242
185 199 220
128 143 164
99 76 103
100 50 90
114 58 106
122 62 114
129 67 125
156 150 182
175 196 215
128 132 150
19 40 23
20 40 23
26 38 33
69 67 94
93 80 128
115 58 113
134 53 111
142 56 117
140 55 118
140 56 116
143 56 118
122 54 98
53 46 13
54 49 13
55 51 14
55 52 13
63 63 39
126 145 168
131 151 177
119 140 159
108 137 145
104 137 142
93 121 129
95 132 129
70 122 102
71 124 99
70 124 99
72 127 101
71 126 101
70 121 105
82 90 123
114 67 144
113 67 145
121 73 156
117 80 147
120 84 151
121 75 153
125 76 159
126 105 164
134 154 180
131 149 175
115 122 143
101 36 59
111 50 71
183 174 199
190 207 239
190 214 249
193 220 255
192 220 255
196 221 255
201 225 255
206 227 255
202 218 241
118 133 153
114 122 152
102 103 134
97 111 129
86 109 116
87 115 120
79 102 100
62 86 70
62 87 71
57 80 66
55 78 65
51 71 59
104 122 139
130 151 176
128 147 172
153 171 180
155 177 190
152 176 190
149 173 187
155 177 190
153 175 184
151 170 175
104 122 127
105 122 148
115 133 136
109 134 102
109 140 112
107 139 115
95 136 134
91 132 131
98 135 125
104 134 106
95 113 121
76 90 75
54 68 18
57 70 19
60 74 20
62 75 32
151 181 176
170 206 201
154 191 190
158 190 189
152 176 181
170 161 205
167 160 212
163 158 211
167 159 210
166 156 204
150 146 183
126 145 171
127 146 172
76 69 84
55 23 35
56 24 35
56 24 35
56 28 39
110 121 141
131 150 174
86 102 142
14 34 104
16 39 120
15 38 118
16 39 118
85 95 128
118 131 155
128 145 171
131 151 177
133 152 174
174 159 65
180 160 9
183 164 9
179 159 9
122 129 41
64 113 55
69 121 59
68 114 72
110 129 149
103 120 140
117 136 159
133 132 172
151 120 189
152 120 189
146 117 185
173 172 212
151 166 181
159 171 184
179 189 200
211 229 252
211 228 252
213 230 253
215 232 255
211 228 251
212 228 252
216 232 255
215 231 255
215 231 254
215 231 254
214 230 252
210 227 249
214 230 252
215 231 253
215 231 254
212 228 250
213 229 251
217 232 254
216 231 253
216 231 252
217 233 255
216 232 253
215 231 254
216 232 254
214 230 252
214 232 253
214 232 253
215 232 254
212 229 251
214 230 253
215 231 253
211 226 249
210 226 248
215 231 253
208 224 246
215 231 253
213 230 253
215 232 254
214 230 253
212 229 252
214 231 254
215 232 254
209 226 249
213 230 253
212 230 253
212 229 253
211 229 252
203 221 245
206 224 247
198 215 236
160 176 198
105 108 130
79 40 70
100 51 91
112 57 104
110 57 104
117 61 113
125 104 140
130 149 175
86 100 116
60 71 80
58 68 77
99 115 133
105 121 141
103 118 138
115 100 130
111 43 93
115 45 99
120 48 101
118 48 100
121 92 128
70 70 76
40 37 10
43 41 11
45 43 11
68 74 73
118 135 155
119 146 160
98 139 128
86 145 107
82 144 107
75 134 100
79 140 104
89 154 113
89 153 113
72 124 96
66 117 91
66 117 90
68 120 93
66 117 92
78 113 100
108 105 116
111 133 98
114 146 92
117 155 88
117 153 87
115 153 87
119 153 96
119 137 116
124 147 155
80 76 92
82 67 78
150 21 64
149 21 64
146 21 63
148 21 62
148 31 68
164 111 134
156 116 136
165 175 202
153 171 194
126 117 164
129 52 155
132 10 151
131 10 150
131 10 150
129 10 146
129 10 146
130 48 149
119 91 143
117 132 156
93 111 123
85 102 111
86 103 114
103 120 137
119 137 159
123 142 164
126 146 171
126 136 147
124 131 140
119 120 136
120 137 148
113 131 143
93 111 111
86 103 106
90 106 112
112 129 153
115 133 158
103 124 135
69 130 165
35 132 199
15 133 207
15 133 208
16 135 210
43 130 189
98 138 169
128 148 172
96 112 123
58 73 63
52 64 47
94 108 120
110 133 139
117 148 149
108 139 143
112 141 144
101 126 130
125 120 153
107 113 152
114 108 138
116 110 146
92 87 121
110 108 145
128 147 172
117 132 153
52 22 32
50 21 31
51 21 32
51 21 31
52 22 32
76 74 88
133 154 180
108 125 153
11 27 83
13 32 98
13 33 101
14 35 106
101 121 152
127 149 175
128 149 176
130 150 176
139 147 146
161 141 8
166 146 8
169 150 8
164 146 8
154 138 30
60 93 66
50 78 52
96 119 126
118 140 159
126 147 171
126 147 172
133 131 169
132 103 161
128 102 161
130 104 165
139 126 174
176 193 214
154 167 182
167 175 185
210 227 252
209 226 250
211 229 253
212 229 253
213 230 254
214 230 254
212 229 252
214 231 254
214 230 253
214 230 253
213 230 252
214 231 254
212 229 252
211 228 251
214 230 253
216 232 254
216 232 255
215 230 252
215 230 251
215 231 254
215 231 253
213 229 251
216 232 255
215 232 254
212 230 251
214 231 253
214 231 253
215 232 254
213 231 253
215 231 254
215 232 254
214 231 254
215 232 254
214 230 253
211 228 251
213 230 252
215 231 254
215 232 255
213 230 253
213 230 253
212 229 252
209 226 250
212 229 253
212 229 253
212 230 254
208 226 250
208 226 250
204 221 245
202 219 242
166 182 204
128 147 172
119 129 153
77 40 72
91 47 86
97 50 92
95 50 92
105 64 105
117 125 149
128 147 172
129 148 174
101 117 134
57 69 65
40 50 27
42 54 29
41 53 29
42 54 30
59 58 54
85 66 88
98 82 108
102 100 124
104 114 135
102 115 135
93 105 122
90 103 118
105 121 141
120 138 161
119 143 158
77 128 96
47 94 72
36 87 68
26 80 64
26 82 66
26 82 66
27 82 66
43 98 76
71 128 95
54 97 74
55 98 75
52 93 70
61 100 75
102 135 77
102 135 75
111 146 81
107 142 78
109 144 81
116 150 84
112 146 83
114 150 85
117 152 86
115 150 86
72 78 62
67 55 66
143 20 60
141 20 59
137 19 58
140 20 59
137 19 58
137 18 56
134 18 55
131 62 86
132 114 160
130 10 145
128 10 144
130 10 144
125 9 141
127 9 142
127 9 142
126 9 141
124 9 137
124 9 136
123 32 136
113 114 146
115 133 155
127 146 171
128 148 174
129 149 175
128 148 175
129 149 175
122 142 166
103 121 134
97 112 123
95 112 121
92 109 118
92 109 117
92 108 116
103 121 136
123 143 168
126 146 170
68 133 188
15 130 198
15 127 195
15 126 194
15 127 194
14 122 186
15 126 193
28 121 168
60 118 109
53 112 60
54 114 61
54 113 60
69 118 85
98 131 128
119 144 159
101 128 128
88 115 109
87 110 107
103 117 133
106 103 141
106 102 140
105 101 139
97 92 128
111 117 149
131 151 177
129 149 175
52 37 47
47 20 29
43 21 29
48 31 40
44 19 27
68 68 82
128 148 174
119 141 166
80 95 122
24 35 80
9 23 72
51 63 96
107 124 150
119 138 164
127 147 173
128 149 175
138 148 152
159 138 8
148 132 7
144 136 76
109 125 117
99 123 130
93 124 141
112 136 155
128 149 172
129 149 174
130 151 176
131 151 177
129 141 170
109 88 139
113 91 144
118 95 150
114 100 149
176 195 221
162 175 191
162 173 185
206 224 247
211 229 254
209 227 252
210 228 252
211 229 253
211 228 252
209 226 249
210 227 251
210 227 250
212 229 252
211 227 251
214 230 253
213 230 253
213 230 253
212 229 252
212 228 250
214 231 253
213 229 252
212 228 250
212 228 250
211 227 249
215 231 254
216 232 255
216 232 255
213 231 253
214 231 253
214 231 253
214 232 254
215 232 255
214 231 254
213 230 253
214 230 253
214 231 254
213 230 253
212 229 252
215 231 254
215 232 255
212 229 252
214 231 254
212 229 253
213 230 254
211 228 252
212 229 254
212 230 254
211 229 253
209 227 252
206 224 249
204 222 246
194 212 234
123 135 154
112 123 142
108 117 136
68 62 78
60 40 61
60 41 61
95 89 115
120 134 159
130 150 176
129 147 172
86 100 112
37 46 25
39 49 26
39 50 27
41 52 28
40 51 27
41 52 28
41 53 29
63 75 72
130 149 175
130 148 175
130 149 175
131 150 176
131 149 175
130 149 175
131 150 176
130 150 176
95 123 130
25 68 53
24 71 55
24 73 57
26 77 61
25 76 60
26 80 63
27 81 64
26 81 64
26 79 63
33 77 61
45 81 63
72 100 98
94 120 92
89 119 65
91 122 66
94 126 69
97 127 70
100 131 72
95 125 69
103 135 76
104 134 75
102 133 75
104 133 75
91 106 101
56 48 57
137 19 57
131 18 54
131 18 55
124 17 51
124 17 51
116 16 48
130 102 125
131 154 182
139 185 226
139 202 245
138 208 249
141 208 247
140 203 245
140 182 225
137 162 207
124 112 167
117 9 129
112 8 127
116 9 129
113 69 134
131 152 178
132 152 179
132 153 180
131 152 178
131 152 179
133 153 179
131 152 178
128 147 173
115 132 151
90 104 115
77 89 97
68 78 85
93 107 120
105 123 140
117 135 156
119 138 161
40 128 190
14 120 182
14 115 175
14 119 181
13 111 168
14 115 174
33 111 139
53 111 62
54 112 59
52 109 58
51 107 57
53 111 59
53 110 58
52 109 57
74 116 92
106 125 139
107 127 144
109 127 145
120 136 160
114 127 152
91 93 118
74 70 93
77 78 101
113 121 148
121 135 162
129 146 172
87 113 132
60 103 119
61 108 125
61 109 125
60 102 116
88 111 131
114 132 156
110 127 151
99 114 138
93 107 130
99 114 137
109 126 151
129 148 173
129 149 175
130 149 174
129 150 175
132 152 178
128 128 107
119 113 66
87 118 133
84 117 134
84 116 133
85 117 135
86 119 136
113 137 159
131 150 176
132 151 175
129 148 174
123 138 164
100 104 132
79 68 106
78 65 102
97 104 129
136 152 177
193 213 239
176 189 205
204 222 247
209 228 254
210 229 254
210 229 254
211 229 254
211 228 253
212 229 254
213 230 254
211 228 252
213 230 254
213 230 254
212 229 252
213 230 253
212 228 251
212 229 252
211 227 251
212 229 252
212 229 251
212 228 251
210 226 249
211 227 250
214 230 253
210 227 250
213 229 252
209 227 249
213 230 252
211 230 252
211 229 252
211 228 252
213 230 253
209 226 249
212 229 252
213 230 253
211 228 252
213 230 254
212 230 254
211 228 252
213 230 254
211 228 252
213 231 255
210 228 252
212 230 254
210 228 253
208 226 251
208 226 251
208 227 252
204 225 250
194 213 237
127 140 158
120 132 151
126 141 161
121 137 157
126 142 163
122 138 158
114 127 149
117 130 151
121 137 160
123 139 163
122 138 161
35 44 28
36 46 25
36 46 24
38 48 25
39 49 26
39 48 26
40 50 27
41 52 28
39 50 27
124 143 167
131 151 178
128 149 173
132 152 177
128 148 172
130 150 175
131 151 178
130 150 176
46 76 73
19 57 45
22 66 52
23 69 54
23 69 54
24 72 57
25 75 59
24 73 58
24 71 56
24 72 56
38 82 71
110 130 149
119 140 162
99 121 115
79 106 58
74 100 55
79 108 59
90 119 67
92 121 67
91 118 67
86 110 62
84 108 61
86 109 62
85 106 61
92 112 97
90 109 94
112 15 46
112 15 47
115 16 49
111 15 47
110 69 88
139 186 215
145 215 253
140 212 254
137 210 254
135 209 254
135 209 254
136 209 254
138 211 254
142 213 254
145 216 254
152 220 254
141 192 223
106 66 131
91 7 104
105 74 128
131 151 177
131 152 178
130 151 178
131 151 176
129 149 175
128 148 173
127 146 171
124 143 165
119 136 157
115 132 152
121 139 161
127 147 172
126 145 170
129 149 174
128 149 173
129 149 174
85 126 165
13 113 169
12 102 155
13 107 161
12 102 155
11 95 143
46 102 70
49 100 52
51 105 55
50 103 54
48 99 51
49 102 53
51 105 55
50 104 54
45 93 49
96 125 127
130 149 176
128 146 172
127 146 173
126 144 169
128 148 174
130 150 177
129 148 175
128 147 173
128 147 173
94 124 143
59 103 118
61 106 121
61 107 121
61 107 122
61 106 121
60 106 120
84 109 126
122 141 165
127 147 172
127 147 173
130 150 177
132 151 177
132 153 179
133 153 178
132 151 175
129 147 169
129 145 164
121 133 147
88 110 120
82 114 129
83 114 128
79 110 126
83 115 131
79 109 126
85 112 127
131 151 176
128 146 172
129 147 173
126 145 171
118 133 158
117 131 158
122 139 165
117 133 170
114 132 173
160 178 217
202 223 252
203 223 250
208 228 255
206 226 252
209 228 254
209 228 254
211 229 254
209 227 252
209 227 252
211 229 254
210 228 251
210 227 251
210 228 252
211 229 252
213 231 254
211 228 252
211 229 252
210 228 251
214 231 254
211 228 251
210 228 251
212 229 253
212 229 253
214 231 254
212 229 252
207 224 247
212 229 252
214 231 255
213 230 254
211 228 252
213 231 254
213 230 254
210 228 252
212 229 253
210 228 252
212 229 253
212 229 254
211 229 253
208 226 250
210 228 253
211 229 254
209 227 252
210 229 254
207 226 251
207 226 251
206 225 250
205 225 251
195 216 241
141 157 179
122 138 158
123 139 159
123 139 160
123 138 159
126 142 163
122 139 160
123 140 163
126 144 166
123 140 163
129 147 171
128 147 170
42 50 44
29 38 20
33 42 23
31 39 21
31 40 21
34 43 23
35 44 24
34 43 23
75 87 96
132 152 177
125 139 163
120 124 145
119 117 136
119 123 143
119 126 146
120 137 158
114 135 154
34 64 59
18 55 44
18 54 43
21 64 51
22 65 52
21 64 51
21 64 50
21 65 51
21 62 48
21 65 50
73 98 103
124 144 167
111 130 146
111 130 148
94 115 112
70 92 67
67 92 50
74 98 55
73 92 51
77 96 53
77 96 53
81 101 57
81 102 57
80 100 56
80 101 57
81 102 58
101 14 43
93 13 38
103 14 44
96 17 42
140 191 217
151 219 254
146 216 254
144 214 254
143 214 254
142 213 254
143 214 254
143 214 254
145 215 253
146 214 249
149 217 251
144 211 246
135 196 226
118 168 193
90 83 120
121 133 161
125 142 168
129 147 173
127 144 171
127 145 172
129 148 175
130 150 176
130 150 176
131 151 176
132 152 179
131 151 178
133 153 179
133 153 179
132 152 178
132 152 178
131 151 177
130 151 177
130 152 179
73 118 162
11 95 144
11 95 147
10 91 139
9 84 129
43 97 81
44 91 48
44 89 46
45 91 47
42 86 45
43 89 46
43 89 47
44 91 48
45 92 48
94 121 124
132 152 178
131 152 178
130 151 177
131 152 178
131 151 178
132 152 178
131 151 177
128 147 173
117 137 160
58 101 114
59 100 113
61 105 118
57 99 112
57 99 111
58 101 115
56 98 110
54 95 107
118 141 164
132 153 179
133 153 180
132 152 177
132 152 179
132 151 176
131 151 176
132 152 179
130 149 173
128 146 168
127 145 167
78 104 116
71 97 107
76 106 116
76 104 119
77 105 120
73 100 116
74 102 117
129 150 176
132 151 178
134 154 181
132 152 179
133 153 180
131 152 179
92 108 172
21 35 158
10 28 157
51 61 160
182 202 237
202 224 252
205 225 253
206 226 253
209 228 255
208 227 253
208 227 252
208 226 252
209 227 253
209 227 252
210 229 254
211 229 254
211 229 254
212 230 254
211 228 252
211 228 252
213 230 254
210 227 251
212 230 254
210 227 251
211 229 253
209 227 250
211 229 253
213 230 254
213 231 254
209 227 251
207 225 248
210 228 252
210 227 251
210 228 252
211 229 253
212 230 254
210 228 252
211 229 254
207 226 251
210 228 253
210 228 253
206 225 251
211 229 254
211 229 254
209 227 252
207 226 251
206 225 251
203 222 248
202 222 248
202 224 250
195 217 243
157 176 200
128 147 171
128 145 168
129 146 169
127 145 169
128 146 169
126 144 167
129 148 172
125 143 166
122 139 161
119 137 160
112 128 147
109 125 144
98 112 129
45 54 55
26 33 18
27 35 19
35 42 28
79 88 80
86 95 88
114 127 126
130 136 149
108 75 82
98 27 21
100 27 21
99 27 21
99 27 22
99 27 22
99 31 28
104 64 73
105 75 77
139 75 58
140 75 58
148 79 61
147 78 61
141 78 61
121 74 58
105 69 54
48 57 45
87 109 120
122 143 165
124 145 167
127 147 170
117 137 156
105 123 139
102 119 132
63 77 54
70 86 48
69 84 46
71 88 49
74 91 51
75 92 51
77 94 52
78 97 54
81 99 56
79 98 55
117 116 138
107 101 121
96 80 97
82 65 80
127 191 207
149 210 247
143 200 250
144 201 250
144 209 239
125 177 196
128 183 207
135 191 219
130 190 216
114 167 190
109 163 188
82 137 174
86 135 167
100 151 178
93 121 146
104 112 137
116 127 154
114 130 149
110 130 140
114 134 148
110 131 139
111 132 139
122 143 159
131 152 178
134 154 181
131 151 177
132 153 180
132 153 179
132 152 178
132 152 179
130 151 177
130 151 178
128 150 176
125 146 173
104 131 163
60 92 129
34 76 114
16 57 92
34 75 71
41 84 43
39 82 42
38 80 41
40 83 43
41 84 44
41 85 44
41 86 45
36 76 40
106 130 144
130 151 176
131 151 176
129 150 176
128 148 174
130 150 176
129 150 176
131 152 178
131 151 177
114 136 158
55 92 103
53 90 100
54 88 98
53 90 100
53 92 104
52 92 101
51 90 101
49 87 98
108 132 153
131 152 179
118 152 162
95 151 136
82 151 124
78 151 119
93 152 132
117 152 160
133 153 180
133 153 179
131 151 176
83 106 120
67 94 105
69 96 106
69 95 108
69 95 109
64 89 105
70 95 110
128 147 173
132 152 178
131 151 177
129 150 176
132 152 177
95 111 167
10 27 153
10 27 155
10 26 146
10 26 150
80 92 165
192 214 247
202 223 252
205 226 254
208 228 255
206 225 252
209 228 254
208 228 254
206 225 250
209 228 254
211 229 255
207 225 250
209 227 252
210 228 253
209 227 252
209 227 251
209 227 252
212 230 254
212 229 254
212 230 254
211 229 253
209 227 252
210 228 252
209 227 252
209 227 252
212 230 254
212 230 254
209 227 252
206 224 248
209 227 251
211 229 254
210 228 253
207 225 250
208 227 253
203 223 250
206 226 253
207 227 253
205 226 253
208 227 252
207 226 252
207 226 252
205 225 251
208 228 254
205 225 252
204 225 251
194 214 240
151 161 179
129 148 173
131 150 175
129 148 172
128 146 170
130 150 176
131 149 173
130 149 173
132 150 175
127 146 171
124 142 166
127 145 169
120 138 160
114 131 152
97 110 126
73 82 92
56 60 58
117 127 123
168 187 184
178 201 203
176 202 206
177 205 210
179 206 212
180 205 207
168 184 185
146 145 143
106 59 55
100 27 21
98 27 21
97 27 21
99 27 21
99 27 21
116 47 36
139 70 54
146 74 57
151 79 60
155 79 60
154 80 61
152 79 60
152 82 66
142 115 122
130 148 172
127 148 171
129 150 175
128 148 174
129 150 175
110 129 145
61 75 42
66 81 45
71 86 48
70 86 47
72 89 50
72 89 50
73 89 49
73 90 50
76 93 52
74 93 52
124 145 188
104 107 128
109 118 139
115 127 149
104 148 166
109 164 186
106 150 200
109 149 203
101 144 174
90 143 155
88 132 152
92 138 167
93 142 169
94 144 173
95 145 174
95 146 175
96 147 177
94 144 172
102 129 144
89 113 94
72 100 45
68 96 26
68 96 26
68 97 26
69 98 27
68 97 26
68 97 26
73 100 47
97 121 108
119 141 155
129 150 177
131 151 177
130 151 177
130 152 179
125 147 175
124 145 172
116 138 165
115 136 163
100 123 150
93 115 141
106 125 149
115 135 159
117 137 163
102 126 139
49 82 60
35 73 39
36 75 40
33 70 37
35 74 39
37 70 43
63 85 83
104 124 142
112 131 151
112 132 152
123 143 168
125 145 169
128 149 174
131 152 178
132 152 177
130 151 177
127 149 174
49 82 92
50 82 92
48 81 90
48 82 92
50 86 97
48 86 96
47 82 91
44 78 90
109 134 152
89 150 129
69 145 106
69 147 108
71 150 111
70 149 110
72 152 111
73 153 112
96 142 136
131 153 178
132 152 178
116 136 159
64 88 100
60 84 95
62 87 97
60 84 97
58 82 95
93 112 131
120 140 165
124 145 170
128 148 174
129 150 175
131 150 176
26 37 147
9 25 138
10 26 149
10 25 142
9 25 140
9 25 139
117 132 188
198 220 252
200 221 251
202 223 252
204 224 252
204 224 251
204 224 250
207 227 254
207 226 252
209 228 254
207 225 251
209 228 253
209 227 252
210 228 253
209 228 253
210 229 254
209 227 252
209 227 252
208 226 250
211 229 254
209 228 252
209 227 252
210 228 252
208 226 250
210 228 253
207 225 250
210 229 254
210 228 254
210 229 254
210 228 254
209 228 253
208 227 252
208 227 253
207 227 254
208 228 254
205 226 253
208 228 255
205 225 252
206 226 252
207 227 254
206 226 254
202 223 250
202 223 250
196 216 244
143 142 147
119 115 116
129 148 172
131 150 174
130 148 172
128 148 173
130 150 175
130 149 175
132 152 178
130 150 175
130 150 176
131 150 176
132 151 176
128 148 173
132 152 178
128 147 172
122 137 148
162 175 169
182 203 201
183 208 211
178 206 212
174 204 212
172 203 212
172 203 212
174 204 212
176 205 212
183 209 212
178 193 191
122 96 92
99 27 21
96 26 20
97 27 21
96 26 20
98 27 21
113 48 37
146 74 56
147 76 57
149 77 59
152 79 60
151 78 60
151 78 60
154 80 61
147 96 94
123 140 163
127 148 173
129 150 175
130 151 177
110 127 142
59 74 42
60 75 41
63 78 44
65 80 44
68 84 46
68 83 47
64 80 45
65 82 46
68 84 47
70 88 50
126 151 201
115 136 179
130 147 175
130 148 174
126 147 174
101 139 166
89 133 164
82 120 153
76 108 140
87 131 163
89 135 166
91 142 173
90 141 170
91 143 173
88 139 168
84 136 164
84 133 154
72 106 82
69 97 26
65 92 25
64 90 24
68 96 26
66 93 25
68 96 26
66 93 25
68 94 25
67 95 25
67 94 25
68 95 25
67 94 25
83 106 80
127 149 174
127 149 177
126 147 173
130 151 177
126 147 173
127 147 173
127 147 174
127 148 174
131 151 177
130 151 177
124 145 170
121 143 167
120 140 164
109 129 148
73 92 96
32 53 39
33 50 41
38 56 49
63 78 84
92 109 122
104 123 141
117 137 159
127 147 173
125 146 169
130 151 177
132 153 179
133 153 180
132 152 178
131 152 178
129 150 176
96 121 139
43 72 81
44 74 82
45 76 88
46 80 90
41 74 83
40 71 81
61 86 98
99 142 138
69 142 104
67 139 102
71 147 107
70 146 106
72 149 108
73 152 110
71 149 109
69 145 106
94 137 131
127 147 172
112 131 154
94 111 129
48 63 73
47 66 77
46 64 75
51 64 73
87 102 119
117 136 158
119 138 163
130 150 175
128 148 173
124 142 171
9 24 131
9 24 138
10 25 144
10 25 142
10 25 142
10 25 143
9 25 139
113 128 185
195 218 249
199 221 251
201 223 252
205 226 254
204 225 253
205 226 253
207 227 254
206 226 253
207 227 254
208 227 254
205 224 250
209 228 254
208 227 253
207 225 251
207 225 251
209 228 253
209 228 254
208 227 252
209 227 253
209 228 253
208 227 252
210 228 254
208 227 252
209 227 252
207 226 251
208 227 252
207 226 251
203 223 247
209 228 253
206 226 251
209 228 254
210 229 255
207 227 255
208 228 255
205 225 253
204 224 252
204 224 251
203 223 251
203 224 252
199 220 249
185 202 228
125 120 121
101 82 62
125 133 148
132 152 178
131 151 177
131 151 177
131 151 177
131 151 176
131 152 178
131 151 177
131 150 176
131 150 176
130 149 174
132 152 177
132 152 177
131 150 176
126 144 163
134 146 144
177 193 188
185 204 201
187 210 210
185 210 211
181 207 211
178 206 212
177 206 212
178 206 212
180 207 212
183 209 212
188 211 211
178 194 192
98 58 55
92 25 19
92 25 20
89 24 19
87 24 19
94 31 23
126 62 47
133 67 51
138 71 54
137 71 54
144 74 57
140 83 75
144 123 137
149 140 162
143 164 198
146 173 211
141 168 207
142 170 211
140 167 206
132 158 192
122 144 170
109 130 147
88 103 107
59 73 41
61 75 42
62 77 43
59 75 43
63 79 45
62 77 44
116 125 168
80 107 146
128 146 174
132 151 178
131 151 177
132 151 178
121 149 176
101 139 167
91 136 167
78 122 152
81 127 155
73 120 145
66 113 137
63 106 128
65 108 130
59 98 111
65 92 37
66 93 25
63 88 23
66 92 24
66 91 24
64 88 24
63 86 23
66 92 25
66 91 24
64 89 24
66 90 24
65 91 24
63 89 24
66 92 25
63 88 23
90 111 101
131 152 179
130 150 175
128 150 176
132 152 178
132 152 179
131 151 177
129 149 174
130 151 177
126 146 170
117 138 159
119 139 161
113 133 153
102 120 137
106 125 142
102 120 137
101 119 136
118 138 159
118 138 161
122 142 166
128 149 173
130 151 177
130 150 176
133 153 179
132 152 178
129 148 174
131 152 178
133 153 178
131 152 178
127 148 173
125 144 169
89 110 129
54 79 90
39 68 77
41 73 83
34 61 70
41 59 67
78 96 107
65 129 93
66 137 100
67 139 101
69 140 102
69 142 104
70 145 105
68 141 102
70 144 104
66 138 101
69 134 103
117 136 160
109 127 149
97 113 131
82 96 112
73 86 101
91 107 124
99 115 134
114 132 155
121 140 163
126 145 170
129 149 174
130 150 175
128 148 175
8 20 114
8 22 122
9 22 127
9 22 126
8 22 124
9 24 135
9 23 133
16 27 127
156 177 205
193 217 248
197 220 250
199 221 250
201 222 250
203 224 252
204 225 254
204 225 253
204 224 251
205 225 252
204 223 250
208 228 255
209 228 254
207 226 252
206 225 251
207 226 252
206 226 252
206 226 252
208 228 254
208 227 253
209 228 254
207 226 252
206 225 250
208 227 252
208 227 253
202 222 246
202 223 247
201 222 247
207 227 253
207 227 253
206 226 252
203 224 250
206 226 253
203 225 253
202 223 252
202 223 250
203 224 253
200 222 250
197 219 248
165 188 206
96 89 83
86 73 56
107 100 99
131 150 175
131 151 176
132 152 178
133 153 179
132 152 178
133 153 178
129 148 173
131 151 177
131 152 178
131 152 178
128 148 173
126 149 174
113 148 169
102 148 163
93 135 143
108 149 153
123 152 151
146 172 171
175 196 193
174 197 194
178 200 198
183 205 204
188 211 211
188 212 211
188 211 211
190 212 212
189 210 209
179 199 199
107 91 89
80 22 17
81 22 17
82 22 17
77 21 17
81 29 22
109 54 41
116 59 45
115 59 46
115 67 62
120 107 120
137 156 186
140 165 202
142 171 213
141 171 215
138 170 215
137 169 215
135 168 215
135 168 215
136 169 215
138 169 215
141 171 215
145 173 214
138 163 197
113 133 153
58 72 56
56 70 39
57 71 40
54 70 40
119 124 167
97 110 146
129 148 176
131 151 178
132 152 179
131 151 178
129 151 177
128 152 178
116 139 164
113 139 163
86 112 132
71 97 115
59 84 98
68 93 111
80 105 124
69 95 73
63 87 23
62 85 23
63 87 23
62 84 22
61 84 22
63 87 23
60 83 22
62 84 22
64 87 23
62 84 22
65 89 24
62 86 23
61 85 22
60 84 22
55 76 20
57 81 21
116 137 152
131 152 177
132 152 179
131 152 178
132 152 178
131 151 177
130 150 176
129 149 174
126 145 169
121 142 164
127 148 172
126 147 172
126 146 171
128 148 173
131 151 177
130 150 176
128 149 173
132 152 178
130 150 176
132 153 179
132 153 179
130 150 176
132 152 179
131 151 177
131 151 177
131 152 178
128 149 175
122 142 166
111 130 152
113 132 153
92 109 127
74 88 102
61 73 85
49 60 70
71 84 97
90 107 124
93 121 128
63 123 88
61 123 89
63 127 92
65 134 97
65 133 96
67 137 99
67 138 100
66 138 99
67 139 100
56 118 88
122 143 166
120 141 165
122 142 167
124 143 168
123 143 168
124 144 169
123 142 167
128 148 173
132 152 178
129 148 173
130 150 175
129 149 175
127 146 171
67 79 132
8 22 123
8 21 120
8 21 122
8 20 116
8 22 125
8 21 119
59 68 125
116 132 153
139 158 183
189 213 246
200 224 255
197 220 250
200 222 252
202 223 253
204 226 255
202 224 252
201 222 250
203 224 252
204 224 252
207 227 255
205 226 253
207 227 254
206 225 252
207 227 254
206 226 252
207 227 254
206 226 253
208 227 254
206 226 252
202 222 248
201 221 246
209 228 255
203 224 250
205 225 252
203 224 251
205 225 252
202 223 250
201 223 250
206 227 254
203 224 253
202 223 252
203 224 253
200 222 252
200 223 253
179 205 228
112 158 150
23 118 62
65 94 65
95 101 111
124 141 164
128 148 172
126 145 169
130 149 175
130 150 175
132 152 178
131 150 175
132 151 176
131 150 175
130 150 176
122 150 171
94 147 158
75 146 152
73 146 151
75 148 154
74 147 154
73 146 154
73 147 154
74 148 156
76 148 156
97 154 156
123 158 155
152 172 168
165 180 179
172 188 186
177 192 192
173 195 191
163 185 182
150 172 176
98 96 98
77 21 16
69 19 15
64 17 14
58 17 13
89 42 32
104 53 41
94 48 38
80 38 30
85 73 82
119 130 152
142 166 201
146 174 214
144 173 215
141 171 215
139 170 215
137 169 215
135 168 215
135 168 215
135 168 215
135 168 215
137 169 215
139 170 215
142 172 215
146 174 215
137 159 193
88 103 117
74 87 87
87 102 110
66 59 80
95 102 128
128 149 175
124 145 172
125 147 174
121 144 170
116 140 167
111 133 160
109 131 157
110 134 160
107 132 156
119 141 166
123 146 171
125 148 174
129 151 178
78 99 81
61 84 22
60 82 21
58 79 21
61 83 22
56 76 20
57 77 20
58 79 21
60 81 21
64 88 23
59 82 21
61 83 22
55 76 20
59 81 21
56 78 21
52 73 19
54 76 20
112 131 145
130 150 176
130 150 175
133 153 180
129 149 175
128 148 173
133 142 166
138 112 131
140 87 101
145 75 89
146 69 81
148 72 85
145 81 94
143 105 124
138 132 155
132 150 176
129 150 175
132 153 180
132 152 179
131 151 177
131 152 179
132 152 178
131 152 178
130 151 177
129 150 176
130 150 176
125 144 169
124 144 169
117 137 160
115 134 157
119 138 162
114 133 156
113 132 154
109 128 150
120 139 163
122 142 167
117 139 159
58 114 81
63 127 91
61 121 87
61 125 90
62 127 92
63 128 93
63 130 94
62 128 93
56 118 86
65 117 96
126 147 171
125 146 170
126 147 171
126 147 172
128 149 174
130 151 176
131 151 176
127 147 173
129 149 175
132 152 177
127 147 173
128 147 173
115 132 160
106 123 152
28 36 112
7 20 114
8 20 117
7 20 111
7 19 108
25 32 108
100 113 137
97 109 131
99 113 133
125 141 166
181 205 237
196 221 254
197 221 253
198 221 252
199 222 252
200 222 252
200 221 250
203 224 253
202 223 251
205 226 255
204 226 254
205 225 254
201 221 249
203 224 252
206 226 254
205 225 253
206 226 254
200 220 247
201 221 248
204 224 252
205 226 253
200 221 247
203 224 251
202 223 251
203 225 252
202 223 251
201 223 251
202 224 252
200 223 251
200 223 251
199 222 252
196 219 248
189 214 242
148 180 193
63 126 95
22 113 59
22 115 60
33 117 66
101 115 127
118 133 153
117 133 153
129 147 171
130 150 175
129 148 173
128 147 172
132 153 179
128 147 171
130 150 175
100 140 154
72 140 144
72 143 146
70 139 143
71 141 145
72 142 147
72 143 148
74 148 155
74 147 153
74 147 154
74 148 155
74 147 154
74 147 155
91 144 150
129 147 150
136 151 155
138 154 159
130 149 151
132 153 155
107 124 129
79 59 57
62 17 13
54 15 11
61 21 16
79 38 29
88 45 34
81 41 32
62 31 27
60 38 45
89 94 113
126 145 168
138 165 189
144 171 203
147 174 212
146 174 214
144 173 214
142 172 215
141 172 215
139 171 215
139 170 215
140 171 215
140 171 215
141 171 215
143 173 215
145 174 215
149 176 215
146 170 207
100 116 138
90 104 116
37 7 19
36 7 18
59 58 69
105 121 148
122 140 169
117 136 162
114 135 161
128 147 175
128 148 174
131 151 178
128 150 176
132 151 178
131 151 177
132 152 179
133 153 180
92 111 110
54 72 19
57 79 21
57 77 20
55 75 19
55 74 19
57 77 20
57 77 20
55 75 20
51 69 18
54 74 20
53 74 19
54 75 20
52 73 19
54 75 20
49 69 18
56 76 47
126 146 170
128 148 173
127 147 173
131 151 176
133 125 146
139 74 86
147 29 35
145 24 29
147 25 30
148 25 30
147 25 30
151 25 30
151 25 30
152 25 30
148 25 29
147 53 62
136 122 143
132 153 178
132 151 177
130 151 177
130 150 176
130 150 176
129 149 174
129 149 175
131 152 178
127 146 171
129 150 175
126 146 171
125 145 170
126 146 172
128 148 173
129 149 174
129 150 175
129 150 177
131 152 179
129 150 176
127 147 171
66 103 87
54 107 77
58 118 84
57 117 85
58 119 86
57 117 85
58 121 88
57 118 86
54 114 83
80 116 113
121 143 165
122 143 166
123 144 167
128 149 173
128 149 173
131 150 175
130 150 175
134 153 179
128 147 173
127 145 170
123 142 169
119 137 164
109 126 152
100 115 143
71 82 110
22 26 80
5 15 87
5 14 85
27 33 77
47 54 77
68 78 101
75 82 107
87 97 122
84 93 112
100 114 133
151 172 201
193 220 254
191 216 248
195 218 250
197 220 252
198 221 252
202 225 255
199 221 251
203 225 255
202 224 254
202 223 253
202 224 252
202 224 252
201 222 251
197 219 246
200 222 250
201 222 251
202 224 252
204 226 255
203 224 253
199 221 248
204 226 254
201 224 252
200 223 251
202 225 254
201 224 253
200 223 253
198 221 251
194 217 248
195 219 250
159 187 206
83 128 115
20 105 55
19 104 55
22 113 59
21 111 58
21 111 59
87 117 116
120 138 160
123 140 162
127 145 169
127 145 169
129 148 173
128 148 172
129 148 173
131 151 176
111 142 160
62 127 127
63 127 127
64 128 130
66 133 135
66 132 136
71 140 145
69 138 142
72 143 150
72 143 148
73 144 151
74 147 154
74 148 154
73 145 152
74 147 154
82 147 153
119 141 146
118 138 142
116 136 141
102 120 125
72 75 76
48 14 12
44 19 20
41 16 13
68 34 26
70 35 27
74 37 29
73 37 29
51 35 40
69 74 92
78 89 107
90 107 118
113 136 150
132 157 182
140 165 198
135 161 192
139 163 197
143 167 203
144 169 206
148 176 215
146 174 215
146 174 215
147 175 215
146 174 215
147 174 215
148 176 215
151 177 215
150 176 212
123 154 189
123 143 168
32 6 16
32 6 16
32 6 16
51 47 59
122 140 166
129 148 175
130 150 177
130 150 176
131 151 178
131 152 179
131 152 179
133 153 179
130 150 177
132 152 179
132 152 179
126 146 169
61 81 44
56 77 20
48 67 18
52 71 19
54 73 19
55 75 20
52 71 19
54 75 20
52 71 19
52 72 19
50 70 18
51 71 19
48 67 18
48 68 18
49 69 31
92 109 119
113 131 151
111 129 148
114 122 140
131 94 109
142 24 29
142 23 28
145 24 29
145 24 29
145 24 29
143 24 28
148 25 30
148 24 29
149 25 29
151 25 30
150 25 29
150 25 29
150 25 29
134 96 112
133 153 180
132 153 179
132 153 179
131 151 177
131 151 176
132 152 178
130 150 176
131 151 177
131 151 177
131 151 177
133 153 180
130 151 177
130 150 176
129 149 174
131 151 177
132 151 177
130 151 177
128 149 174
129 150 176
107 133 145
58 107 84
50 101 73
52 107 79
54 111 82
53 110 81
54 113 82
50 107 77
57 103 84
98 119 131
107 127 145
109 131 149
125 146 169
125 146 169
126 147 171
129 149 174
129 148 173
131 150 176
128 148 174
132 151 176
119 136 164
121 139 166
114 131 158
95 110 138
90 104 130
72 82 106
68 76 97
59 68 89
71 80 102
71 78 103
91 102 125
83 91 114
83 95 122
91 103 125
100 112 133
93 105 125
103 117 137
158 181 211
188 214 248
192 218 251
197 222 255
197 221 253
196 220 251
198 222 253
200 224 255
196 218 248
198 221 251
199 221 252
199 222 252
202 225 255
200 222 252
199 221 251
198 220 249
202 224 254
194 217 246
200 223 253
200 223 253
196 220 249
197 221 251
197 221 252
195 218 249
194 218 249
184 211 240
165 192 217
106 141 143
14 83 43
15 84 43
17 93 49
18 97 51
19 99 53
19 101 53
21 109 58
99 132 136
125 142 164
130 148 173
127 145 169
129 148 172
131 150 176
126 145 169
128 148 172
130 150 175
80 123 132
55 114 114
59 120 119
66 131 133
63 126 128
64 126 131
67 132 135
69 137 142
70 139 144
70 139 145
72 141 147
73 142 148
74 146 152
72 142 148
73 144 151
74 145 151
90 141 147
116 135 137
102 118 124
84 93 102
53 57 66
57 57 66
56 55 63
42 40 47
37 33 37
43 27 27
54 33 31
58 40 40
48 43 52
76 91 115
78 95 116
77 95 109
89 108 127
96 117 144
83 109 133
88 115 139
101 125 150
107 122 147
129 147 176
143 164 197
145 167 202
151 174 210
148 171 209
147 171 209
145 172 206
143 171 205
152 176 211
143 171 207
112 145 179
124 144 171
31 6 15
30 6 15
27 5 13
27 5 13
101 114 134
132 153 179
131 151 177
130 150 176
131 152 178
133 153 179
131 151 177
133 154 180
131 151 177
132 153 179
130 150 175
130 150 175
125 145 167
88 108 104
51 71 19
48 66 18
48 67 17
49 68 18
48 67 18
48 68 18
45 62 17
48 67 18
47 66 17
43 62 17
44 62 17
43 57 38
68 80 84
85 99 110
96 112 126
106 110 125
134 35 40
140 23 28
137 22 27
141 23 28
141 23 28
145 24 28
146 24 29
142 23 28
147 24 29
147 24 29
146 24 29
150 25 30
147 24 29
147 24 28
140 23 27
138 23 27
130 107 125
131 152 178
131 151 177
132 152 178
131 151 177
130 149 175
132 152 179
133 153 179
131 150 176
133 153 179
130 149 174
131 151 178
130 150 176
132 152 178
131 151 177
131 151 176
128 150 174
125 146 170
125 146 170
119 140 163
103 129 142
66 103 91
45 95 70
46 99 73
48 101 74
43 93 67
40 73 58
67 87 89
91 109 121
112 134 151
110 132 150
122 143 165
131 151 175
127 147 172
127 147 171
131 150 175
131 151 177
129 148 174
129 149 174
130 149 174
125 144 169
121 138 163
114 132 157
107 122 149
107 121 147
102 118 143
98 111 133
107 123 145
103 117 143
103 116 140
93 104 129
97 110 131
99 112 134
95 107 128
94 105 126
73 82 104
83 94 111
104 120 142
151 173 202
182 208 242
191 218 252
192 218 252
193 218 251
194 219 252
193 218 250
194 218 250
197 221 253
198 222 254
198 222 254
195 219 250
199 223 254
195 219 250
197 221 253
195 219 251
192 216 247
196 221 253
191 216 247
195 220 253
147 179 197
99 148 147
47 119 99
25 113 88
25 112 88
25 114 89
24 110 84
20 99 69
17 89 50
16 88 47
18 96 51
20 101 53
19 100 53
112 135 151
130 150 174
132 151 176
128 147 171
129 149 174
132 151 177
128 148 172
131 151 175
128 149 174
62 117 119
53 110 110
52 108 109
54 113 113
57 116 118
62 125 127
65 129 133
65 131 134
68 134 138
68 135 141
72 142 147
71 140 146
69 135 140
74 143 148
73 142 148
72 141 147
73 141 146
106 129 142
119 136 156
114 131 153
106 119 138
111 127 149
99 113 134
95 106 125
94 106 124
88 96 112
85 94 111
77 81 94
81 86 101
70 84 107
82 100 128
84 103 131
90 111 137
92 113 140
94 115 145
93 115 145
91 112 140
93 113 144
99 119 151
113 131 164
106 123 152
117 133 168
114 129 167
103 126 158
107 135 162
99 130 153
120 143 172
115 142 172
91 125 157
131 151 178
31 6 15
26 5 13
27 5 13
22 4 11
86 98 115
131 152 178
129 149 174
131 152 178
132 152 177
132 153 179
130 150 177
129 149 175
131 151 178
132 152 178
129 149 175
128 148 174
128 148 174
124 144 168
117 136 157
81 99 100
56 73 53
48 65 39
40 58 15
42 60 16
39 56 15
37 53 14
29 43 11
16 23 6
42 49 51
59 68 73
81 94 105
94 109 122
118 135 157
130 51 59
134 22 26
130 21 25
133 22 26
132 21 25
138 23 27
143 23 27
140 23 26
141 23 27
146 24 28
143 23 27
148 77 85
149 83 89
149 67 69
138 46 47
141 23 27
135 22 26
125 30 35
132 153 179
133 153 180
131 151 177
131 151 177
131 151 177
132 152 178
131 151 177
131 150 176
130 151 177
130 150 175
130 149 175
130 150 177
130 150 176
128 146 171
128 147 172
124 144 167
119 142 163
123 145 168
106 127 143
90 112 124
83 102 111
57 74 76
41 65 58
29 49 40
51 66 68
66 84 88
86 109 117
106 127 144
121 142 164
121 142 163
122 144 166
125 146 170
133 152 177
131 151 177
130 149 174
131 150 176
130 150 175
130 150 175
128 147 171
127 145 170
127 145 170
127 146 170
114 131 156
120 137 161
116 132 156
114 128 153
110 126 151
113 129 154
102 116 141
114 128 151
111 124 145
103 116 138
102 114 135
100 112 131
101 113 131
88 98 117
87 97 114
81 92 106
77 88 103
117 136 159
150 173 202
175 201 235
187 215 250
187 213 248
191 218 252
192 218 252
193 219 253
194 220 254
193 219 252
191 217 250
193 219 253
193 219 253
187 213 246
190 216 250
189 215 250
165 193 221
75 128 122
23 105 81
25 112 86
25 113 88
25 112 88
26 116 91
26 117 92
26 118 93
26 118 93
26 118 92
21 100 69
17 91 49
18 93 50
50 104 79
128 148 171
127 147 171
125 145 167
127 146 170
128 148 174
129 149 174
125 145 169
124 144 167
128 149 174
59 99 101
39 86 83
47 100 100
52 107 111
52 106 110
58 117 119
58 116 120
60 125 130
60 119 124
63 125 129
67 130 134
69 135 140
69 138 142
67 130 137
70 136 141
72 140 145
69 135 141
102 134 145
115 132 153
115 131 149
120 138 160
117 134 157
117 136 160
118 136 160
104 118 140
107 120 142
99 111 131
96 107 126
94 104 123
87 99 120
72 87 109
77 95 120
85 105 133
88 109 139
91 112 143
90 110 140
92 114 145
94 116 147
95 116 147
95 117 148
95 116 147
93 115 146
92 113 146
82 106 134
81 109 135
95 119 147
100 123 153
92 122 151
106 128 155
132 152 179
26 5 13
25 5 13
25 5 13
24 5 13
124 143 167
128 149 174
127 146 172
126 146 171
126 145 171
125 145 170
121 139 163
122 141 165
121 139 164
125 145 171
126 145 169
116 135 157
119 137 159
117 136 158
116 135 157
112 129 151
96 112 127
88 102 116
65 76 84
54 63 65
44 50 54
57 66 73
68 78 87
91 104 117
88 103 116
102 119 134
118 137 158
126 146 171
124 111 129
125 20 24
124 20 23
115 18 21
131 21 25
130 21 24
139 22 26
139 23 27
160 111 122
181 168 187
199 209 234
202 219 247
204 226 255
204 226 255
206 227 255
207 227 253
198 214 240
178 174 193
139 116 130
128 143 167
132 152 178
132 151 177
132 151 176
130 150 175
130 149 174
132 152 178
130 150 176
130 149 174
129 147 172
129 148 174
132 152 179
131 151 177
130 149 175
128 149 174
127 147 171
123 144 167
117 138 158
114 136 155
107 127 144
89 108 120
88 110 120
94 113 125
95 115 127
102 124 138
104 126 141
116 137 157
118 139 160
123 145 167
125 145 168
128 150 174
129 148 173
129 149 174
132 152 178
130 150 174
130 149 174
130 149 174
130 149 174
130 148 174
128 147 171
127 145 169
129 147 171
125 142 165
122 140 163
120 137 161
127 145 170
122 139 162
118 134 156
109 123 145
113 129 150
111 126 149
112 127 146
108 121 142
109 123 142
97 111 129
100 114 133
86 96 110
99 112 130
91 102 117
86 97 112
77 86 101
77 87 102
89 102 119
112 129 152
124 144 168
133 153 180
144 166 195
163 189 221
142 164 192
138 160 187
148 170 199
129 150 175
115 135 155
92 109 125
63 83 88
30 101 81
24 106 82
24 106 82
25 112 87
26 116 91
25 113 89
26 116 91
26 116 91
26 116 92
26 119 94
26 119 94
26 118 93
28 109 93
56 127 172
71 136 191
64 137 196
65 137 198
71 140 199
85 141 194
90 142 193
111 141 175
118 139 162
116 136 157
117 138 159
90 117 132
42 90 91
46 97 98
45 97 100
50 105 108
52 106 109
52 106 110
60 120 125
60 119 126
63 126 131
63 122 128
64 126 130
67 131 136
66 128 133
68 132 137
66 126 133
71 137 142
118 141 159
126 145 166
123 142 162
126 144 167
123 143 165
124 143 166
121 139 163
120 139 163
116 134 158
112 129 152
95 110 131
90 104 122
81 91 106
61 70 86
61 75 94
61 76 97
71 88 113
78 97 125
80 98 127
88 107 136
89 109 139
89 110 140
92 113 144
95 117 148
93 115 146
94 116 147
93 115 146
95 117 148
95 117 149
91 113 141
115 135 161
130 153 180
126 149 175
24 5 12
22 4 11
26 15 21
94 108 128
122 141 164
118 135 159
118 136 160
108 126 147
119 138 161
118 135 157
117 136 160
118 136 159
118 137 160
122 141 165
121 141 164
115 133 155
116 135 156
109 126 146
101 117 134
97 113 128
97 112 128
83 97 109
92 107 121
105 122 140
107 125 143
103 120 137
119 138 159
121 140 164
119 138 161
127 147 171
127 146 171
129 149 174
126 90 105
121 19 22
131 21 24
124 20 23
126 20 23
121 40 42
172 157 174
198 210 235
200 224 255
196 221 255
191 219 255
189 218 255
189 218 255
190 218 255
192 219 255
195 221 255
200 224 255
205 227 255
208 227 252
169 188 208
119 139 163
130 149 175
128 144 169
127 144 169
129 147 173
127 145 170
132 151 176
130 149 175
132 152 178
132 152 178
126 144 168
130 149 175
126 147 172
126 147 171
125 146 169
121 142 165
122 142 165
118 138 160
138 146 173
168 167 205
174 172 210
194 189 234
184 180 222
177 175 213
148 154 184
123 138 161
126 147 170
131 151 176
133 153 179
131 151 177
130 149 174
130 150 176
133 154 180
131 151 176
130 149 174
130 150 175
128 146 170
132 151 176
130 148 173
131 149 174
127 144 169
124 142 167
128 146 169
127 144 167
120 137 162
119 135 159
123 139 163
125 141 163
123 139 160
121 136 156
116 130 152
115 128 149
106 119 138
114 127 146
112 124 143
104 118 137
99 112 130
101 114 132
99 111 128
94 105 121
81 93 107
80 90 104
84 96 110
76 89 102
80 92 105
75 87 103
72 85 98
76 90 104
72 86 99
66 78 89
76 90 101
76 92 104
71 86 97
48 98 88
24 103 79
24 108 84
24 109 84
24 104 80
25 112 88
26 113 88
26 115 91
26 117 92
26 119 94
26 118 93
26 118 93
26 118 93
27 114 97
61 133 189
63 136 195
63 136 196
64 140 202
63 138 200
63 138 201
63 139 203
64 140 203
77 140 198
100 138 177
102 122 140
92 114 129
53 91 97
45 93 97
44 93 95
49 101 103
47 98 103
50 104 108
53 106 110
57 115 121
60 119 123
58 114 120
63 125 129
65 125 131
61 118 124
66 127 132
63 122 128
85 136 146
129 149 174
129 149 175
130 150 175
127 148 172
128 148 172
126 147 172
126 146 171
125 144 169
126 147 172
122 142 166
118 137 161
113 132 156
106 123 145
89 104 124
67 78 94
55 64 77
38 46 59
44 55 73
59 73 94
64 79 103
65 81 106
74 92 120
80 98 125
87 108 138
85 104 134
88 109 139
88 109 139
102 122 151
110 130 157
127 148 174
131 152 179
130 150 176
129 149 176
23 4 12
33 33 38
73 83 96
97 111 129
92 105 122
98 111 130
94 108 126
109 126 147
103 118 138
112 129 151
117 135 159
118 136 159
121 139 163
116 135 157
120 138 162
116 135 156
112 131 151
110 128 148
108 126 145
112 130 150
114 131 151
114 133 154
120 138 160
120 139 162
121 141 163
125 145 170
127 147 170
129 149 174
131 151 177
131 151 177
131 152 178
131 151 177
120 79 93
111 17 20
112 17 20
115 18 21
144 118 126
204 222 246
201 224 255
194 220 255
189 218 255
185 216 255
183 215 255
182 215 255
183 215 255
184 216 255
187 217 255
191 219 255
195 221 255
200 224 255
207 227 255
214 232 255
133 152 154
121 137 160
121 136 160
123 139 163
126 144 170
130 146 171
128 146 170
129 148 172
128 148 173
129 149 175
130 150 175
127 147 171
128 147 173
131 150 175
125 145 169
127 146 170
154 153 186
188 184 228
201 196 248
197 195 249
196 195 249
194 194 249
195 194 249
200 197 249
200 195 243
190 183 228
141 145 179
129 148 173
131 151 176
130 150 176
134 154 180
133 153 178
132 152 178
132 152 177
132 151 176
131 149 174
130 149 172
132 151 176
132 151 177
131 148 173
128 146 170
127 144 167
125 141 164
123 141 164
131 149 173
126 142 166
124 141 164
122 138 160
123 138 159
118 132 153
116 131 152
119 135 156
116 131 151
116 131 150
115 128 147
109 123 142
103 117 134
103 117 135
107 120 139
97 109 125
98 111 128
95 107 123
86 97 111
85 97 111
80 93 106
83 95 108
70 82 91
76 91 102
68 80 89
86 100 114
74 89 100
78 93 107
68 89 96
23 102 79
23 100 77
24 104 80
24 106 82
24 109 84
25 109 84
25 112 88
25 109 84
25 113 88
26 115 90
26 117 93
26 118 93
26 118 93
28 116 99
60 129 182
61 131 188
62 135 194
63 135 195
63 137 199
63 138 200
64 139 201
63 139 202
63 139 203
64 140 203
68 132 187
84 107 125
56 75 82
41 76 78
39 83 86
48 98 103
47 99 103
47 96 102
52 107 113
52 106 112
54 107 112
56 109 116
59 115 120
62 120 125
59 116 122
61 118 124
73 125 133
120 147 169
132 152 178
130 151 176
132 152 176
133 154 180
130 150 176
127 147 172
131 151 176
131 152 177
130 150 176
130 150 176
129 150 176
126 146 172
124 145 171
122 141 166
117 136 160
110 128 152
97 113 135
79 92 111
59 69 83
54 62 76
51 61 77
61 73 91
67 81 102
89 105 128
100 117 141
112 130 156
123 143 169
123 143 169
127 146 172
127 147 173
130 151 178
130 151 177
127 148 174
31 31 37
69 77 90
68 77 89
76 86 99
86 98 114
96 109 127
104 119 140
116 134 157
118 136 159
116 135 157
116 134 156
121 140 164
122 141 165
122 141 164
121 140 163
118 138 161
122 141 164
123 143 166
120 138 161
128 147 171
124 144 168
130 151 176
130 150 177
132 151 177
127 147 170
129 149 174
132 152 178
131 152 179
130 149 175
132 152 177
129 150 176
131 151 177
115 90 105
112 18 21
107 26 27
168 168 183
206 226 254
199 223 255
192 220 255
187 217 255
184 215 255
182 214 255
181 214 255
181 214 255
182 214 255
184 215 255
187 217 255
191 219 255
191 219 255
199 223 255
207 228 255
213 231 255
107 153 136
109 137 149
118 133 156
122 136 160
126 141 165
124 142 167
124 140 163
123 138 162
132 151 177
130 150 176
129 148 174
130 149 175
129 149 174
130 151 176
132 147 173
175 172 211
201 196 246
197 195 249
191 192 249
187 190 249
185 190 249
186 190 249
187 190 249
192 193 249
200 196 248
199 193 242
179 174 221
131 133 170
129 148 173
132 151 177
131 151 176
131 148 173
133 152 177
131 150 175
129 149 174
131 150 174
132 151 176
130 149 175
129 148 173
129 146 170
130 148 172
132 150 174
127 144 167
130 147 169
126 143 167
126 143 165
125 141 163
127 144 168
121 136 158
120 135 156
122 137 158
115 132 152
118 133 154
114 128 148
117 132 151
116 130 151
113 125 144
114 126 145
107 121 139
107 121 138
100 114 130
99 111 129
102 116 132
96 110 124
91 106 121
84 100 114
90 104 119
85 100 113
86 100 113
82 99 111
83 99 112
86 103 116
69 97 102
22 98 75
22 98 76
22 97 74
23 102 79
24 105 81
24 106 83
26 113 88
24 108 83
25 112 88
25 114 90
25 114 89
25 115 90
26 117 92
31 112 104
59 128 183
62 133 190
61 130 188
62 134 194
63 136 197
64 138 200
63 138 200
63 138 201
63 138 201
64 140 203
64 139 203
64 138 199
67 93 112
55 69 76
31 53 55
36 71 74
45 92 97
47 95 100
48 99 104
46 95 99
54 107 113
53 106 111
55 110 115
58 113 119
59 115 120
80 121 132
124 146 170
129 150 177
130 151 176
128 149 176
129 150 175
133 153 179
131 152 178
132 152 178
133 153 179
132 152 178
132 153 178
131 151 177
131 151 177
128 148 175
132 152 179
131 152 178
129 150 176
128 148 174
124 144 169
116 135 160
115 133 158
111 130 154
104 121 144
97 113 134
87 103 124
86 101 123
95 112 134
102 119 143
112 131 155
119 138 163
121 141 166
124 144 170
125 146 172
129 149 176
129 149 175
62 70 81
65 73 85
81 93 108
102 117 137
112 129 151
115 132 154
121 140 165
123 142 167
128 148 173
126 145 169
128 147 172
125 145 168
126 146 171
128 148 173
127 147 172
128 147 172
128 148 174
127 146 171
128 148 174
130 150 176
131 151 177
129 149 174
133 152 178
132 152 178
131 150 176
132 152 178
130 150 176
127 146 171
132 152 178
129 149 174
131 151 177
131 151 176
125 140 164
111 28 32
164 168 189
208 228 255
200 224 255
194 221 255
189 218 255
186 216 255
184 215 255
183 215 255
182 215 255
183 215 255
185 216 255
188 217 255
190 219 255
192 219 255
199 223 255
211 228 253
209 228 254
204 222 247
125 161 154
78 117 109
125 144 168
120 134 158
126 142 167
128 145 170
127 145 170
128 146 171
129 147 172
128 148 173
128 148 173
131 151 177
132 153 180
130 145 172
181 173 214
203 196 245
196 195 249
190 192 249
185 190 249
183 189 249
182 188 249
183 189 249
184 189 249
188 191 249
195 193 248
203 198 247
202 196 245
156 153 198
119 124 158
131 150 176
131 149 174
132 151 177
131 150 176
133 153 179
132 151 175
130 149 174
132 150 176
132 149 175
132 150 175
131 150 175
131 150 175
125 143 166
130 149 174
132 149 173
126 144 168
129 146 169
124 141 163
127 143 165
124 140 163
125 141 165
122 137 158
124 140 161
123 138 159
123 138 159
118 132 151
120 135 156
118 133 152
110 123 141
114 129 147
107 122 140
103 120 137
110 124 142
104 119 135
100 115 130
104 119 136
96 113 127
99 116 131
95 109 123
81 98 110
91 109 122
87 103 116
88 105 117
71 99 101
21 93 72
21 92 71
23 98 75
23 102 79
24 108 84
24 106 82
25 111 86
24 105 83
24 111 86
24 111 86
24 111 86
25 114 89
25 112 89
36 112 116
60 127 181
62 134 192
62 133 190
62 132 189
62 134 192
63 136 196
62 134 193
63 137 199
64 138 199
62 137 198
64 140 202
65 141 203
67 138 198
87 116 141
76 94 105
43 58 65
42 56 62
36 65 68
36 72 76
38 76 80
45 84 89
62 99 107
68 104 115
88 116 131
115 139 160
121 143 166
123 145 169
128 149 175
128 149 175
125 147 172
130 149 175
129 150 176
129 149 175
132 153 179
132 152 178
132 152 178
133 153 179
133 153 179
132 152 179
131 152 178
132 153 179
131 152 178
130 151 177
131 151 178
128 149 175
129 149 175
127 147 173
129 149 176
123 144 170
124 144 169
123 143 168
124 143 169
117 137 162
117 136 162
112 131 155
115 134 158
122 140 166
114 134 159
123 143 170
125 145 170
128 148 175
107 123 144
113 130 153
117 135 158
121 139 163
127 146 171
124 143 167
126 146 171
127 147 172
127 147 172
126 146 171
127 147 171
128 147 172
130 149 174
129 148 174
128 148 173
132 152 179
128 148 174
128 148 172
131 151 177
130 150 175
133 152 178
133 154 180
130 150 176
132 151 177
132 152 178
130 150 176
128 146 172
132 151 177
131 152 178
131 152 178
131 151 177
132 151 177
133 153 179
147 160 179
213 231 255
204 226 255
198 223 255
190 214 247
182 205 237
188 218 255
187 217 255
186 217 255
187 217 255
188 218 255
191 219 255
193 220 255
197 222 255
199 223 255
203 222 248
208 227 253
203 224 253
125 140 186
94 110 144
107 127 144
128 148 173
125 142 167
127 144 168
124 141 165
128 146 171
128 147 172
132 153 179
129 147 172
132 151 177
133 153 180
127 147 173
170 167 206
202 193 240
199 196 249
192 193 248
188 191 249
184 189 249
182 188 249
182 188 249
183 189 249
185 190 249
190 192 249
197 194 247
199 194 243
197 192 241
170 168 216
125 125 161
130 148 175
132 152 178
133 153 180
131 150 176
130 148 173
132 152 178
131 149 175
132 151 177
134 152 178
132 150 175
131 149 174
130 147 172
131 149 174
129 146 169
131 149 172
131 149 173
130 148 171
129 145 167
129 146 169
127 144 167
130 148 172
124 141 162
125 142 164
122 139 161
119 134 155
121 137 158
127 143 165
121 137 157
113 129 147
116 128 148
116 132 152
114 129 148
109 123 141
113 128 146
109 125 143
102 119 135
107 125 142
98 115 130
104 121 136
90 108 120
93 111 123
91 108 121
85 104 114
79 102 108
21 92 71
20 89 68
22 96 74
21 93 72
24 106 82
22 98 76
23 101 78
24 107 82
24 107 83
23 105 81
24 112 87
25 113 87
24 108 85
40 111 127
58 126 179
60 128 183
60 128 182
62 133 191
64 137 196
60 131 189
62 136 195
60 131 189
62 134 193
63 137 198
62 135 196
64 140 202
63 137 199
77 135 186
111 132 154
99 118 135
84 104 118
71 90 101
68 85 96
47 64 71
54 71 79
66 86 96
72 93 105
98 119 137
104 125 144
103 125 145
118 140 162
122 143 167
124 144 168
124 145 170
127 148 174
126 148 173
128 149 175
132 152 178
132 153 178
134 154 181
131 152 178
133 153 180
131 151 178
133 153 178
132 153 179
132 152 178
130 151 178
132 152 178
132 153 179
130 150 176
130 151 177
130 151 177
129 149 175
130 150 176
129 149 175
126 147 173
128 148 175
123 143 170
126 145 171
124 144 170
125 145 172
122 142 168
122 143 168
126 145 171
125 145 171
125 144 168
127 147 173
127 147 172
128 148 172
129 150 176
129 149 175
130 150 175
130 150 176
127 146 172
129 149 174
130 150 175
129 148 173
128 148 173
130 150 176
130 150 176
129 149 174
132 152 178
130 149 174
130 150 175
132 152 179
132 152 178
133 153 179
132 152 179
130 150 176
129 148 174
129 149 175
129 150 175
130 149 175
130 149 175
129 147 171
128 146 170
130 149 175
124 144 165
193 214 227
210 229 255
201 222 251
150 152 165
114 92 78
113 89 71
134 129 135
191 217 252
192 220 255
194 221 255
195 221 255
197 222 255
201 224 255
204 226 255
207 227 255
199 212 251
199 210 249
176 198 229
129 147 170
128 147 172
127 148 173
130 150 175
127 144 170
129 148 173
129 148 174
129 147 172
132 152 178
133 153 178
127 147 172
132 152 179
132 153 179
138 145 176
197 189 235
202 197 246
189 186 236
186 185 238
182 184 238
185 189 248
185 190 249
184 189 249
186 190 249
190 192 249
193 193 249
199 196 248
197 193 241
191 186 234
180 177 224
132 132 173
124 136 166
130 149 175
131 151 176
129 148 175
132 152 178
134 152 178
130 150 176
129 149 174
133 152 176
132 151 176
131 150 175
131 150 175
131 150 175
127 145 170
127 145 168
128 145 170
126 143 167
130 148 172
128 146 170
128 147 172
128 145 168
126 141 163
123 140 161
125 140 162
123 139 160
123 138 159
123 139 159
121 137 157
123 140 162
116 132 151
116 132 153
120 136 155
114 129 147
120 136 156
111 125 142
112 128 146
109 125 143
105 122 137
102 119 135
103 121 136
93 112 126
97 114 128
87 105 116
77 97 106
19 83 64
20 84 66
22 95 73
21 93 72
21 90 69
22 96 74
22 97 74
22 100 77
21 95 72
23 106 81
24 107 83
24 106 82
23 106 83
45 114 140
59 126 178
57 121 170
57 124 175
60 130 185
62 134 190
61 132 189
61 132 188
61 134 193
62 133 194
61 134 193
63 138 198
64 138 198
64 137 198
65 138 198
104 140 177
114 135 157
120 141 162
106 126 145
103 124 142
105 124 143
90 110 126
90 109 125
95 115 132
103 123 142
93 114 130
105 127 148
109 132 153
119 140 163
123 145 169
122 143 167
123 145 170
128 149 175
127 149 174
129 149 174
131 151 177
129 150 176
132 153 179
130 151 178
132 152 178
133 153 180
132 152 178
131 152 179
132 153 179
131 152 178
133 154 180
131 152 178
133 153 180
131 151 178
132 153 179
129 150 177
131 151 178
131 152 179
129 149 176
128 149 175
132 152 178
130 150 176
128 149 175
130 150 177
130 150 176
131 152 178
130 150 177
128 148 174
127 146 171
126 147 170
128 148 172
128 148 173
129 149 174
130 150 175
132 152 178
130 149 174
131 150 176
131 151 177
130 150 176
133 154 180
132 152 179
130 151 177
130 149 174
130 149 173
132 152 177
131 151 176
131 151 176
132 152 178
128 147 172
130 150 176
129 149 174
130 150 175
130 150 176
129 148 174
131 150 175
130 149 174
129 147 172
130 148 173
128 144 169
119 147 153
206 227 244
211 230 255
146 147 156
100 77 61
103 78 62
108 84 66
102 79 63
164 173 191
200 224 255
202 225 255
203 226 255
206 227 255
209 229 255
213 231 255
196 205 240
162 157 198
156 153 194
126 140 168
135 154 179
127 146 172
132 152 179
129 148 174
127 144 169
126 145 171
125 143 167
132 150 176
130 150 176
131 151 177
128 148 173
132 152 178
129 149 174
167 161 202
201 193 240
191 183 228
175 169 214
157 151 191
172 169 216
186 187 242
188 191 249
190 192 249
192 193 249
194 194 249
198 196 249
202 198 249
196 192 239
179 176 219
153 155 195
139 138 179
123 132 162
129 148 174
129 148 174
133 152 178
132 151 178
133 152 178
132 152 178
135 153 179
133 152 178
131 149 174
129 148 172
132 152 176
132 150 175
132 151 175
131 150 175
128 145 169
131 150 175
130 148 172
128 146 169
132 149 174
130 146 169
128 146 170
128 145 168
128 144 168
125 141 163
126 143 165
123 140 162
128 144 166
121 137 158
117 133 152
122 137 159
122 138 158
123 137 156
119 135 155
107 122 138
114 131 149
117 132 150
116 133 151
101 118 133
104 122 137
90 108 120
92 110 122
99 115 129
92 110 121
43 77 71
19 82 62
20 89 68
18 83 64
21 93 71
20 93 71
21 95 73
21 96 73
21 95 73
23 104 81
22 100 77
23 102 79
21 101 76
49 113 152
56 120 169
60 126 177
58 123 174
56 122 172
59 129 184
61 132 189
61 132 188
62 134 190
62 133 191
61 133 192
63 136 196
64 137 196
64 137 197
63 134 193
83 138 188
127 147 172
124 144 167
123 144 167
124 144 167
116 137 159
113 134 155
119 139 161
111 131 152
111 132 153
111 131 152
103 125 144
113 134 155
123 144 168
119 139 162
123 144 169
125 146 170
128 149 174
127 148 174
127 148 173
128 149 175
129 150 175
130 150 177
132 152 178
132 152 178
133 153 180
132 152 177
133 154 179
132 153 179
133 153 179
132 153 179
131 152 178
132 152 178
132 153 179
130 151 177
133 153 179
131 152 179
131 151 177
132 152 178
129 149 175
131 152 178
131 151 177
132 153 179
132 152 178
131 152 178
131 152 179
130 151 177
131 150 177
131 151 176
130 150 176
131 150 176
132 152 177
129 149 175
131 150 175
130 150 176
131 150 176
132 152 178
130 150 176
129 149 174
131 151 176
132 152 179
132 152 179
131 152 178
131 151 178
130 150 175
131 150 175
128 147 172
130 150 175
130 150 175
131 151 178
128 146 171
129 148 174
130 149 174
128 145 170
128 147 172
131 148 173
128 145 170
128 147 172
125 140 165
145 165 180
196 207 222
206 222 244
98 83 75
91 71 56
92 69 55
97 75 60
99 75 59
170 178 196
208 228 255
210 229 255
212 231 255
214 232 255
199 214 239
158 161 176
139 139 158
113 113 145
100 100 131
119 131 157
127 145 170
129 149 175
130 149 174
125 141 165
117 132 155
128 146 171
127 145 169
128 146 170
129 149 174
131 151 178
131 151 177
131 150 176
128 142 170
166 159 198
180 172 209
166 154 188
147 134 163
140 125 150
163 154 193
192 190 243
195 194 249
195 194 249
199 196 249
201 197 249
202 197 247
202 196 243
181 178 219
142 146 180
131 134 170
131 131 169
120 127 158
129 146 172
132 149 177
132 151 177
131 151 176
132 150 176
129 148 173
133 152 179
132 151 177
133 151 176
130 148 172
132 151 177
129 147 172
132 150 174
133 151 176
134 152 176
127 147 171
127 145 169
128 146 169
126 145 169
126 142 164
126 143 166
129 146 169
124 141 162
128 145 169
126 143 165
129 146 169
126 143 165
123 140 162
125 141 161
125 142 164
124 141 162
123 140 161
119 136 156
115 132 152
116 134 153
114 132 151
114 131 150
113 131 148
109 128 145
106 124 142
105 122 138
77 97 106
75 93 100
68 88 94
29 79 65
18 79 62
19 88 68
19 84 64
20 89 69
19 85 66
19 87 67
20 92 71
21 95 73
21 101 78
20 95 73
25 92 84
51 110 154
54 115 163
55 117 165
55 120 168
55 119 167
56 123 173
56 122 173
56 124 176
60 130 185
60 130 185
60 130 186
61 132 189
62 134 192
62 134 191
62 131 190
63 129 186
128 149 175
131 151 176
132 153 178
128 148 173
126 147 172
129 149 174
119 140 162
119 139 162
117 138 162
117 138 161
118 139 161
124 145 169
125 146 170
127 148 173
122 144 168
129 150 175
126 147 172
122 144 168
129 150 176
128 149 175
130 151 178
130 150 176
130 151 177
129 149 175
130 150 176
131 151 177
133 153 180
132 153 179
132 152 178
131 152 178
132 153 179
133 153 179
132 153 179
133 154 180
132 152 178
132 153 180
133 153 180
132 153 179
131 151 177
132 153 179
131 151 177
132 152 178
130 150 177
133 153 180
132 152 178
131 152 179
133 153 179
132 152 177
131 151 177
131 151 177
130 150 176
131 152 178
131 151 177
131 151 177
132 153 179
132 152 178
133 153 180
129 150 175
131 151 177
130 149 174
130 150 174
130 150 176
126 145 169
129 148 173
131 152 177
129 148 173
130 150 175
130 150 176
127 146 171
128 146 170
128 147 171
128 146 171
127 145 170
127 144 168
124 138 162
127 144 169
121 135 158
118 131 153
122 139 153
117 126 138
180 194 205
86 69 57
89 70 56
90 70 56
92 69 54
91 70 56
183 187 195
192 203 219
188 202 217
154 170 193
121 116 169
128 149 172
125 143 168
126 141 166
123 136 161
127 144 171
128 145 171
129 148 172
127 146 172
122 139 161
111 125 143
124 141 163
120 137 159
124 142 166
127 145 169
129 148 175
129 149 175
131 151 177
130 150 176
123 132 163
165 159 198
169 159 192
139 123 147
108 85 91
134 113 130
168 159 198
191 185 232
199 195 246
202 198 249
202 196 246
202 195 243
199 190 234
178 171 209
148 147 183
131 134 168
123 126 162
128 129 168
124 133 163
126 142 170
127 145 171
131 149 175
130 148 174
130 149 176
131 150 176
133 153 179
131 151 177
131 151 176
131 151 176
133 151 176
131 150 176
130 149 174
132 150 175
132 151 177
131 150 175
131 150 174
130 149 173
126 143 166
130 149 173
126 145 169
128 146 169
124 140 162
128 144 166
127 144 166
119 136 156
124 143 165
126 144 166
124 142 164
127 145 168
124 142 164
125 142 165
122 138 158
125 144 165
114 132 150
119 136 157
114 133 153
118 135 153
107 125 142
106 126 142
95 113 127
96 116 129
79 96 107
75 90 99
62 80 86
32 76 65
18 81 63
18 81 63
18 82 63
18 84 65
19 85 66
18 87 67
18 85 66
19 90 69
18 86 67
32 91 102
50 109 153
51 108 153
55 120 168
52 112 154
54 118 166
56 123 172
55 122 172
54 120 169
56 125 174
58 127 180
60 129 184
60 128 183
61 129 185
59 125 181
60 128 185
61 130 186
124 149 178
131 151 176
131 151 177
131 151 176
129 150 176
127 148 172
128 149 174
127 147 170
123 145 169
128 148 173
125 147 172
128 149 175
123 143 168
124 145 170
127 148 172
125 146 170
131 151 177
127 148 173
123 144 169
131 152 177
129 150 176
131 153 179
130 150 176
129 150 175
128 148 174
130 151 177
131 152 178
133 153 179
131 152 178
133 154 181
132 153 179
133 154 180
132 153 180
132 153 179
132 153 179
131 152 179
133 154 180
133 153 179
131 151 178
132 153 179
132 153 180
132 152 178
132 152 178
130 151 177
132 152 179
132 153 179
133 152 178
131 150 175
129 150 175
132 152 178
131 151 177
132 152 178
131 151 176
133 153 179
132 152 179
132 152 177
130 150 175
130 150 175
131 152 179
130 150 175
130 150 175
132 151 177
128 147 171
127 147 173
129 148 174
129 148 173
131 151 176
128 145 170
126 144 168
126 145 170
130 148 173
130 149 175
126 145 170
127 143 168
126 144 169
120 137 160
121 136 159
117 131 153
117 132 150
118 134 154
97 114 122
62 69 55
87 85 88
160 185 211
111 119 128
86 79 75
124 102 69
112 100 85
116 131 151
127 145 170
126 145 171
129 148 173
130 149 175
127 144 170
126 143 168
127 145 170
126 144 169
127 145 169
120 137 159
113 126 146
118 135 155
116 131 152
120 138 160
125 143 166
130 150 176
126 145 170
127 146 171
130 148 174
130 150 176
122 130 160
154 148 183
152 145 177
124 111 130
97 72 70
129 109 127
157 145 175
198 190 235
199 190 237
197 189 238
193 181 227
181 169 212
156 145 173
144 142 173
136 134 169
122 124 160
129 129 168
126 127 166
123 133 163
129 143 171
128 145 172
130 146 172
131 148 174
131 149 175
132 151 177
130 149 173
134 152 179
132 151 176
130 148 173
131 149 175
134 153 178
133 152 178
133 152 178
133 152 177
129 148 173
129 147 172
131 149 173
128 147 170
128 146 169
128 145 168
131 148 172
128 145 169
129 148 172
130 147 171
122 138 159
128 146 170
127 144 166
130 148 172
128 146 168
122 140 163
127 144 166
126 144 166
123 140 161
123 139 160
121 138 159
120 138 157
112 130 148
117 135 156
106 124 141
103 122 137
101 121 137
87 105 117
65 83 89
62 76 82
48 64 66
14 62 49
16 72 56
17 76 59
17 78 60
17 77 60
15 74 58
17 82 64
18 84 64
19 88 68
39 93 120
49 106 149
48 106 146
50 108 152
49 108 150
49 109 152
50 112 157
50 113 158
54 119 166
53 119 168
53 119 167
55 119 170
56 122 174
57 121 175
58 124 178
58 127 181
59 125 180
127 150 177
133 153 179
126 146 171
130 150 175
130 151 176
132 152 178
128 149 173
128 148 173
128 149 173
130 151 176
130 151 177
126 147 171
128 149 174
130 151 177
125 145 169
127 148 173
128 148 173
128 149 175
131 152 177
129 150 175
127 148 173
129 150 175
130 151 176
129 149 175
130 150 175
128 150 176
131 151 177
130 151 177
132 153 179
133 153 179
132 152 179
132 153 179
131 151 178
134 154 180
131 151 177
133 153 179
132 152 178
132 153 179
133 154 180
132 153 179
133 153 180
130 150 176
132 153 179
133 153 180
132 152 178
132 152 179
132 153 178
131 151 176
132 152 178
131 151 176
133 153 178
132 152 176
132 152 176
132 153 179
131 151 176
130 149 174
132 153 178
130 150 174
131 150 175
132 153 179
129 148 173
128 147 171
128 147 172
130 149 173
129 148 172
131 150 176
131 151 177
130 150 176
129 148 173
127 146 170
129 147 172
128 146 170
127 145 170
127 144 169
124 140 164
120 135 158
123 138 162
119 134 157
124 142 167
119 135 157
113 126 146
104 117 135
88 98 112
98 113 129
101 116 133
98 110 127
109 122 141
118 133 154
124 142 166
125 143 166
126 143 168
127 145 170
128 147 173
125 142 167
126 144 169
123 140 163
123 140 162
112 127 146
106 120 140
109 123 143
119 135 156
120 137 160
127 145 169
129 148 173
126 143 167
125 143 168
127 146 170
128 148 174
127 146 172
119 129 159
128 125 159
133 128 160
111 101 122
112 93 105
133 115 134
154 139 171
162 151 185
177 167 209
169 162 206
165 156 199
156 144 185
141 134 167
121 120 154
128 131 168
128 129 167
127 128 167
123 122 160
120 132 159
126 141 167
128 141 169
130 147 175
127 144 170
131 148 174
131 148 174
132 151 176
129 149 174
133 153 179
131 149 174
133 151 177
133 152 176
132 152 178
132 151 177
131 149 172
132 151 175
132 150 175
128 145 169
128 147 171
129 148 173
132 151 175
130 148 171
127 145 167
129 147 171
128 146 169
130 148 172
129 148 170
129 145 168
129 147 171
125 142 164
130 147 170
124 141 163
123 142 165
129 146 169
121 138 159
122 139 162
120 139 159
119 140 161
119 137 157
115 134 154
115 133 153
112 130 149
94 111 124
89 107 121
88 104 116
59 73 79
55 68 74
29 52 48
18 59 48
15 69 54
15 69 54
16 76 61
17 78 61
16 76 60
19 75 68
40 90 128
44 96 137
45 101 142
45 99 139
47 101 141
46 104 144
46 104 146
46 103 142
50 112 159
51 111 158
50 114 160
52 118 167
55 120 171
58 126 178
57 122 174
55 120 173
77 126 173
133 153 178
133 152 178
131 151 177
132 152 178
131 152 177
131 151 175
134 154 180
132 152 177
129 149 173
132 153 179
130 151 177
131 152 177
128 149 175
131 150 175
130 151 176
129 151 177
128 149 175
132 152 178
129 149 175
130 151 177
132 152 177
127 148 174
131 152 178
129 150 175
130 150 175
130 151 177
131 152 178
130 150 176
131 152 177
133 153 180
132 152 177
134 154 181
133 154 180
132 152 178
133 153 180
133 153 179
132 153 180
134 154 180
132 152 179
133 153 180
132 152 178
132 152 179
133 153 180
132 153 179
131 152 178
132 152 179
129 149 173
130 149 172
131 151 175
131 150 174
128 148 173
132 152 178
132 151 175
131 150 173
131 151 176
131 151 177
131 151 177
128 148 172
131 150 175
126 145 169
130 150 175
129 149 174
125 142 166
130 150 176
128 148 174
130 149 175
128 148 174
129 147 172
128 145 169
125 142 166
130 148 173
128 147 172
120 134 156
122 136 160
125 141 165
121 137 161
122 137 160
123 139 164
123 141 165
123 139 162
123 142 166
122 139 161
123 139 162
121 139 162
122 139 162
121 137 161
123 141 164
122 139 161
127 146 170
128 146 171
126 144 169
127 144 168
123 140 163
125 143 167
121 137 159
117 133 155
108 123 143
103 119 139
107 122 141
112 127 148
119 135 156
120 136 159
124 143 166
126 144 169
129 148 174
130 149 176
130 148 173
130 149 175
129 147 172
125 139 168
122 122 158
125 122 157
115 111 139
108 94 110
110 97 113
132 122 154
142 137 172
142 136 174
148 142 185
125 124 162
124 123 159
128 124 159
124 125 162
129 130 169
131 131 172
123 121 159
115 122 150
124 134 161
126 139 165
129 143 169
128 142 169
130 147 173
130 148 174
131 149 174
132 150 176
133 151 178
130 148 173
131 149 173
130 149 174
132 150 176
131 151 176
131 150 176
133 152 177
132 151 175
132 150 174
129 148 172
133 151 176
133 151 175
129 148 172
134 153 178
133 152 177
128 147 170
129 146 170
130 147 170
129 148 173
129 148 172
126 145 168
129 147 172
127 144 166
127 146 169
125 142 164
126 144 167
126 144 166
126 144 167
128 146 170
121 140 161
125 143 166
120 138 160
124 141 164
109 129 147
107 126 144
105 124 141
96 113 129
94 112 126
76 92 103
65 80 89
41 51 56
34 46 48
16 43 36
36 59 57
11 48 40
16 43 38
22 49 68
38 82 118
40 88 124
43 94 135
41 93 130
44 100 141
41 94 131
44 100 140
43 99 138
45 105 145
49 111 156
51 114 162
50 113 158
51 111 158
52 114 162
56 121 172
52 112 160
103 134 170
130 150 175
131 150 174
128 149 175
133 153 178
133 153 178
133 152 178
131 152 178
130 150 175
132 152 178
129 150 176
132 153 179
131 151 177
131 152 177
130 150 175
132 152 177
132 153 179
129 150 175
130 150 176
131 151 178
130 150 175
129 150 176
129 150 175
131 152 178
129 150 176
131 151 177
130 150 176
132 152 178
130 151 176
130 150 175
131 152 179
133 153 180
133 153 180
133 154 180
131 152 178
132 153 180
133 153 180
131 152 178
132 153 179
133 153 180
133 153 179
132 153 179
133 153 180
133 153 179
134 154 180
132 152 179
133 153 180
132 153 177
131 152 176
130 149 173
131 151 175
131 150 173
127 147 171
131 151 175
127 146 169
126 145 169
127 147 172
128 146 170
130 149 174
126 146 171
128 146 171
126 143 166
130 149 175
126 143 166
129 148 174
131 151 177
127 146 171
128 148 173
128 148 173
126 143 167
123 140 164
127 143 168
125 139 163
122 138 161
123 140 163
125 143 167
116 130 151
118 133 156
118 134 158
118 134 157
125 143 168
124 141 165
123 140 165
122 141 165
126 145 170
120 136 159
124 141 165
123 140 164
124 141 164
121 138 162
117 133 154
122 140 163
120 136 158
116 132 154
115 129 149
107 121 141
97 111 129
99 113 133
106 121 143
106 120 139
119 134 156
122 139 162
126 144 168
127 145 170
127 147 172
126 144 169
130 150 177
127 146 172
130 150 176
128 148 174
126 144 170
119 120 156
126 126 164
122 123 159
118 115 146
119 113 143
129 124 158
127 127 164
124 123 159
124 123 161
127 128 169
129 130 169
126 127 166
129 130 170
126 127 167
121 119 157
109 107 140
112 119 146
124 135 162
127 140 168
128 142 170
127 143 169
132 148 174
132 149 176
127 143 169
131 150 177
131 150 176
131 150 178
131 150 175
133 152 179
132 150 175
130 149 174
129 146 169
131 151 176
131 151 176
132 150 175
134 153 177
130 149 173
129 148 173
132 150 174
131 150 174
129 148 172
128 145 168
134 152 177
131 150 175
131 150 175
128 146 169
131 149 173
131 149 173
129 147 171
128 147 171
127 145 168
126 144 167
124 142 165
128 147 170
127 144 167
126 145 167
124 143 167
125 143 166
118 137 158
116 136 157
117 135 156
115 135 154
112 131 151
100 118 135
87 104 118
77 96 107
64 83 91
54 70 75
48 64 70
51 65 72
42 54 61
44 55 65
30 39 47
27 46 65
39 85 120
41 90 128
38 89 127
40 92 131
40 92 129
41 93 133
44 99 141
44 99 139
46 104 148
45 100 143
47 107 152
52 112 161
47 103 149
53 113 163
89 126 164
126 147 173
127 147 172
127 147 173
128 148 174
132 152 177
130 150 176
132 152 178
133 153 179
133 153 179
132 152 178
134 154 180
133 153 180
131 151 177
132 152 178
132 152 178
131 151 177
131 151 177
134 154 179
131 152 177
131 152 178
131 152 178
131 151 176
129 150 176
133 153 178
131 152 178
133 153 178
134 154 180
130 151 177
128 150 176
131 152 177
129 150 175
132 152 178
130 150 176
133 153 179
132 152 178
132 153 178
132 153 179
133 154 180
132 152 178
132 152 178
132 153 180
132 152 178
132 153 179
132 152 179
132 153 179
133 153 179
132 153 180
129 148 170
129 149 170
132 151 175
131 151 175
129 149 173
128 147 170
127 145 166
127 146 170
125 144 167
127 146 171
126 145 169
130 149 172
129 148 173
132 151 176
125 143 167
129 148 173
129 147 172
130 149 174
128 145 170
128 146 171
126 144 169
121 138 161
124 142 166
126 144 168
124 143 168
126 144 169
123 138 161
125 142 166
125 142 167
120 136 159
126 144 169
122 138 162
123 139 162
122 137 161
121 136 159
122 138 161
126 145 169
121 138 161
122 139 162
117 132 153
116 131 152
114 129 151
112 127 148
109 122 141
108 120 138
101 113 130
98 110 127
90 100 118
95 108 126
105 120 140
110 124 146
115 130 151
123 138 160
127 145 169
125 144 168
125 143 168
123 142 165
129 148 173
130 149 174
125 143 169
129 148 175
130 148 175
128 146 170
126 143 170
112 122 150
125 126 165
124 126 165
122 122 159
124 123 160
128 129 168
126 126 165
127 128 167
129 131 170
128 128 166
125 125 164
124 125 163
127 125 164
121 118 157
103 100 133
100 102 127
118 126 152
122 132 158
125 137 164
129 142 169
132 148 176
129 145 172
132 150 176
130 148 175
130 147 172
130 149 175
129 147 172
131 150 175
130 150 176
132 151 177
132 151 176
129 148 173
131 151 177
131 150 176
131 149 174
132 151 176
133 152 177
132 150 174
134 153 178
131 150 175
131 149 173
129 147 171
132 150 174
131 151 175
128 146 170
130 149 173
130 148 173
128 146 171
130 148 172
130 149 172
131 150 174
128 147 170
131 150 174
129 147 171
124 141 164
127 145 169
122 141 164
121 140 162
123 142 165
122 139 161
119 139 160
116 134 154
120 139 160
108 127 146
112 131 151
93 112 129
95 113 129
80 99 113
71 90 102
72 91 104
66 83 96
76 91 106
59 76 90
41 56 71
27 39 52
28 58 85
36 80 116
37 86 122
38 89 127
41 91 129
43 98 140
40 93 133
41 94 135
44 101 142
46 102 149
49 109 156
46 98 145
86 120 157
122 142 168
127 147 173
128 148 174
132 152 178
128 148 174
125 145 170
131 151 177
127 147 172
134 153 179
131 152 178
131 152 178
130 150 176
132 152 177
131 152 178
131 152 177
132 153 179
131 152 177
131 152 178
131 151 177
133 153 179
131 151 177
132 152 178
132 153 179
130 150 175
132 152 178
130 150 176
130 151 177
131 151 177
131 152 178
133 153 178
129 150 175
132 152 177
133 153 179
132 152 178
132 153 179
131 151 178
134 154 181
132 152 179
132 153 179
132 153 179
134 154 181
133 153 179
133 154 180
132 153 179
132 152 178
133 153 179
132 152 178
132 153 179
125 144 164
129 147 170
129 149 171
128 146 167
127 146 169
127 145 167
126 145 168
129 148 173
125 143 167
127 146 170
128 146 170
124 140 163
129 147 171
128 148 173
127 145 170
130 149 174
124 142 165
131 150 175
128 146 171
124 141 165
128 146 171
124 142 166
127 146 171
123 139 163
123 141 164
125 143 167
124 141 165
123 140 164
123 140 163
125 143 168
124 139 162
122 139 163
123 141 165
120 137 160
123 141 164
120 134 156
120 135 156
118 132 153
113 123 141
104 115 131
96 107 121
98 109 125
93 100 114
85 91 104
80 84 96
81 86 99
80 89 102
92 104 120
107 121 141
118 134 156
115 129 151
123 140 163
126 143 166
126 144 169
121 138 161
127 144 167
126 144 169
130 149 174
128 145 171
131 151 177
129 148 174
129 147 174
130 148 175
130 149 177
125 140 167
112 115 147
126 125 164
129 129 170
129 129 170
128 127 166
126 125 164
127 127 167
122 122 160
123 121 161
122 121 160
122 119 157
117 110 147
98 92 121
97 95 120
110 117 141
115 125 151
122 133 158
124 136 162
125 141 166
132 148 176
130 147 174
129 146 173
130 149 176
130 149 174
130 148 174
131 150 176
129 147 172
127 144 169
133 153 179
131 150 176
131 151 177
132 151 176
133 151 177
131 150 175
128 147 172
129 147 172
129 148 174
131 150 175
131 149 174
132 151 177
132 152 177
129 148 173
130 148 172
130 148 172
129 148 173
130 149 173
132 151 176
133 153 177
133 152 176
127 145 169
129 147 170
132 152 176
128 146 169
130 148 171
127 146 171
126 144 167
124 142 165
129 148 172
127 146 169
116 135 158
122 140 163
114 134 155
116 136 156
112 130 150
114 133 155
104 124 143
100 119 135
96 115 132
91 110 127
82 101 117
75 97 114
65 84 99
65 80 97
68 84 101
48 62 79
30 47 63
30 59 86
38 78 113
34 81 117
39 88 128
38 87 128
43 95 139
43 96 139
51 98 139
71 105 140
98 122 150
115 136 162
116 137 164
127 147 173
126 148 174
127 147 173
127 148 174
128 149 175
130 150 175
126 147 173
132 152 178
128 149 175
129 150 176
133 153 179
132 152 177
132 153 179
132 153 179
131 151 177
133 153 180
132 152 179
132 152 178
131 151 176
133 153 179
133 153 180
132 152 178
131 151 177
132 152 178
132 153 180
131 152 178
130 150 176
132 152 179
129 149 175
134 154 180
131 151 177
131 151 177
133 153 180
131 151 177
131 152 178
128 148 173
134 154 180
133 154 180
132 152 179
133 153 179
133 153 179
133 154 181
134 154 180
132 153 179
133 154 180
133 153 180
132 153 179
126 145 166
127 144 164
125 143 164
128 148 171
127 146 169
125 142 164
125 142 165
127 145 169
123 140 163
127 147 172
123 140 163
130 149 174
127 146 171
126 144 168
127 144 167
127 146 172
126 144 169
130 149 174
126 142 165
125 144 169
127 146 171
127 146 171
124 143 168
126 145 169
124 142 166
125 143 167
126 144 168
126 143 167
125 143 168
124 140 164
126 144 169
122 139 163
123 141 165
118 133 155
120 135 157
118 132 154
116 130 150
116 129 151
110 123 141
107 114 129
96 105 119
91 100 114
87 95 110
87 92 104
88 95 108
94 104 120
105 118 137
112 126 145
120 135 157
123 140 162
122 138 162
121 136 159
126 144 169
127 146 171
129 147 171
126 143 167
131 149 176
126 145 170
128 147 173
127 144 171
129 148 174
129 145 173
128 145 171
127 141 169
124 141 167
125 138 165
113 120 148
117 116 152
122 121 159
121 121 159
123 121 161
120 119 155
122 119 157
115 110 146
110 104 139
97 91 122
91 86 113
94 94 118
103 107 132
111 116 142
123 133 161
127 142 168
128 143 170
129 145 171
130 146 173
130 147 173
129 146 172
133 152 178
131 150 175
130 148 173
131 151 177
129 147 173
129 148 173
132 151 176
130 150 176
133 152 177
131 151 176
134 154 179
133 152 177
132 151 175
132 152 178
132 151 176
134 153 178
130 149 174
132 150 175
129 148 173
131 149 173
130 149 173
131 150 176
131 150 175
132 151 176
130 149 173
130 148 171
130 149 173
130 148 173
131 150 174
131 150 173
130 150 175
131 150 175
130 148 171
129 148 171
129 147 172
127 147 171
120 140 161
124 143 165
124 143 166
125 144 167
120 139 161
118 137 159
117 137 160
108 126 145
108 128 149
108 128 149
106 127 147
100 120 140
98 118 137
92 112 131
85 106 127
91 111 132
72 91 111
70 87 108
59 76 96
61 76 93
44 59 76
42 56 75
48 67 90
69 90 115
89 110 133
93 113 138
95 116 142
104 125 151
115 135 160
112 132 158
119 140 167
125 146 172
127 148 173
126 147 173
128 148 173
128 149 174
129 150 176
131 151 177
130 150 176
127 148 174
132 153 179
131 152 178
132 152 179
133 153 179
134 153 179
133 153 180
131 151 177
131 151 178
132 152 178
133 153 179
131 151 177
133 153 179
130 151 177
131 151 176
127 147 172
133 153 179
132 152 178
133 153 179
133 153 179
132 152 178
133 153 179
131 151 177
132 152 178
130 151 177
130 151 177
132 152 178
132 153 180
133 154 181
133 154 181
131 152 178
133 153 180
132 152 179
134 154 181
132 152 179
133 153 179
132 152 178
132 153 179
131 150 174
123 142 165
126 145 168
127 146 169
124 142 165
127 146 171
124 141 164
127 146 170
126 144 168
130 149 174
125 142 164
123 141 165
128 147 172
127 145 170
128 145 170
125 143 167
128 146 170
127 145 170
126 144 169
123 140 164
128 147 172
128 147 172
122 138 161
123 137 160
128 148 173
124 141 166
125 143 167
127 144 169
127 145 170
125 140 164
124 140 165
122 138 162
122 139 162
122 136 158
120 133 152
113 125 144
113 127 147
110 123 141
118 131 151
102 112 129
96 103 119
96 103 117
96 106 121
101 113 131
101 112 128
110 122 140
121 137 157
121 137 159
122 138 160
124 141 165
123 139 161
122 139 163
127 145 170
126 145 170
127 146 171
127 144 170
128 146 171
125 141 167
129 146 172
129 147 172
128 147 175
128 145 172
127 144 169
123 137 161
121 134 160
119 130 156
111 121 144
107 114 138
108 108 136
104 103 134
103 100 129
99 93 123
93 86 114
90 83 109
83 79 103
93 94 117
98 100 124
105 111 135
114 119 145
121 130 156
124 138 164
126 141 167
130 144 172
129 145 172
128 144 171
128 145 172
129 146 172
131 149 174
129 148 174
130 148 173
132 151 178
129 148 174
130 147 172
131 150 175
131 149 174
131 151 176
131 149 175
129 147 171
132 151 176
132 151 176
133 153 179
131 151 176
133 152 178
130 149 174
130 149 174
132 150 176
132 152 177
130 149 175
130 149 174
135 153 179
130 148 171
130 150 174
130 149 174
132 151 177
131 150 174
129 149 173
128 145 169
127 146 169
127 145 169
127 148 173
128 148 172
130 150 174
128 146 171
126 145 168
129 148 172
124 143 167
126 146 169
126 146 170
123 143 166
125 145 169
121 140 162
123 143 168
110 130 151
110 130 153
108 130 150
103 123 145
106 126 149
92 113 134
96 116 138
95 114 137
91 110 133
87 107 129
76 95 117
71 89 112
77 94 115
76 93 114
74 92 115
83 102 126
89 109 133
95 118 143
110 131 156
101 123 150
110 132 158
120 141 168
116 138 164
117 137 163
125 146 172
127 148 175
127 147 173
130 151 176
130 150 175
130 151 177
130 151 177
130 150 176
129 149 175
131 152 178
133 153 179
131 151 177
132 152 178
131 151 177
134 154 179
132 153 179
131 151 176
133 154 181
133 152 178
131 151 177
132 152 177
133 153 180
129 149 175
132 153 179
131 151 178
129 149 174
130 150 175
132 152 179
133 153 180
130 150 177
132 153 179
129 150 176
131 151 177
130 150 176
131 151 177
134 154 180
132 153 179
132 153 179
133 154 180
133 153 180
134 154 181
134 154 180
132 153 179
133 153 180
122 141 164
126 144 168
124 141 164
125 142 164
126 144 167
127 146 170
124 142 166
126 144 168
128 147 172
128 145 169
127 146 171
125 142 166
128 146 170
129 147 171
127 145 169
126 145 169
129 148 174
126 145 170
125 143 168
127 146 171
123 140 164
125 142 166
123 141 166
128 147 173
125 142 166
128 146 171
126 144 169
124 141 165
122 138 161
124 139 162
123 140 164
125 144 168
118 134 156
116 132 153
122 137 159
115 130 152
110 122 141
111 123 141
106 117 135
104 116 134
99 110 127
104 117 136
106 120 139
110 124 143
115 129 148
119 134 155
122 137 159
125 141 163
125 143 167
126 144 168
126 144 169
126 144 169
127 146 171
130 148 174
128 147 172
127 146 172
129 147 172
128 146 172
128 145 170
128 146 172
127 144 169
124 141 167
125 142 168
124 138 164
121 134 160
120 133 160
116 127 151
110 119 142
110 118 141
100 102 124
88 88 109
88 86 105
91 89 112
86 84 105
98 98 122
108 113 138
104 109 132
117 125 149
119 130 155
127 139 165
121 134 158
126 139 166
125 141 167
129 146 173
130 147 174
129 147 173
128 147 173
131 150 176
129 149 175
128 147 173
129 149 174
130 149 175
130 149 175
132 151 177
132 151 176
132 151 176
132 151 176
132 151 176
132 151 177
130 148 173
133 151 175
132 151 176
133 153 178
131 150 174
132 151 176
135 154 178
131 150 176
128 148 171
129 147 171
132 151 176
132 150 174
129 148 172
132 150 174
132 152 176
131 150 176
131 151 176
131 149 173
131 150 174
129 148 172
131 150 174
129 149 173
132 150 175
127 145 170
131 150 174
125 145 167
128 147 170
128 147 170
122 141 163
127 147 171
122 142 166
125 145 169
114 135 157
125 144 167
117 137 159
117 137 160
115 136 159
110 130 154
110 131 154
107 128 151
106 128 150
104 125 148
93 114 139
87 107 131
98 119 143
74 96 120
83 103 127
84 105 131
93 112 136
93 115 142
98 118 143
110 131 158
114 134 160
116 137 162
122 144 170
121 142 168
121 142 169
123 144 170
125 145 171
125 146 172
128 148 174
126 147 174
128 149 176
131 152 178
129 149 174
134 154 180
132 152 179
132 152 179
131 151 177
134 154 179
132 152 178
134 154 180
131 151 177
129 149 176
133 153 179
130 150 176
134 154 181
133 153 179
133 153 179
131 151 176
133 154 180
131 151 177
134 154 181
132 153 179
132 152 177
129 149 174
131 151 176
131 152 179
134 153 179
133 153 179
132 152 178
132 153 179
130 150 176
131 152 178
135 155 180
132 152 179
134 154 180
134 154 180
132 153 180
131 152 178
133 153 180
120 136 156
127 146 169
125 143 166
125 143 167
127 146 170
124 142 166
128 145 170
125 143 167
126 144 168
126 144 169
129 148 173
126 145 169
124 142 167
127 145 169
127 144 168
128 147 172
125 143 168
124 141 164
124 143 167
125 143 167
123 141 165
127 145 170
126 144 168
123 142 166
121 139 162
125 143 168
126 143 167
123 140 164
126 144 169
123 140 164
124 141 165
123 139 161
122 139 162
120 134 156
119 133 155
115 130 151
122 138 161
116 131 153
115 129 149
112 127 147
113 128 150
107 120 139
113 127 147
119 135 156
125 142 164
122 137 159
124 141 165
125 142 165
124 142 165
129 147 172
128 146 171
127 145 169
127 145 170
129 148 174
130 148 175
131 150 177
127 146 171
127 146 173
126 143 169
128 145 172
126 143 169
123 139 165
123 138 163
123 137 163
124 139 164
117 127 151
115 127 151
107 113 135
113 120 142
103 108 131
102 106 130
103 105 129
107 113 136
105 108 131
114 122 148
117 126 151
117 127 151
122 131 156
124 138 164
122 134 160
129 144 172
127 143 170
127 143 169
131 149 175
130 148 173
132 150 177
132 150 176
132 151 176
127 146 171
131 150 175
132 151 178
130 148 174
132 151 175
132 151 177
128 146 170
131 149 174
131 150 176
131 151 177
129 149 173
131 149 174
131 151 177
127 145 169
132 152 177
133 153 178
129 149 174
131 151 175
133 152 177
130 148 173
131 150 175
130 148 172
129 149 174
133 153 178
131 150 175
132 151 176
133 152 177
128 148 173
131 150 174
127 147 172
129 148 172
129 149 173
129 148 174
131 151 175
132 151 175
130 149 173
129 148 172
130 149 174
130 150 175
127 146 169
124 144 169
126 147 169
124 145 169
123 143 167
125 144 168
126 147 171
113 132 154
116 136 159
119 139 163
119 138 162
116 137 161
115 136 162
103 123 146
118 137 162
102 124 148
96 117 143
105 126 150
104 126 150
94 115 141
93 113 137
96 117 142
98 119 146
102 124 150
111 132 159
112 133 159
113 135 161
113 135 161
120 141 167
124 144 170
125 145 171
122 143 169
123 145 171
128 148 174
128 149 176
131 151 178
128 150 176
129 149 176
133 153 180
131 152 178
131 152 178
132 152 177
132 152 178
131 151 177
133 153 179
132 152 178
133 154 180
132 153 179
132 152 178
132 153 179
131 151 178
132 153 179
130 150 175
132 152 179
131 152 178
131 152 178
132 152 178
133 153 179
132 152 178
132 152 178
131 151 177
133 154 180
129 149 175
133 152 178
133 153 179
131 151 177
133 154 180
133 153 178
132 153 180
133 153 179
132 153 179
134 154 179
134 154 181
126 144 166
124 141 164
125 142 165
125 143 167
124 142 165
126 143 166
123 141 164
123 140 163
129 146 170
127 144 168
127 145 169
127 145 169
127 145 169
125 141 165
126 145 169
127 145 169
126 143 167
126 145 169
123 139 163
127 146 171
122 140 163
127 145 169
126 144 168
123 141 165
124 142 165
124 142 166
126 144 169
125 143 167
122 139 162
122 139 162
123 140 164
116 132 153
119 136 158
115 130 151
114 128 148
122 138 161
117 133 156
111 126 146
114 128 149
113 128 149
116 132 154
117 133 155
123 140 162
123 141 165
123 141 165
124 141 165
125 143 166
127 147 172
125 144 169
122 139 163
125 144 168
123 141 165
130 150 176
128 148 174
130 148 174
126 144 169
130 149 176
126 142 168
127 145 171
127 145 171
128 145 172
123 139 163
125 139 165
124 139 165
120 134 159
121 132 158
115 127 150
118 127 150
118 128 152
120 128 154
114 123 147
116 122 147
116 124 149
114 123 147
116 128 154
121 132 158
124 136 162
123 135 161
125 140 166
125 140 167
129 145 171
129 145 171
128 146 173
126 144 171
130 149 175
129 147 172
128 147 172
130 149 175
127 147 172
132 152 178
129 148 173
133 152 177
132 152 178
132 151 177
133 152 177
132 151 176
133 153 179
133 152 176
132 151 176
132 150 175
131 151 176
130 149 174
132 151 176
130 150 175
128 148 172
130 148 173
130 148 172
131 150 173
125 140 160
129 142 160
125 137 154
122 130 144
119 127 140
126 136 152
126 142 162
127 146 169
129 149 175
129 148 173
132 152 176
130 149 173
130 149 173
132 152 177
130 150 175
130 148 173
131 150 175
129 149 174
127 146 171
129 148 172
128 148 172
129 150 175
127 148 172
128 148 174
129 149 174
126 145 170
124 145 169
122 143 166
118 138 163
122 143 167
116 138 160
112 132 156
111 133 157
116 138 162
116 137 162
110 130 155
113 134 159
111 132 157
93 114 139
111 133 159
107 129 155
104 124 150
109 131 158
114 134 160
112 132 159
115 135 161
117 139 166
120 141 168
121 142 169
122 143 170
126 147 174
127 148 174
125 145 172
125 146 172
132 152 178
129 150 176
130 150 176
132 153 179
131 152 178
130 151 177
131 152 178
132 152 178
131 151 177
133 154 180
132 153 179
131 152 178
133 153 180
130 151 177
132 152 179
129 150 176
133 153 179
132 152 178
132 153 179
133 153 180
133 153 180
131 152 178
129 149 175
133 153 179
132 152 178
132 153 179
130 150 176
131 152 178
132 153 180
130 151 177
131 151 177
132 152 179
133 154 179
132 152 178
132 153 179
133 153 179
133 153 179
133 154 181
121 136 157
125 142 166
128 147 171
126 144 168
126 144 168
125 143 167
126 144 168
129 147 172
125 142 167
126 145 170
125 144 169
127 145 169
123 141 165
125 143 168
123 141 165
126 144 168
127 145 169
125 142 165
122 139 161
127 145 171
124 143 168
123 142 166
126 143 167
125 144 168
125 143 168
128 148 173
123 141 165
122 139 162
120 137 160
117 132 154
122 139 162
121 138 161
124 142 165
124 141 165
121 138 161
118 134 156
119 135 158
121 137 160
119 135 156
117 133 155
121 138 161
122 138 162
123 140 162
127 145 170
125 143 168
128 147 172
126 144 169
127 146 171
128 147 172
125 142 166
128 147 172
127 145 170
128 147 173
127 144 169
127 145 170
130 149 175
128 145 171
127 145 170
125 143 168
129 146 172
127 143 168
127 144 171
125 140 166
124 137 162
117 129 152
121 134 159
113 124 146
117 128 151
116 125 150
118 127 153
119 129 153
116 123 149
116 127 152
122 133 161
123 135 161
126 140 168
124 138 164
128 143 169
127 144 170
130 146 173
129 147 173
129 146 171
129 148 175
128 146 173
133 150 177
130 148 175
131 151 177
131 150 176
130 150 175
131 150 176
132 152 178
131 150 175
131 151 178
132 152 178
132 152 178
131 150 176
130 148 172
133 152 178
131 151 177
133 151 176
130 150 176
133 152 177
130 147 171
129 147 171
131 150 175
131 150 175
127 139 157
120 124 133
111 109 112
126 125 129
151 148 152
172 168 171
180 176 179
170 167 170
155 153 155
130 130 134
117 126 138
127 142 163
130 149 174
129 149 173
126 146 170
131 151 174
129 148 172
128 147 171
128 148 173
130 150 175
132 152 177
127 147 171
128 149 172
129 148 172
126 146 169
125 146 170
128 147 171
123 143 165
126 147 171
117 137 160
129 150 174
129 150 174
124 144 168
126 147 173
121 141 167
114 134 158
120 140 166
116 137 161
111 132 156
119 140 165
112 134 158
115 136 161
121 142 168
107 128 155
112 134 160
111 132 158
117 139 166
121 142 168
121 142 169
128 150 176
122 143 169
125 145 171
126 147 173
126 147 173
128 148 174
128 149 176
127 149 176
129 149 174
130 150 177
132 152 179
132 152 178
130 150 176
134 154 179
131 151 178
133 152 178
133 153 180
130 150 176
134 154 180
132 152 179
130 149 174
132 153 179
133 153 179
132 152 178
132 153 179
130 150 176
135 155 180
131 152 178
131 152 178
132 153 179
132 152 179
132 153 179
131 152 179
132 152 179
129 149 175
132 152 178
132 152 179
130 149 175
132 152 178
129 149 176
130 149 175
133 154 181
133 154 181
132 153 179
132 153 179
125 144 169
126 142 165
128 146 171
128 145 169
127 145 169
127 145 168
126 145 170
126 145 170
125 143 167
126 142 165
124 142 166
121 137 160
125 143 167
127 145 170
122 140 164
124 143 167
123 141 165
122 138 161
126 145 170
121 137 160
123 142 166
126 144 168
120 138 162
123 140 164
125 143 168
125 143 167
123 140 163
119 136 159
119 135 158
125 144 169
122 137 160
121 138 161
121 138 161
118 134 157
121 139 162
119 136 160
119 136 159
120 138 162
123 138 161
120 137 160
124 141 163
126 142 166
123 141 164
128 147 173
126 144 169
127 145 170
126 143 167
128 147 172
126 143 167
128 147 172
124 142 166
129 149 175
127 145 170
130 149 175
130 149 175
130 148 173
127 146 172
131 150 177
128 146 172
130 148 174
130 147 174
127 144 170
123 139 165
123 137 163
127 143 168
127 143 168
125 139 165
125 137 164
117 132 156
122 135 160
116 127 152
125 138 164
123 135 162
120 134 160
127 141 167
130 146 172
129 145 172
127 141 168
127 143 169
128 145 172
129 146 172
131 149 175
130 149 175
131 149 176
129 149 175
131 150 177
132 150 176
132 150 176
129 148 174
131 150 176
132 151 176
131 151 177
127 145 169
132 151 177
133 152 177
131 151 176
132 151 177
128 147 171
131 151 176
129 149 175
133 152 177
131 150 175
129 148 171
131 149 174
129 148 171
124 131 143
103 102 114
83 79 105
142 137 150
179 175 175
190 183 184
188 181 181
191 183 183
193 185 185
192 185 185
190 184 185
175 172 175
133 133 136
114 123 136
130 148 172
128 147 171
127 149 174
130 150 175
132 152 177
129 149 172
131 151 176
129 149 173
128 147 170
129 149 173
126 147 171
123 142 165
128 148 173
120 141 163
125 145 169
125 146 170
125 144 168
129 149 175
119 141 165
124 144 168
122 143 168
113 135 158
121 142 166
125 146 171
119 141 167
117 137 162
121 141 166
117 137 163
115 135 161
119 140 165
120 143 170
121 142 168
119 140 166
124 145 172
123 144 170
120 142 168
123 144 172
122 145 171
127 147 173
123 145 171
128 149 175
128 149 176
132 152 178
128 148 175
130 151 177
129 149 175
132 152 178
133 153 179
132 152 178
133 153 179
132 152 178
130 150 176
133 153 179
132 153 179
133 153 180
133 154 180
132 153 179
133 153 179
132 152 178
129 148 173
133 153 179
132 151 177
131 151 177
130 151 178
131 152 178
133 153 179
131 151 176
132 152 178
132 152 177
133 153 178
132 153 179
131 151 178
131 152 179
132 153 179
129 150 176
131 151 177
129 149 175
130 150 176
133 153 180
132 152 178
133 153 180
123 140 163
124 141 165
127 145 170
124 141 165
128 147 172
126 144 167
125 142 166
126 144 168
125 143 166
128 145 169
127 145 170
123 140 164
125 143 167
126 144 168
125 143 168
122 139 162
124 143 168
121 137 161
119 134 157
126 144 169
123 140 163
120 137 160
126 145 170
123 141 164
125 142 165
123 141 165
122 139 162
124 142 166
124 141 164
122 139 162
122 139 161
124 141 165
120 136 158
123 141 166
121 138 161
123 141 166
127 144 168
120 137 160
123 141 164
121 138 161
126 142 165
130 149 174
125 144 169
129 148 173
126 143 167
127 146 171
127 146 171
128 147 173
128 147 172
131 149 175
129 149 175
129 148 174
129 148 173
127 145 171
127 146 172
128 146 172
127 144 170
129 147 174
127 144 168
128 145 171
124 139 163
127 145 171
125 142 167
127 142 168
127 141 165
125 141 168
122 137 162
123 137 163
128 143 168
123 138 164
124 137 163
122 136 163
128 142 168
123 139 165
128 143 169
126 143 169
130 146 174
127 144 171
130 147 173
130 147 174
129 147 173
127 146 171
126 144 168
127 146 171
131 150 175
132 151 178
130 149 174
132 152 179
129 149 175
129 149 174
130 150 175
128 146 171
130 149 175
130 149 173
132 151 176
129 150 176
131 150 176
130 149 175
131 149 174
129 147 171
129 147 171
130 150 175
132 150 175
129 145 168
123 125 131
114 115 119
132 132 128
195 183 180
194 185 180
192 184 181
195 186 184
195 185 183
191 181 179
192 183 182
194 185 183
192 184 183
189 183 182
183 179 179
114 125 118
81 100 99
124 139 159
130 149 174
127 148 172
132 152 176
128 147 171
128 149 173
131 152 176
129 149 173
129 151 175
127 148 173
132 151 177
127 148 173
127 147 170
130 150 175
129 149 173
125 147 171
123 144 168
125 146 170
123 145 169
125 147 172
124 145 168
119 140 163
121 142 167
121 142 165
124 145 170
117 143 166
100 145 159
80 152 157
68 152 154
44 158 154
49 159 155
45 158 154
48 159 156
51 155 153
74 153 159
86 150 160
107 149 167
122 146 171
128 149 175
123 145 172
130 151 177
126 147 173
125 146 173
124 145 172
132 151 177
131 151 177
130 150 177
132 153 179
133 153 179
133 153 180
133 153 180
130 150 177
132 152 178
130 150 176
134 154 181
132 152 178
131 151 177
133 153 179
132 152 178
133 153 180
132 152 179
128 148 174
133 153 180
132 152 178
132 152 178
134 154 180
131 151 177
135 155 181
130 150 175
133 153 179
132 152 179
132 152 179
129 148 174
131 151 178
131 151 178
131 152 178
130 151 177
130 151 178
132 152 179
133 154 180
122 140 163
124 140 164
126 144 168
127 145 169
129 148 173
126 144 169
126 144 169
126 143 167
123 139 162
122 140 163
123 141 165
126 145 170
123 140 164
127 144 168
125 143 168
125 144 169
127 145 169
122 139 161
125 143 166
125 143 168
125 142 167
122 139 162
124 142 166
123 140 163
124 143 167
122 139 163
124 142 166
123 140 164
116 131 152
126 145 169
126 145 170
123 139 162
124 141 164
124 141 163
125 143 168
121 139 162
123 142 166
123 140 164
125 143 167
126 144 168
127 145 169
125 142 165
125 143 167
125 144 169
126 145 169
128 146 171
126 144 169
129 147 173
124 141 164
130 149 175
129 148 174
126 145 170
132 153 179
126 145 170
129 147 174
129 148 174
128 146 172
124 141 166
129 147 172
131 147 173
128 146 171
124 141 165
127 144 169
127 141 168
125 141 168
124 141 167
129 145 171
125 141 167
128 144 171
125 141 167
123 140 166
124 139 164
128 147 172
126 143 170
128 145 171
129 146 173
132 149 176
128 147 174
127 145 171
129 148 175
127 146 172
127 146 172
130 148 175
130 150 176
130 149 175
131 150 176
131 150 176
131 151 177
133 151 176
130 149 175
130 148 172
130 149 174
131 151 177
131 151 176
129 148 173
130 148 173
131 150 176
131 150 175
130 148 173
132 152 177
132 150 175
131 150 175
129 146 170
124 126 132
114 115 119
135 133 131
203 191 186
198 188 186
194 186 186
192 186 186
190 185 186
191 185 186
191 184 183
196 187 186
198 188 186
198 188 186
196 186 184
195 187 185
186 181 181
106 126 115
47 77 62
115 129 143
130 150 175
130 150 175
130 150 175
127 147 172
130 149 174
132 153 178
126 146 170
129 150 174
127 148 173
125 146 169
123 143 167
128 148 172
127 147 171
124 145 168
126 147 173
125 145 169
117 139 164
123 144 167
122 143 167
124 145 169
122 143 166
118 146 168
78 147 152
39 157 149
33 161 153
33 162 154
33 160 153
33 161 154
33 159 153
33 160 154
32 160 154
32 160 154
33 162 156
32 160 155
32 160 155
35 161 156
66 158 160
97 153 166
121 151 174
128 148 174
128 148 174
129 150 177
131 151 178
127 147 173
132 152 179
133 153 180
133 153 179
131 150 176
131 150 177
133 154 180
131 151 177
131 151 178
131 152 180
130 151 176
129 149 175
133 153 179
132 152 177
131 151 178
134 154 180
131 151 177
133 152 178
132 153 180
130 151 177
133 154 181
130 150 176
131 152 179
134 154 180
131 151 177
133 153 178
132 152 178
135 155 181
129 150 176
133 153 179
132 152 178
131 152 178
132 152 178
132 152 178
133 153 179
122 139 163
123 141 165
125 143 166
126 143 166
121 137 160
126 143 167
123 140 163
121 138 161
124 141 165
122 138 161
119 134 156
126 143 167
120 135 158
122 140 164
121 137 159
121 137 160
126 143 168
124 142 165
125 142 166
126 143 167
123 141 165
124 142 166
127 146 170
126 143 166
121 139 163
126 144 168
122 140 165
125 142 166
120 136 159
124 141 165
124 141 165
123 140 163
122 140 165
125 143 167
127 145 170
125 143 168
125 144 169
125 142 166
128 146 171
125 142 166
131 152 178
125 143 168
125 144 169
128 147 171
129 148 173
128 148 173
127 146 171
129 147 173
128 145 171
127 145 170
129 147 174
127 145 171
130 149 175
129 147 171
130 149 175
127 145 170
126 144 170
128 146 172
131 150 177
126 144 169
128 146 172
129 146 172
129 148 175
129 148 175
127 146 171
129 148 174
129 145 173
129 145 172
125 141 166
128 145 170
124 139 164
127 145 172
126 143 169
124 139 165
127 143 170
128 146 172
126 144 169
130 149 176
130 148 175
129 149 175
127 146 171
127 147 173
130 149 174
131 149 175
133 153 179
131 151 177
128 146 171
126 146 171
129 149 175
129 148 174
132 151 176
131 149 174
132 150 175
131 151 177
128 147 172
128 147 171
130 151 177
132 152 178
130 149 174
128 147 172
131 149 174
130 148 171
125 128 137
120 122 126
131 129 130
202 190 185
198 188 186
193 186 186
189 184 186
186 183 186
183 182 186
180 180 186
176 178 186
176 178 186
182 181 186
189 184 186
193 186 186
198 188 186
195 186 183
180 175 174
126 132 124
48 82 66
112 122 135
130 149 174
131 151 176
129 149 174
128 149 173
127 147 172
130 150 174
128 147 172
129 150 174
130 151 176
123 145 168
127 148 173
126 147 171
126 147 170
131 151 176
126 147 171
122 143 167
124 144 168
122 143 168
126 147 172
108 147 163
49 149 145
32 155 147
33 160 153
32 157 150
33 162 155
33 161 154
33 162 155
33 162 156
33 161 155
33 161 155
33 162 156
33 162 156
32 160 155
33 162 157
33 162 157
33 161 156
32 160 156
33 161 156
66 158 160
106 155 170
128 150 175
131 152 178
130 151 178
130 150 177
132 153 179
130 150 177
129 150 177
132 152 178
132 152 178
131 151 178
132 152 177
131 152 179
133 153 180
130 151 177
133 154 180
132 152 178
129 149 176
132 153 180
133 153 180
133 153 179
132 153 179
132 152 178
132 153 179
133 153 178
130 150 176
133 153 180
131 151 177
133 153 180
131 151 177
129 149 175
132 152 179
131 152 178
131 152 178
131 151 177
133 154 180
129 149 175
134 154 180
123 139 162
128 146 171
126 144 168
123 141 165
121 138 160
124 142 167
124 141 164
125 143 168
125 142 166
124 141 165
120 135 157
125 143 168
122 139 162
123 140 164
128 146 170
124 141 164
126 144 168
124 142 166
123 142 166
123 141 165
123 141 165
122 138 162
123 141 164
124 140 164
122 140 163
122 139 163
123 139 162
123 140 163
124 141 165
128 147 172
121 138 161
125 144 169
124 142 166
124 142 166
124 141 164
124 142 166
122 140 163
124 142 167
125 143 167
128 148 173
126 143 167
127 145 170
130 150 176
123 141 166
126 144 169
130 150 176
128 147 173
125 144 168
127 145 170
128 148 174
130 149 175
130 149 175
132 151 178
127 145 170
128 145 169
128 148 174
130 150 176
126 144 169
128 146 173
131 149 176
127 144 170
128 144 170
128 146 172
124 140 165
125 143 168
128 145 171
128 146 172
126 142 167
128 144 169
126 143 168
126 142 167
129 147 174
126 144 169
125 143 168
127 144 170
126 144 170
130 147 174
127 146 171
125 142 167
131 150 177
130 149 175
132 150 176
131 149 175
131 150 176
134 153 179
132 151 177
129 147 173
130 150 175
131 150 177
132 151 177
132 151 177
132 150 175
127 146 170
128 147 172
131 151 177
130 148 173
130 150 175
129 149 174
131 150 176
129 146 170
129 146 170
124 133 148
124 123 128
75 99 82
176 174 163
199 189 186
194 187 186
190 185 186
186 183 186
183 181 186
180 180 186
179 179 186
178 179 186
176 178 186
175 178 186
174 178 186
177 179 186
185 182 186
192 186 186
198 189 186
201 190 186
152 156 155
52 79 86
116 129 146
127 147 171
129 149 174
128 148 173
125 147 171
128 149 173
129 149 174
129 149 174
128 149 175
121 142 165
129 149 174
125 146 170
122 144 167
125 147 171
122 143 167
123 143 167
123 145 169
126 147 171
110 148 164
42 149 143
33 158 149
33 157 149
32 155 148
33 160 153
32 156 149
33 157 150
33 160 154
32 158 151
33 162 157
33 159 154
32 159 154
32 160 155
33 161 156
33 161 156
33 161 156
32 160 156
32 160 155
33 161 157
33 161 157
32 158 154
44 161 157
94 154 165
128 152 177
131 152 178
131 152 178
131 151 177
131 151 177
132 153 180
132 152 178
131 152 178
134 154 180
132 153 179
131 152 178
131 151 178
133 153 180
131 152 178
130 151 177
134 154 181
131 152 179
129 150 176
132 152 179
133 153 179
132 152 179
134 154 180
131 151 178
131 151 177
132 153 179
130 150 176
133 153 180
131 150 176
131 152 178
133 153 180
132 152 179
131 152 179
132 152 179
133 153 180
132 153 179
125 143 167
123 141 164
128 147 171
126 144 169
123 141 164
124 142 167
120 136 158
115 130 151
127 145 170
125 142 166
125 143 168
124 140 163
125 143 168
126 144 169
126 145 170
125 143 166
123 140 163
126 145 168
122 140 164
125 143 167
124 142 166
127 145 170
122 139 161
124 141 164
122 138 160
121 139 162
122 138 161
126 143 167
126 144 168
126 144 168
118 134 156
122 139 163
127 144 169
124 142 166
127 146 170
126 144 168
127 146 172
126 144 168
126 144 169
127 146 171
129 149 174
125 144 169
128 147 173
126 143 166
129 148 173
128 146 171
128 145 170
128 147 172
129 149 174
128 146 171
127 145 171
126 145 170
129 147 172
129 148 173
129 149 175
129 148 174
128 147 172
129 147 172
126 143 168
128 145 170
128 145 171
126 143 168
129 147 173
127 145 172
124 141 166
127 145 172
129 146 172
130 148 174
128 146 173
127 144 170
127 144 170
124 143 168
127 146 172
130 149 176
130 150 176
129 147 173
127 146 172
128 147 172
129 147 174
131 151 177
131 150 176
130 150 176
129 147 173
131 151 177
129 149 174
131 151 176
130 149 175
132 150 176
131 151 176
132 152 177
129 149 174
131 150 175
131 151 177
129 149 175
132 152 178
132 151 175
128 146 170
128 144 167
129 148 172
129 147 170
131 149 172
120 120 126
125 119 127
170 155 160
202 191 186
196 188 186
191 185 186
187 183 186
183 181 186
180 180 186
177 179 186
176 178 186
175 178 186
175 178 186
175 178 186
177 179 186
179 179 186
182 181 186
185 182 186
190 185 186
195 187 186
201 190 186
112 129 142
70 88 100
120 136 152
129 149 173
126 145 168
129 150 175
129 149 172
123 144 167
122 144 167
124 143 167
126 146 169
123 143 166
128 148 172
125 146 170
124 146 169
125 147 170
125 146 171
124 144 168
116 145 165
47 143 138
32 150 143
33 156 148
31 149 141
33 158 151
32 154 146
33 159 152
32 156 149
33 159 152
33 160 153
33 160 154
33 159 153
32 159 153
33 160 154
32 160 155
33 161 156
32 161 157
32 160 155
33 161 156
32 160 156
32 161 157
32 161 156
32 161 157
32 161 157
43 159 156
101 156 169
126 149 175
130 151 178
134 154 181
131 151 177
130 150 176
130 150 176
132 152 179
132 153 179
132 152 178
131 151 178
133 153 180
132 152 178
132 152 178
133 153 180
133 153 180
130 150 175
132 152 178
131 151 177
131 151 177
133 154 180
132 152 179
133 153 179
133 153 179
131 151 177
131 151 178
132 152 178
128 148 173
133 153 180
132 152 178
130 150 175
133 153 179
131 151 176
133 153 180
125 143 167
124 141 164
125 142 165
121 136 158
123 141 164
126 144 168
123 139 161
117 131 152
123 139 163
123 141 165
126 144 169
125 143 168
121 138 161
125 143 166
121 136 159
123 141 164
120 138 162
122 140 164
123 140 164
127 144 167
125 142 166
120 136 159
123 140 163
125 143 167
123 140 164
127 145 169
124 141 165
127 146 170
125 142 165
121 138 161
125 144 170
122 139 162
124 141 164
123 141 165
123 140 164
128 146 171
129 147 171
123 141 164
126 145 169
129 150 176
127 145 170
125 143 168
128 147 173
127 145 169
125 143 168
129 148 173
129 148 173
127 146 171
130 149 174
129 149 175
129 149 175
129 147 172
128 146 170
128 146 172
125 143 167
126 144 170
129 147 172
130 148 174
125 142 167
125 142 167
129 147 173
128 145 171
131 150 177
129 146 172
128 147 172
125 142 167
129 148 174
131 149 176
128 147 173
126 145 170
129 146 173
125 143 169
127 145 171
127 144 169
129 149 176
131 148 175
129 149 175
128 146 171
132 152 178
126 144 169
130 148 174
129 149 175
130 150 176
129 147 171
128 147 173
126 144 169
131 150 176
131 152 178
130 149 175
130 150 176
130 148 172
128 147 172
128 147 172
131 150 175
130 149 174
127 145 169
129 147 173
128 146 170
131 151 176
129 147 171
127 135 148
120 117 123
153 134 151
188 172 181
200 190 186
194 187 186
189 184 186
185 182 186
181 180 186
178 179 186
175 178 186
174 177 186
173 177 186
172 177 186
173 177 186
174 177 186
176 178 186
179 179 186
182 181 186
186 183 186
191 185 186
197 188 186
195 185 182
71 105 125
93 103 113
128 147 170
127 147 170
125 146 170
127 148 173
124 145 168
126 148 173
121 143 165
119 142 164
127 149 174
123 145 168
122 142 165
121 143 166
119 141 163
121 142 165
120 142 165
81 141 147
30 144 136
32 152 143
32 152 142
32 152 145
32 154 147
32 155 148
32 156 149
33 158 152
32 158 151
32 156 151
33 159 154
33 161 155
32 156 151
32 159 154
32 159 153
32 160 155
32 161 156
33 161 156
32 161 157
33 161 157
32 160 157
32 160 156
32 161 157
32 161 157
32 161 157
32 161 157
47 161 158
117 152 171
132 152 178
132 152 178
130 150 177
131 150 176
132 153 180
132 153 179
133 153 179
131 151 177
135 155 181
132 153 179
131 150 176
132 153 180
133 153 178
131 150 176
133 154 181
133 154 180
129 150 176
131 152 178
133 153 179
130 151 177
133 153 179
133 153 179
132 152 177
133 153 179
130 150 177
129 149 175
133 152 179
130 150 176
132 152 177
132 152 178
132 152 178
123 140 164
122 140 163
121 139 162
123 140 163
123 141 165
124 143 167
122 140 164
125 143 166
124 141 164
122 140 164
123 140 164
126 145 170
119 136 158
119 134 156
125 143 167
123 141 165
125 144 168
126 144 169
125 144 168
125 143 167
123 140 162
129 148 173
126 144 169
124 142 166
128 146 171
125 143 167
122 139 163
122 138 161
123 140 164
123 141 165
122 138 161
126 143 168
121 139 163
124 142 166
124 141 164
122 141 165
125 143 168
128 147 172
127 145 170
127 145 170
121 138 162
128 147 173
127 145 168
129 148 174
127 146 170
126 143 166
131 150 177
125 143 166
126 143 168
128 147 172
130 150 176
128 146 172
129 149 175
127 146 171
129 148 174
129 148 174
128 146 171
129 148 174
128 147 173
129 146 171
127 144 169
128 145 170
128 147 173
127 145 169
130 148 173
129 148 173
128 146 172
133 153 180
129 148 174
127 144 169
126 143 168
127 145 171
126 145 171
130 149 174
126 144 168
129 147 173
131 150 176
131 150 176
131 150 176
128 148 173
129 149 175
128 146 171
128 147 173
132 152 177
130 149 174
130 150 176
129 148 172
129 148 173
131 151 177
129 148 173
129 148 173
130 148 173
130 149 174
128 147 172
130 149 175
129 147 171
131 149 173
130 149 174
127 145 168
130 147 170
123 125 132
111 101 112
165 141 160
196 181 184
198 189 186
192 186 186
188 184 186
184 182 186
180 180 186
177 179 186
174 177 186
172 177 186
171 176 186
171 176 186
171 176 186
172 177 186
174 177 186
176 178 186
179 180 186
183 182 186
188 184 186
193 186 186
199 189 186
176 164 160
62 87 105
116 124 135
123 143 167
124 145 168
125 146 170
124 146 170
126 147 170
123 144 167
124 145 169
125 147 171
121 142 165
118 139 161
119 141 164
120 143 164
123 146 170
119 141 164
42 140 133
29 139 131
32 154 145
32 150 141
32 151 143
32 155 147
32 151 144
32 156 149
32 153 146
32 156 149
32 156 150
32 158 151
32 156 149
32 156 151
32 157 152
33 162 157
32 159 154
32 161 156
32 160 155
32 158 154
32 160 155
32 160 156
32 160 157
32 161 157
32 161 157
32 161 157
32 161 157
32 160 156
32 161 157
72 158 162
122 153 173
129 150 176
132 153 179
132 153 178
133 154 180
132 152 178
133 153 179
132 152 178
131 151 176
133 153 179
133 153 179
131 152 178
131 151 177
132 152 177
133 153 179
130 150 176
132 153 179
134 154 181
130 150 175
132 152 178
133 154 180
130 149 175
133 153 180
133 153 179
132 153 178
133 153 179
132 152 178
131 151 177
131 151 178
131 152 178
121 138 161
122 140 163
123 141 164
120 135 158
126 143 167
121 138 162
123 139 162
121 138 162
120 136 159
121 138 161
121 137 158
122 139 162
122 140 163
126 144 168
123 139 162
125 143 167
125 144 169
126 144 168
126 145 170
123 141 164
121 138 161
120 136 159
122 138 161
127 146 170
126 143 167
124 141 165
126 144 168
128 146 171
122 140 164
125 143 167
122 139 162
123 141 166
124 143 167
125 142 166
127 145 169
124 142 165
130 149 175
125 143 168
126 144 168
127 145 170
126 143 167
125 143 168
129 148 174
128 148 174
126 143 168
123 140 164
128 148 174
127 145 169
126 145 170
127 146 172
128 148 174
128 147 173
128 147 172
127 144 169
127 146 170
128 146 172
127 145 170
128 147 174
128 145 170
127 145 170
129 148 174
128 146 171
129 147 173
128 146 172
128 147 173
128 147 172
132 151 177
128 146 171
127 145 171
129 148 174
126 144 169
123 141 166
128 146 172
125 145 170
130 150 176
130 149 176
130 150 177
131 150 176
126 145 170
130 150 176
129 149 176
127 145 171
129 149 174
129 149 174
130 149 174
130 149 174
131 150 175
128 148 174
131 150 176
129 149 174
131 150 175
132 151 176
129 147 170
128 148 173
128 147 171
130 149 174
130 148 172
130 148 172
124 139 160
124 137 155
121 121 126
102 88 102
155 128 139
203 191 186
198 188 186
192 186 186
187 183 186
182 181 186
179 180 186
176 178 186
173 177 186
172 176 186
171 176 186
170 176 186
170 176 186
171 176 186
173 177 186
175 178 186
178 179 186
181 181 186
185 182 186
190 185 186
196 188 186
202 191 186
122 120 125
113 115 121
122 137 157
128 149 172
119 142 164
125 146 169
126 146 171
114 136 157
121 142 164
119 140 162
121 142 165
116 138 160
116 138 159
119 140 162
123 143 165
102 140 154
29 139 131
30 143 134
32 151 140
31 146 136
31 149 140
32 149 140
32 152 144
31 149 141
32 156 148
32 156 148
32 154 147
32 155 149
32 156 150
33 159 152
32 158 152
32 157 152
32 156 151
32 159 154
32 160 155
32 159 155
32 159 154
32 160 155
32 159 155
32 160 157
32 161 157
32 160 156
32 160 156
32 160 157
32 161 157
33 161 157
41 161 157
99 156 167
129 153 178
130 150 176
132 152 178
133 153 179
131 152 179
132 152 179
131 151 177
132 152 178
132 153 179
130 150 176
131 152 179
131 151 178
131 152 178
128 148 174
131 151 177
134 154 180
131 151 177
133 153 179
132 152 178
130 151 176
130 151 177
132 153 179
132 151 176
133 153 179
133 153 179
132 152 178
132 152 179
132 152 178
125 143 167
126 144 169
123 141 165
122 137 160
125 142 165
120 137 160
124 142 166
122 138 161
120 137 159
122 140 163
121 137 160
124 141 164
122 139 161
122 137 159
122 139 162
124 141 165
124 142 166
123 139 162
123 140 164
125 143 166
125 143 166
122 139 162
126 143 167
124 143 167
124 142 165
125 144 168
124 142 165
127 145 169
122 139 163
128 147 173
123 140 164
128 147 172
120 138 162
124 141 165
124 142 166
128 146 171
123 142 165
125 142 166
125 144 168
127 145 170
129 148 174
124 142 167
128 145 168
128 146 171
125 143 168
128 147 174
127 146 171
124 140 164
127 147 172
126 145 170
127 146 171
126 144 168
128 146 171
127 145 169
127 145 170
127 146 171
127 146 172
127 146 171
130 149 176
129 148 173
128 147 173
128 146 172
129 148 174
127 145 170
129 149 175
130 149 176
126 143 168
129 147 173
129 148 174
127 146 172
127 146 172
124 143 168
127 147 172
130 149 175
128 148 175
130 148 173
128 147 173
130 149 175
127 146 172
130 150 176
128 147 172
131 151 177
130 149 175
130 150 176
131 150 176
130 150 175
127 145 169
130 149 174
129 149 174
129 147 171
130 148 172
131 150 175
130 149 175
130 148 173
131 149 173
129 148 172
129 148 172
126 143 166
125 143 167
124 131 144
121 120 126
106 95 107
172 166 170
203 191 186
197 188 186
191 185 186
187 183 186
183 181 186
179 179 186
176 178 186
173 177 186
171 176 186
170 176 186
170 175 186
170 175 186
170 176 186
172 176 186
174 177 186
176 178 186
180 180 186
184 182 186
188 184 186
193 186 186
199 189 186
185 175 172
110 115 119
117 122 128
126 145 168
124 146 168
124 145 167
126 148 171
123 143 167
120 142 164
123 143 168
118 139 161
113 136 157
118 139 160
113 136 156
115 138 159
81 136 143
29 137 127
30 142 132
31 147 137
31 148 140
30 144 136
31 149 141
31 147 139
32 152 144
32 155 147
32 154 146
32 156 149
32 156 149
33 159 152
32 157 151
32 158 151
32 158 153
32 159 154
32 156 151
32 159 154
32 159 154
32 161 157
33 161 156
32 159 154
32 159 155
32 159 155
32 161 157
32 160 157
32 160 157
33 161 157
32 161 157
33 161 157
32 161 157
65 160 161
121 149 172
132 153 179
132 152 179
129 150 175
132 152 178
132 153 179
133 153 180
133 154 180
131 151 178
131 152 178
134 154 181
132 152 178
131 152 178
130 150 176
132 152 178
131 152 178
130 150 176
133 153 179
132 153 179
131 151 178
129 149 175
132 153 180
131 151 177
132 152 179
132 153 179
132 152 178
133 153 180
122 140 163
121 139 163
114 130 151
123 140 163
121 137 160
122 138 160
125 143 167
123 140 164
122 138 161
125 143 167
117 132 154
122 138 162
125 143 167
125 143 167
122 140 163
126 144 168
125 143 167
124 140 163
125 142 166
126 144 168
123 140 164
123 141 165
125 143 167
125 144 169
126 143 167
125 142 167
125 144 168
119 136 159
127 146 171
123 140 163
123 141 165
128 146 170
126 144 168
127 145 170
129 146 171
124 143 167
124 141 165
128 147 173
129 148 173
128 146 171
129 147 171
126 145 169
126 144 168
128 147 172
130 149 174
129 147 173
130 149 174
126 144 168
129 148 174
128 147 173
128 148 173
125 144 169
128 146 171
127 146 171
127 144 169
128 145 172
128 146 172
127 145 169
130 149 175
128 145 171
127 145 169
129 147 173
129 149 174
128 147 172
127 145 171
130 149 174
129 148 174
130 149 175
129 147 173
128 147 172
127 147 173
130 150 176
128 145 169
130 150 176
129 148 173
126 145 170
127 145 170
128 147 174
128 147 173
126 144 170
128 148 173
128 148 173
131 150 175
131 150 176
130 149 175
130 150 175
126 144 169
130 150 175
130 150 176
131 150 177
128 147 172
128 146 170
127 144 168
130 149 174
130 149 173
129 146 169
123 141 165
123 139 159
123 138 158
120 123 131
119 117 122
109 107 111
175 167 167
202 191 186
197 188 186
192 186 186
187 183 186
183 181 186
179 180 186
176 178 186
174 177 186
172 176 186
170 176 186
170 175 186
170 175 186
170 176 186
171 176 186
173 177 186
176 178 186
179 179 186
182 181 186
186 183 186
192 185 186
197 188 186
202 189 185
78 125 114
89 120 114
124 139 157
124 145 168
120 142 164
123 144 167
121 142 165
115 137 159
119 141 164
112 134 155
117 139 161
107 131 150
108 131 149
108 131 151
66 127 128
27 129 120
30 145 137
29 134 125
30 141 131
31 146 137
31 148 139
31 149 140
32 155 146
31 149 141
31 151 144
32 155 147
30 147 141
31 153 148
32 157 150
32 156 150
32 154 148
32 158 153
32 159 153
32 156 152
32 158 154
32 159 154
32 160 155
32 161 156
32 160 156
32 161 157
32 159 154
32 161 157
32 160 156
32 160 157
32 161 157
32 160 157
32 161 157
33 161 157
41 161 158
102 156 168
132 152 179
132 152 179
131 151 178
131 151 177
132 151 177
133 153 179
132 152 178
129 151 177
131 152 179
131 152 178
132 152 179
133 153 179
133 153 180
130 151 177
130 151 177
132 152 177
133 154 180
132 152 179
131 152 178
134 154 181
129 149 175
131 152 178
129 149 175
130 150 177
131 151 176
119 135 157
120 137 160
122 138 161
124 141 164
121 136 158
123 140 163
120 137 159
123 140 164
124 141 164
122 138 161
122 140 163
125 144 169
124 141 164
124 142 166
126 143 167
123 139 162
123 140 164
122 139 163
123 140 163
124 142 167
126 143 167
125 142 166
125 142 165
127 145 168
122 139 161
122 138 161
124 142 166
122 140 163
121 138 162
127 145 170
124 141 164
128 146 170
124 142 166
124 141 165
126 144 168
124 142 166
127 145 169
126 143 168
127 145 171
124 142 167
127 146 171
128 145 170
130 149 174
131 149 174
129 148 173
129 149 174
129 148 173
126 144 168
129 148 174
128 148 174
128 146 171
129 148 174
128 146 170
125 144 169
130 148 174
128 146 171
129 146 172
128 147 172
128 146 171
130 149 175
128 148 174
127 145 171
131 151 176
130 148 174
129 147 173
127 145 171
128 146 171
131 150 175
131 150 176
130 149 176
131 152 178
132 152 178
129 148 173
129 149 175
131 150 176
128 147 172
128 146 171
129 149 174
126 145 170
125 144 170
129 148 174
128 147 172
129 148 174
131 150 175
128 147 172
127 147 172
130 149 174
129 148 173
130 147 172
129 149 174
131 149 174
129 149 174
129 148 173
127 145 168
131 149 172
128 145 169
128 146 169
126 144 168
125 141 163
121 122 127
118 117 122
116 115 120
126 120 117
203 191 186
197 188 186
192 186 186
188 184 186
184 182 186
180 180 186
177 179 186
174 178 186
172 177 186
171 176 186
170 176 186
170 176 186
171 176 186
172 176 186
173 177 186
176 178 186
178 179 186
182 181 186
186 183 186
190 185 186
196 187 186
201 190 186
89 143 127
32 120 101
97 116 117
121 142 164
116 138 160
122 142 165
118 138 159
116 139 160
118 140 162
112 135 155
104 130 149
107 131 150
112 135 155
113 134 155
68 124 128
27 128 120
28 132 123
29 138 129
29 138 128
31 146 136
30 141 131
30 143 135
31 149 140
33 157 149
30 144 136
32 151 144
31 152 146
32 155 147
32 154 147
32 156 150
32 159 153
32 157 150
32 159 154
32 159 153
32 159 154
32 158 153
32 158 154
32 157 152
32 160 156
32 160 156
33 161 156
32 160 156
32 161 157
32 161 157
32 159 156
32 160 156
32 161 157
33 162 157
33 162 157
33 161 156
95 154 166
129 150 176
131 152 178
133 153 179
133 153 179
132 153 179
131 152 179
133 153 179
134 154 180
133 153 179
130 150 176
131 151 177
131 151 177
133 154 179
131 151 177
131 151 177
129 149 174
132 152 178
132 152 178
133 153 178
132 152 178
130 150 176
132 152 179
132 152 178
131 151 177
124 141 164
123 140 163
119 135 158
129 147 173
125 143 168
124 141 165
123 140 163
120 135 157
124 142 167
121 137 159
124 141 164
121 139 162
120 137 159
117 131 151
119 134 156
124 142 166
122 139 163
120 137 158
124 142 166
125 143 167
123 141 164
129 148 173
119 135 157
125 143 166
124 142 167
128 146 171
125 143 168
125 144 168
122 139 162
128 146 170
120 136 159
124 141 165
128 148 173
120 137 161
126 144 169
124 141 164
128 146 170
128 145 169
125 144 169
128 148 173
128 146 171
127 145 170
128 147 172
126 144 169
127 145 170
128 147 172
126 144 169
127 145 170
128 148 173
129 148 174
126 144 170
128 146 172
128 146 172
125 142 166
126 143 169
130 150 176
127 145 170
131 151 177
129 147 173
125 143 168
131 149 176
130 149 175
129 149 175
128 147 172
130 149 175
130 148 174
129 148 173
131 149 175
130 149 175
129 149 175
130 148 174
130 148 174
129 147 173
128 147 172
127 146 172
128 147 172
125 145 171
126 145 171
127 147 172
131 150 176
131 150 176
129 148 174
128 147 172
129 149 175
126 145 171
126 144 169
130 150 176
131 151 177
131 151 176
131 151 177
127 146 171
125 142 165
126 144 167
129 148 173
127 144 167
125 142 166
128 145 168
126 143 166
125 140 161
122 122 126
121 121 126
117 115 118
138 142 131
203 191 186
198 188 186
193 186 186
189 184 186
185 182 186
181 181 186
178 179 186
176 178 186
174 177 186
172 177 186
171 176 186
171 176 186
172 176 186
172 177 186
174 177 186
176 178 186
178 179 186
182 181 186
185 182 186
190 185 186
195 187 186
200 190 186
119 152 140
29 118 98
53 107 95
116 135 154
122 144 167
123 144 166
119 140 161
116 138 159
113 135 155
119 142 164
107 130 150
111 134 154
107 131 150
101 125 142
73 126 132
27 128 119
29 136 127
29 136 126
29 137 126
30 141 132
30 146 136
30 142 131
31 147 138
31 150 144
30 144 136
33 155 147
31 149 141
32 156 149
32 153 146
31 151 145
31 152 146
32 155 149
33 158 152
32 158 153
32 158 152
32 156 151
32 160 155
32 157 151
32 160 155
32 159 154
32 159 154
32 161 157
32 160 156
32 161 157
32 160 156
33 161 157
32 161 157
32 160 156
33 161 156
33 162 157
33 161 156
68 157 160
129 153 178
131 151 178
132 153 179
132 152 178
131 151 178
134 154 180
133 153 179
134 154 180
131 151 177
131 152 178
132 153 179
130 150 176
130 151 177
133 152 178
133 153 179
130 150 176
133 153 179
131 151 178
131 151 177
129 148 174
132 153 180
133 154 181
131 151 177
125 141 164
125 142 165
124 141 165
120 137 160
124 141 164
122 138 161
119 134 156
121 137 159
119 135 157
125 143 167
126 144 168
124 142 166
124 142 166
126 144 167
129 149 174
122 139 163
126 143 167
125 143 168
126 142 166
125 144 168
126 144 167
121 137 160
125 142 166
123 141 164
123 141 164
125 145 170
123 140 164
126 144 169
124 142 166
125 142 166
120 137 160
123 140 163
123 140 164
127 146 171
127 145 169
127 146 170
127 144 169
128 146 171
125 143 167
127 146 171
128 148 173
128 146 171
129 148 174
124 140 164
130 149 174
127 146 170
128 147 173
126 145 170
127 146 172
127 146 171
128 148 173
127 145 170
130 149 175
129 148 173
127 146 172
130 150 176
131 150 176
128 145 170
128 146 171
128 147 172
127 146 172
130 150 176
130 149 175
131 150 177
131 151 178
128 146 172
128 146 170
130 149 174
131 150 175
130 151 177
130 150 175
129 147 172
129 147 173
130 150 176
126 145 170
128 146 171
126 146 171
128 147 171
132 152 178
128 148 174
129 149 175
127 146 171
128 147 173
128 147 173
128 148 173
131 151 177
128 146 171
127 146 171
127 145 169
125 143 167
127 145 169
126 144 169
130 148 172
128 146 170
127 144 168
125 142 165
124 140 162
125 141 162
121 132 149
122 123 128
123 123 128
116 115 120
123 117 110
201 189 183
193 182 178
136 115 107
132 109 99
173 166 167
182 181 186
180 180 186
177 179 186
175 178 186
174 177 186
173 177 186
172 177 186
173 177 186
173 177 186
175 178 186
177 178 186
179 180 186
182 181 186
185 183 186
189 184 186
194 187 186
199 189 186
117 150 138
29 120 100
29 113 95
102 120 131
122 143 166
118 140 160
114 137 157
116 138 161
111 131 151
113 135 155
106 129 148
112 134 154
105 129 148
104 126 144
58 116 117
25 116 105
28 129 118
29 134 124
30 142 131
29 132 124
30 140 130
30 142 133
30 142 133
31 149 140
31 150 142
32 151 143
31 150 143
31 148 141
32 155 148
32 155 149
31 150 143
32 157 151
32 154 148
32 154 149
32 158 153
32 155 150
33 160 154
31 153 148
33 161 156
32 159 154
32 156 151
32 160 156
32 159 154
32 157 153
32 158 154
33 162 157
32 161 157
32 160 156
33 161 157
32 161 156
33 162 157
33 162 157
63 161 161
127 153 177
132 152 178
132 152 178
129 150 176
133 154 180
133 153 179
130 151 177
132 152 179
131 152 178
133 154 180
133 153 179
129 149 175
131 151 177
134 154 180
132 152 178
131 151 178
132 153 180
132 152 178
131 151 176
130 151 177
132 153 179
133 153 180
120 137 160
121 138 161
121 138 162
120 134 155
123 141 164
125 143 167
122 141 165
122 139 161
124 141 164
121 139 162
125 142 164
124 141 164
125 142 166
123 140 163
123 140 163
123 139 162
125 143 166
125 142 165
123 139 162
126 143 167
124 141 165
124 141 165
126 144 168
125 142 165
122 138 160
126 144 168
122 138 161
125 144 168
122 139 162
126 144 169
124 141 165
127 146 170
126 144 168
126 144 169
125 142 166
126 143 166
131 151 177
127 146 171
124 143 167
125 143 168
128 147 173
125 143 167
125 143 167
130 149 174
129 149 175
128 147 173
126 144 168
125 143 167
128 146 170
128 147 172
129 148 173
127 146 171
129 147 173
127 145 170
129 148 173
128 146 172
131 149 175
129 147 172
129 147 173
131 150 175
129 147 173
129 147 172
129 148 173
128 146 171
128 146 171
131 150 176
128 146 172
132 151 176
129 149 174
129 148 174
131 151 178
129 147 172
131 150 175
129 147 172
127 146 172
126 146 171
131 152 178
129 148 173
128 148 174
131 151 177
128 147 172
129 148 174
127 147 173
127 146 171
130 149 175
128 147 172
129 149 175
131 150 176
129 148 173
131 149 174
130 148 172
130 148 173
128 146 170
127 145 169
128 146 171
131 148 172
127 143 165
124 140 161
124 135 152
116 116 121
122 122 128
116 116 121
120 110 108
189 172 165
137 118 109
95 65 46
100 68 48
110 79 61
171 165 166
181 181 186
179 180 186
177 179 186
176 178 186
175 178 186
174 177 186
174 177 186
175 178 186
176 178 186
178 179 186
180 180 186
183 181 186
186 183 186
189 184 186
194 187 186
199 189 186
142 162 152
29 121 101
28 114 94
72 107 101
117 138 159
117 136 157
116 137 159
110 133 153
109 132 151
108 132 150
106 132 150
102 127 143
103 126 144
101 126 143
81 119 128
24 113 104
27 125 114
28 126 114
27 124 112
29 132 120
29 137 127
29 137 127
32 148 138
30 136 128
29 137 129
31 147 138
30 143 137
32 151 143
31 150 142
31 147 141
31 147 140
31 151 144
32 155 148
32 155 148
32 156 150
31 152 146
32 155 152
32 157 152
32 155 149
32 155 150
32 158 153
32 159 155
32 158 154
32 158 154
32 161 157
32 160 156
33 161 156
32 160 156
32 161 156
33 161 157
33 161 157
32 160 156
33 162 157
59 160 159
125 153 176
131 152 179
132 153 179
132 153 179
132 153 179
130 150 176
130 149 176
134 154 180
133 153 179
131 152 178
131 151 177
130 150 176
133 153 179
129 149 176
128 148 174
132 153 179
132 153 179
133 153 180
131 152 178
131 151 178
132 152 177
118 134 157
119 136 159
118 134 156
122 140 164
121 138 161
124 142 166
122 139 161
126 143 167
118 133 155
122 138 161
122 139 163
120 137 159
122 137 158
129 148 172
127 144 167
124 143 167
124 141 165
122 138 160
122 139 162
124 142 167
126 144 167
127 145 169
124 142 165
125 143 167
124 142 166
123 140 164
122 139 162
124 142 166
123 141 165
124 142 166
126 144 169
127 144 168
120 136 158
128 146 170
124 141 165
126 144 168
123 141 164
127 146 171
127 145 170
128 147 172
127 147 173
127 144 168
128 146 172
128 147 172
127 144 169
130 150 176
125 143 168
130 148 173
127 146 171
127 146 171
128 147 172
125 143 167
127 144 169
129 148 173
130 148 173
129 148 173
127 146 172
127 145 170
128 146 171
129 148 174
127 146 171
130 149 174
131 151 178
128 148 173
129 148 173
130 149 175
133 153 179
130 150 176
131 150 176
132 151 177
129 148 174
130 149 175
128 147 173
127 147 172
130 149 175
125 144 169
129 148 174
126 145 171
127 145 169
129 149 174
128 147 173
127 146 171
130 149 175
130 149 175
130 149 175
130 149 174
128 146 170
129 147 171
130 150 176
128 146 170
128 146 170
128 146 170
127 145 169
129 146 169
129 147 170
124 141 164
126 143 166
123 136 157
120 130 145
120 120 125
123 123 128
118 119 123
109 105 107
166 154 148
90 65 51
91 61 43
97 66 47
104 71 51
143 126 121
183 181 185
181 180 186
179 180 186
177 179 186
176 178 186
176 178 186
176 178 186
177 178 186
177 179 186
179 180 186
181 181 186
184 182 186
187 183 186
190 185 186
194 187 186
199 189 186
174 177 169
28 116 97
26 107 87
39 93 79
109 126 141
122 143 167
117 138 159
112 134 154
114 137 157
111 133 153
107 128 147
105 127 145
94 118 133
96 122 137
90 117 130
24 110 100
26 120 110
29 131 119
28 130 118
28 131 119
29 135 125
30 139 130
29 136 128
30 141 133
29 139 131
30 140 132
30 143 136
32 151 142
30 145 139
32 154 147
31 152 145
32 154 148
32 156 150
31 152 146
32 156 150
32 156 150
32 156 151
32 153 147
32 160 154
32 157 152
32 160 154
33 160 154
32 161 156
32 161 156
32 159 154
33 161 156
32 160 154
32 161 156
32 158 154
33 162 157
33 160 156
33 162 157
33 161 156
33 161 156
52 161 159
126 152 175
131 152 178
133 153 179
132 152 178
131 151 177
130 150 176
131 152 178
131 152 178
129 149 176
131 151 178
131 152 178
132 152 178
133 153 178
129 149 175
133 153 179
132 153 179
132 152 178
130 150 177
134 154 181
132 152 178
121 139 163
121 138 161
123 138 160
122 138 161
124 142 165
123 140 163
119 136 158
120 135 157
126 144 168
122 138 161
125 142 166
126 145 170
124 141 165
121 138 161
125 144 167
120 136 159
128 146 171
122 139 163
122 138 160
120 136 158
124 142 165
125 143 167
128 147 172
122 140 163
123 141 165
128 147 172
122 140 163
126 143 167
123 140 164
125 143 167
125 143 167
129 149 174
126 144 168
125 143 167
127 146 171
128 148 174
126 144 169
126 144 169
127 146 170
126 144 167
128 147 171
126 143 167
127 145 169
129 148 174
126 145 170
128 147 172
128 147 172
130 150 175
125 143 167
131 150 176
127 146 171
128 146 170
128 147 172
128 146 170
128 147 171
131 151 176
127 146 171
130 149 174
131 150 176
131 149 176
127 145 170
126 144 169
128 147 173
130 149 174
130 151 177
128 146 171
127 145 171
131 151 177
129 147 172
130 149 175
130 149 174
131 150 176
130 149 174
129 148 174
130 150 175
130 150 176
130 150 176
130 149 175
130 150 175
129 148 173
128 147 173
130 148 172
129 147 172
128 146 170
129 148 173
127 146 171
126 145 169
130 149 174
127 144 168
128 146 169
128 147 172
129 148 173
131 149 174
128 146 170
125 142 166
125 140 162
128 144 165
129 145 166
121 130 147
122 122 126
121 121 126
118 119 124
115 113 116
135 134 129
81 58 43
87 59 43
97 66 47
104 70 49
107 73 53
179 175 177
183 181 186
181 181 186
180 180 186
179 179 186
178 179 186
178 179 186
178 179 186
179 180 186
180 180 186
183 181 186
185 182 186
188 184 186
191 185 186
195 187 186
199 189 186
190 185 178
35 122 103
27 109 89
22 92 76
107 123 137
115 136 157
113 137 157
113 134 154
116 137 158
103 126 143
103 127 144
96 121 138
102 125 142
90 114 128
92 113 128
33 111 101
24 109 97
26 123 112
27 124 113
28 130 118
28 130 120
29 136 127
28 131 121
30 138 128
30 140 131
30 142 133
31 144 136
31 151 145
31 148 140
30 144 137
31 147 142
31 149 143
31 151 144
31 152 145
31 151 144
31 151 145
32 154 148
32 157 152
32 157 151
32 156 150
31 151 145
32 158 153
32 159 154
32 158 153
32 158 153
32 159 154
33 161 156
32 160 155
32 160 155
33 162 157
32 160 156
33 161 157
33 161 156
33 161 156
33 161 156
54 157 156
124 153 176
133 153 178
130 151 177
132 152 179
133 154 180
132 153 179
130 150 176
131 151 177
130 151 177
133 153 180
131 151 177
132 152 179
130 151 177
129 150 176
132 153 179
132 153 179
130 150 176
131 151 176
132 152 179
123 139 162
122 139 162
122 138 161
118 135 157
120 137 159
122 139 162
125 142 166
122 140 163
125 142 165
123 138 161
123 139 162
123 141 165
120 137 160
123 141 164
122 139 162
123 139 162
126 144 167
126 145 169
125 141 164
126 143 167
128 147 172
126 144 167
124 142 166
126 144 168
123 142 166
127 146 170
128 146 171
123 140 163
123 140 164
125 143 167
125 144 169
126 143 166
125 143 167
119 136 159
127 145 169
124 142 167
126 144 170
126 145 169
127 146 172
128 147 172
127 146 171
126 145 170
126 144 168
127 145 169
128 148 173
128 147 172
127 145 170
129 147 173
129 148 173
127 146 172
131 150 176
127 145 169
129 148 173
127 146 170
129 148 174
130 147 172
127 146 172
127 145 170
129 148 174
130 149 175
129 148 173
130 149 175
130 149 174
132 151 178
129 148 173
130 148 173
128 147 172
130 149 175
131 151 177
128 148 174
130 149 175
131 150 176
129 148 173
130 149 174
131 150 176
130 150 176
129 147 173
129 148 174
128 147 173
126 146 171
130 150 176
129 149 174
131 150 175
127 146 170
128 148 174
128 147 172
126 145 170
128 146 171
128 146 171
127 145 168
130 149 174
125 143 166
129 146 170
127 145 170
126 142 164
127 144 168
122 136 156
119 134 155
123 134 150
120 120 124
123 123 127
120 121 126
119 119 124
127 127 128
99 76 62
90 59 42
93 63 44
101 70 49
107 73 52
157 144 141
186 183 186
184 182 186
182 181 186
181 181 186
180 180 186
180 180 186
180 180 186
181 181 186
182 181 186
184 182 186
186 183 186
189 184 186
192 186 186
196 187 186
200 189 186
204 191 185
68 125 111
25 102 84
23 93 77
81 101 105
118 139 162
117 137 158
118 138 159
116 137 158
113 134 154
111 132 152
104 127 145
103 126 144
90 114 126
89 112 126
66 111 114
24 114 104
24 112 102
25 115 103
27 127 116
28 132 122
29 133 124
28 131 124
30 137 127
29 137 127
30 143 135
30 142 134
30 141 134
31 146 137
31 147 139
31 149 142
31 148 141
31 148 140
32 154 148
30 147 141
32 155 149
32 155 148
31 153 149
32 154 148
32 156 151
32 157 151
32 157 152
32 158 153
32 159 155
32 159 154
32 159 154
32 160 155
33 161 155
33 160 155
33 161 156
32 160 155
33 161 156
32 160 155
32 160 154
33 161 156
33 162 155
61 161 160
128 152 176
130 150 175
133 154 181
133 153 179
131 150 177
132 152 179
130 150 177
131 151 177
133 154 180
133 153 180
133 153 180
131 151 177
132 152 178
131 152 178
132 152 178
129 149 174
133 153 179
133 153 180
123 139 162
124 141 165
122 140 164
128 147 172
122 137 158
119 135 158
124 141 165
121 137 159
122 139 162
121 139 162
124 141 165
123 140 163
124 142 166
121 140 164
127 145 169
124 141 164
124 140 163
126 144 168
126 144 168
120 136 158
125 143 167
129 148 173
126 144 167
123 139 162
127 145 170
123 140 163
128 146 171
124 142 166
126 144 168
121 138 162
129 148 173
123 140 163
125 143 167
125 144 169
128 146 170
124 142 165
124 142 166
126 145 171
130 150 176
127 146 170
126 144 169
128 146 171
130 149 175
127 146 171
127 145 169
130 150 176
128 146 171
132 152 178
130 150 176
128 147 172
131 150 175
128 147 172
130 150 177
128 147 173
128 147 172
127 146 172
127 146 170
129 148 174
128 148 174
125 144 170
130 149 174
129 148 173
132 151 177
129 147 172
129 147 171
131 151 178
130 150 176
129 148 172
130 148 174
128 145 170
132 151 176
130 150 176
132 152 178
130 150 176
131 151 177
131 151 177
128 148 173
128 147 172
125 144 168
130 150 176
129 149 174
130 150 176
130 149 174
129 148 174
127 147 172
131 150 176
127 145 169
128 145 170
125 144 168
127 144 168
130 150 175
125 142 164
128 146 170
125 141 163
127 143 165
128 144 167
122 136 156
124 139 160
120 132 150
121 121 125
122 123 128
122 122 126
114 112 115
95 85 78
141 102 62
99 68 45
88 60 42
100 68 48
102 69 49
146 130 125
188 184 186
186 183 186
185 182 186
184 182 186
183 181 186
183 181 186
183 181 186
183 182 186
185 182 186
186 183 186
188 184 186
191 185 186
194 186 186
197 188 186
201 190 186
198 182 179
89 105 104
27 107 89
23 93 76
70 92 89
117 138 159
114 135 155
115 137 159
114 136 158
107 128 147
108 130 150
100 125 141
101 124 141
80 106 115
90 113 128
69 104 110
22 103 94
24 111 101
25 113 102
26 121 110
26 122 114
27 126 117
28 131 121
29 137 127
29 136 129
28 130 123
29 134 125
29 139 131
30 145 137
31 150 144
31 148 142
30 140 134
31 153 148
31 151 145
32 154 148
31 152 146
31 150 143
31 152 147
32 156 150
31 153 147
32 156 151
32 153 147
32 155 150
32 159 154
32 155 150
33 161 155
33 161 155
33 160 155
32 160 154
33 162 157
32 160 155
32 159 153
33 161 156
33 161 155
32 159 155
33 162 157
33 160 156
71 156 159
129 149 175
132 152 178
132 153 180
133 153 179
129 149 176
130 151 177
132 153 179
132 153 178
131 150 176
128 148 174
131 152 178
132 151 178
132 153 179
131 151 178
129 148 174
131 151 177
133 153 179
123 140 163
126 143 167
122 138 161
123 140 163
119 135 157
120 136 158
120 137 160
125 142 166
125 143 167
120 136 158
120 136 158
121 136 158
126 145 169
124 141 164
122 138 161
126 145 169
123 140 164
121 139 162
128 146 170
124 141 165
126 145 170
125 143 166
128 146 172
128 146 171
120 137 160
128 146 171
126 143 166
126 144 168
125 143 168
123 141 165
123 140 164
126 144 168
128 148 174
124 141 166
127 146 171
126 143 167
128 146 171
127 146 172
127 146 171
127 146 171
128 147 172
128 146 170
127 145 169
128 147 172
128 146 171
128 147 172
129 148 173
129 148 173
129 147 173
126 144 170
127 146 171
126 144 169
128 146 171
130 149 174
127 146 171
129 147 172
128 146 170
127 146 172
130 148 174
133 152 178
131 152 178
127 145 170
133 152 178
131 152 178
127 144 168
131 151 177
129 149 175
132 152 178
129 147 172
127 146 172
129 149 174
126 144 169
130 150 176
130 149 175
132 152 178
130 150 176
129 147 172
129 148 174
129 149 174
128 147 172
128 146 171
129 148 174
128 147 172
129 149 175
128 147 172
129 146 171
128 148 173
127 145 170
127 146 171
126 143 167
130 148 173
126 142 166
126 144 169
125 142 165
128 145 168
128 144 168
127 141 162
123 137 157
120 133 153
119 119 124
120 121 126
123 123 128
115 114 118
99 93 91
135 96 58
125 89 55
79 52 37
85 58 42
99 68 48
147 129 122
191 185 186
189 184 186
187 183 186
186 183 186
185 183 186
185 182 186
185 182 186
186 183 186
187 183 186
188 184 186
190 185 186
192 186 186
195 187 186
198 189 186
202 190 186
182 159 160
89 74 86
26 103 87
21 86 72
56 80 74
119 136 156
114 137 158
115 136 157
111 133 152
111 130 149
103 126 143
99 122 139
87 110 124
93 115 130
78 103 115
82 104 116
39 99 97
23 104 95
23 111 103
25 114 107
25 116 107
27 123 114
27 122 112
27 126 118
30 141 132
29 138 130
29 137 129
29 138 129
30 143 134
31 148 141
30 144 139
30 142 135
31 148 142
30 147 141
31 150 144
31 148 143
32 157 150
32 153 146
32 155 150
31 153 148
32 155 149
32 157 152
32 157 150
33 160 154
32 156 150
32 157 151
32 156 151
33 162 156
33 162 157
33 160 155
33 160 155
33 161 155
32 160 154
33 161 155
33 162 157
33 160 155
33 162 157
33 160 154
77 158 163
131 152 179
133 153 179
128 149 175
130 150 176
130 151 177
131 151 177
134 154 180
130 149 175
132 153 179
131 151 177
133 153 179
134 154 181
130 151 177
129 150 176
131 151 177
132 152 178
123 140 164
125 143 166
119 134 155
123 139 162
124 142 165
125 143 166
124 141 163
123 141 165
123 139 162
122 138 160
120 136 158
122 140 165
127 145 169
124 142 166
123 140 163
123 140 163
124 141 164
126 144 167
119 135 157
125 142 165
128 146 169
126 144 169
125 143 167
127 145 169
127 145 169
124 141 165
120 137 160
126 143 167
123 140 163
126 145 169
123 141 165
121 137 160
124 141 164
125 142 166
124 142 167
123 140 163
127 145 169
128 146 171
128 146 171
129 148 173
125 144 168
127 146 170
126 144 168
129 147 172
124 143 167
130 148 173
126 145 169
127 145 169
128 145 169
129 148 174
131 150 176
128 148 173
125 142 167
130 148 173
126 145 170
127 146 171
129 148 174
131 151 177
129 148 173
130 149 174
129 148 174
130 149 174
130 148 173
131 151 177
129 148 174
130 148 173
132 152 178
130 149 174
131 150 176
130 149 174
130 150 175
130 148 173
130 148 174
131 151 177
131 151 177
129 148 174
128 147 172
130 151 177
129 148 174
129 148 172
129 148 174
128 146 171
127 146 172
129 148 173
129 149 174
129 148 173
129 148 173
126 145 170
129 148 173
130 148 173
125 142 165
128 147 173
127 142 164
126 142 165
127 143 166
122 136 157
124 139 161
123 137 157
119 132 151
118 120 127
122 122 126
122 122 127
119 120 124
111 107 108
108 79 48
127 89 55
75 50 35
81 56 40
94 65 47
154 137 131
194 186 186
192 186 186
190 185 186
189 184 186
188 184 186
188 184 186
188 184 186
188 184 186
189 184 186
191 185 186
192 186 186
194 187 186
197 188 186
200 189 186
203 191 186
155 126 151
77 35 65
26 98 84
22 91 76
50 82 75
114 133 151
115 136 157
114 137 157
116 139 160
106 128 145
105 126 145
98 120 135
103 124 142
94 116 131
95 117 132
77 100 110
66 102 105
21 100 91
25 113 103
24 113 103
26 118 109
25 117 108
27 126 117
27 127 118
29 133 123
28 130 121
29 137 131
30 138 130
30 143 134
30 140 133
29 137 130
30 143 136
30 141 133
31 149 142
31 151 144
31 149 142
31 151 146
30 147 142
32 154 147
32 155 148
31 153 146
32 158 151
33 159 153
32 158 153
32 157 152
32 158 152
32 158 152
33 160 153
33 161 155
32 157 151
32 160 155
32 156 150
33 161 156
33 161 155
33 160 155
33 161 155
33 160 154
33 162 157
33 162 156
102 156 169
132 153 178
132 152 178
131 151 177
131 151 177
133 153 179
130 151 177
130 150 176
131 151 177
130 151 177
132 152 178
134 154 180
131 151 177
131 151 177
130 150 176
132 152 178
